;FLAVOR:Marlin
;TIME:17500
;Filament used: 8.11218m
;Layer height: 0.12
;MINX:56.966
;MINY:47.585
;MINZ:0.12
;MAXX:164.566
;MAXY:177.635
;MAXZ:24
;Generated with Cura_SteamEngine master
M140 S60
M105
M190 S60
M104 S205
M105
M109 S205
M82 ;absolute extrusion mode
; Ender 3 Custom Start G-code
G92 E0 ; Reset Extruder
G28 ; Home all axes
G1 Z2.0 F3000 ; Move Z Axis up little to prevent scratching of Heat Bed
G1 X0.1 Y20 Z0.3 F5000.0 ; Move to start position
G1 X0.1 Y200.0 Z0.3 F1500.0 E15 ; Draw the first line
G1 X0.4 Y200.0 Z0.3 F5000.0 ; Move to side a little
G1 X0.4 Y20 Z0.3 F1500.0 E30 ; Draw the second line
G92 E0 ; Reset Extruder
G1 Z2.0 F3000 ; Move Z Axis up little to prevent scratching of Heat Bed
G1 X5 Y20 Z0.3 F5000.0 ; Move over to prevent blob squish
G92 E0
G92 E0
G1 F1500 E-6.5
;LAYER_COUNT:200
;LAYER:0
M107
G0 F6000 X86.101 Y79.079 Z0.12
;TYPE:SKIRT
G1 F1500 E0
G1 F1200 X86.299 Y79.079 E0.00395
G1 X86.397 Y79.25 E0.00788
G1 X86.299 Y79.421 E0.01182
G1 X86.101 Y79.421 E0.01577
G1 X86.003 Y79.25 E0.0197
G1 X86.101 Y79.079 E0.02364
G0 F6000 X85.87 Y78.679
G1 F1200 X86.53 Y78.679 E0.03681
G1 X86.86 Y79.25 E0.04997
G1 X86.53 Y79.821 E0.06313
G1 X85.87 Y79.821 E0.0763
G1 X85.54 Y79.25 E0.08946
G1 X85.87 Y78.679 E0.10262
G0 F6000 X85.639 Y78.279
G1 F1200 X86.761 Y78.279 E0.12501
G1 X87.321 Y79.25 E0.14738
G1 X86.761 Y80.221 E0.16975
G1 X85.639 Y80.221 E0.19214
G1 X85.079 Y79.25 E0.21451
G1 X85.639 Y78.279 E0.23688
G0 F6000 X85.409 Y77.879
G1 F1200 X86.991 Y77.879 E0.26845
G1 X87.783 Y79.25 E0.30005
G1 X86.991 Y80.621 E0.33164
G1 X85.409 Y80.621 E0.36321
G1 X84.617 Y79.25 E0.39481
G1 X85.409 Y77.879 E0.42641
G0 F6000 X85.177 Y77.479
G1 F1200 X87.223 Y77.479 E0.46724
G1 X88.245 Y79.25 E0.50804
G1 X87.223 Y81.021 E0.54885
G1 X85.177 Y81.021 E0.58968
G1 X84.155 Y79.25 E0.63048
G1 X85.177 Y77.479 E0.67129
G1 F1500 E-5.82871
G0 F6000 X144.955 Y79.25
G1 F1500 E0.67129
G1 F1200 X145.977 Y77.479 E0.71209
G1 X148.023 Y77.479 E0.75292
G1 X149.045 Y79.25 E0.79373
G1 X148.023 Y81.021 E0.83453
G1 X145.977 Y81.021 E0.87536
G1 X144.955 Y79.25 E0.91617
G0 F6000 X145.417 Y79.25
G1 F1200 X146.209 Y77.879 E0.94776
G1 X147.791 Y77.879 E0.97933
G1 X148.583 Y79.25 E1.01093
G1 X147.791 Y80.621 E1.04253
G1 X146.209 Y80.621 E1.0741
G1 X145.417 Y79.25 E1.1057
G0 F6000 X145.879 Y79.25
G1 F1200 X146.439 Y78.279 E1.12806
G1 X147.561 Y78.279 E1.15045
G1 X148.121 Y79.25 E1.17282
G1 X147.561 Y80.221 E1.19519
G1 X146.439 Y80.221 E1.21758
G1 X145.879 Y79.25 E1.23995
G0 F6000 X146.34 Y79.25
G1 F1200 X146.67 Y78.679 E1.25311
G1 X147.33 Y78.679 E1.26628
G1 X147.66 Y79.25 E1.27945
G1 X147.33 Y79.821 E1.29261
G1 X146.67 Y79.821 E1.30578
G1 X146.34 Y79.25 E1.31894
G0 F6000 X146.803 Y79.25
G1 F1200 X146.901 Y79.079 E1.32287
G1 X147.099 Y79.079 E1.32682
G1 X147.197 Y79.25 E1.33076
G1 X147.099 Y79.421 E1.33469
G1 X146.901 Y79.421 E1.33864
G1 X146.803 Y79.25 E1.34257
G1 F1500 E-5.15743
;MESH:BatteryPlatform_v1.stl
G0 F6000 X159.056 Y52.217
G0 X158.37 Y53.967
G0 X158.82 Y53.887
;TYPE:WALL-INNER
G1 F1500 E1.34257
G1 F1200 X159.205 Y53.945 E1.35034
G1 X159.595 Y53.945 E1.35813
G1 X159.98 Y53.887 E1.3659
G1 X160.353 Y53.771 E1.37369
G1 X160.701 Y53.604 E1.38139
G1 X161 Y53.399 E1.38863
G1 X161 Y105.617 E2.4307
G1 X160.974 Y105.576 E2.43166
G1 X160.714 Y105.285 E2.43945
G1 X160.418 Y105.037 E2.44716
G1 X160.085 Y104.834 E2.45494
G1 X159.728 Y104.683 E2.46268
G1 X159.352 Y104.587 E2.47042
G1 X158.964 Y104.548 E2.4782
G1 X158.565 Y104.568 E2.48618
G1 X158.084 Y104.678 E2.49602
G1 X157.712 Y104.834 E2.50407
G1 X157.373 Y105.042 E2.51201
G1 X157 Y105.37 E2.52192
G1 X156.751 Y105.684 E2.52992
G1 X156.555 Y106.023 E2.53773
G1 X156.414 Y106.383 E2.54545
G1 X156.324 Y106.772 E2.55342
G1 X156.297 Y107.275 E2.56347
G1 X156.374 Y107.79 E2.57386
G1 X156.549 Y108.269 E2.58404
G1 X156.751 Y108.616 E2.59205
G1 X156.993 Y108.92 E2.5998
G1 X157.278 Y109.184 E2.60756
G1 X157.374 Y109.25 E2.60988
G1 X62.626 Y109.25 E4.50068
G1 X62.722 Y109.184 E4.50301
G1 X63.007 Y108.92 E4.51076
G1 X63.249 Y108.616 E4.51851
G1 X63.445 Y108.277 E4.52633
G1 X63.586 Y107.917 E4.53404
G1 X63.676 Y107.528 E4.54201
G1 X63.7 Y107.032 E4.55192
G1 X63.65 Y106.634 E4.55993
G1 X63.545 Y106.259 E4.5677
G1 X63.384 Y105.904 E4.57548
G1 X63.174 Y105.576 E4.58325
G1 X62.914 Y105.285 E4.59104
G1 X62.618 Y105.037 E4.59874
G1 X62.285 Y104.834 E4.60652
G1 X61.928 Y104.683 E4.61426
G1 X61.552 Y104.587 E4.622
G1 X61.164 Y104.548 E4.62979
G1 X60.765 Y104.568 E4.63776
G1 X60.284 Y104.678 E4.6476
G1 X59.912 Y104.834 E4.65565
G1 X59.573 Y105.042 E4.66359
G1 X59.2 Y105.37 E4.6735
G1 X59 Y105.622 E4.67992
G1 X59 Y52.878 E5.73249
G1 X59.193 Y53.12 E5.73867
G1 X59.478 Y53.384 E5.74642
G1 X59.799 Y53.604 E5.75418
G1 X60.147 Y53.771 E5.76189
G1 X60.52 Y53.887 E5.76968
G1 X60.905 Y53.945 E5.77745
G1 X61.295 Y53.945 E5.78523
G1 X61.68 Y53.887 E5.793
G1 X62.053 Y53.771 E5.8008
G1 X62.401 Y53.604 E5.8085
G1 X62.722 Y53.384 E5.81627
G1 X63.007 Y53.12 E5.82402
G1 X63.249 Y52.816 E5.83178
G1 X63.445 Y52.477 E5.83959
G1 X63.586 Y52.117 E5.84731
G1 X63.676 Y51.728 E5.85527
G1 X63.7 Y51.232 E5.86518
G1 X63.65 Y50.834 E5.87319
G1 X63.545 Y50.459 E5.88096
G1 X63.384 Y50.104 E5.88874
G1 X63.174 Y49.776 E5.89651
G1 X62.914 Y49.485 E5.9043
G1 X62.634 Y49.25 E5.91159
G1 X157.864 Y49.25 E7.81201
G1 X157.5 Y49.57 E7.82168
G1 X157.251 Y49.884 E7.82968
G1 X157.055 Y50.223 E7.83749
G1 X156.914 Y50.583 E7.84521
G1 X156.824 Y50.972 E7.85318
G1 X156.797 Y51.475 E7.86323
G1 X156.874 Y51.99 E7.87362
G1 X157.049 Y52.469 E7.8838
G1 X157.251 Y52.816 E7.89181
G1 X157.493 Y53.12 E7.89957
G1 X157.778 Y53.384 E7.90732
G1 X158.099 Y53.604 E7.91508
G1 X158.447 Y53.771 E7.92279
G1 X158.82 Y53.887 E7.93058
G0 F6000 X158.91 Y53.496
G1 F1200 X159.235 Y53.545 E7.93714
G1 X159.565 Y53.545 E7.94373
G1 X159.89 Y53.496 E7.95029
G1 X160.206 Y53.398 E7.95689
G1 X160.5 Y53.257 E7.9634
G1 X160.772 Y53.071 E7.96997
G1 X161.013 Y52.847 E7.97654
G1 X161.218 Y52.59 E7.9831
G1 X161.384 Y52.303 E7.98971
G1 X161.4 Y52.262 E7.99059
G1 X161.4 Y52.847 E7.99708
G1 X161.4 Y107.047 E9.0787
G1 X161.4 Y107.799 E9.0937
G1 X161.4 Y109.65 E9.13064
G1 X159.065 Y109.65 E9.17724
G1 X158.41 Y109.65 E9.19031
G1 X61.265 Y109.65 E11.12894
G1 X60.61 Y109.65 E11.14202
G1 X58.6 Y109.65 E11.18213
G1 X58.6 Y107.691 E11.22122
G1 X58.6 Y107.256 E11.2299
G1 X58.6 Y106.501 E11.24497
G1 X58.6 Y51.891 E12.33477
G1 X58.6 Y51.456 E12.34345
G1 X58.6 Y50.701 E12.35852
G1 X58.6 Y48.85 E12.39546
G1 X60.82 Y48.85 E12.43976
G1 X61.482 Y48.85 E12.45297
G1 X159.12 Y48.85 E14.40144
G1 X159.782 Y48.85 E14.41465
G1 X161.4 Y48.85 E14.44694
G1 X161.4 Y50.019 E14.47027
G1 X161.4 Y50.446 E14.47879
G1 X161.332 Y50.296
G1 X161.154 Y50.019 E14.48184
G1 X160.935 Y49.773 E14.48841
G1 X160.684 Y49.563 E14.49494
G1 X160.402 Y49.391 E14.50153
G1 X160.1 Y49.263 E14.50808
G1 X159.782 Y49.182 E14.51463
G1 X159.454 Y49.149 E14.52052
G1 X159.12 Y49.166 E14.52491
G1 X158.707 Y49.26 E14.53336
G1 X158.395 Y49.391 E14.54011
G1 X158.111 Y49.565 E14.54676
G1 X157.791 Y49.847 E14.55527
G1 X157.582 Y50.11 E14.56198
G1 X157.416 Y50.397 E14.56859
G1 X157.297 Y50.701 E14.57511
G1 X157.222 Y51.028 E14.5818
G1 X157.199 Y51.456 E14.59036
G1 X157.264 Y51.891 E14.59913
G1 X157.413 Y52.299 E14.6078
G1 X157.582 Y52.59 E14.61452
G1 X157.787 Y52.847 E14.62108
G1 X158.028 Y53.071 E14.62764
G1 X158.3 Y53.257 E14.63422
G1 X158.594 Y53.398 E14.64073
G1 X158.91 Y53.496 E14.64733
G0 F6000 X158.999 Y53.105
;TYPE:WALL-OUTER
G1 F1200 X159.265 Y53.145 E14.6527
G1 X159.535 Y53.145 E14.65809
G1 X159.801 Y53.105 E14.66345
G1 X160.059 Y53.025 E14.66884
G1 X160.3 Y52.909 E14.67418
G1 X160.522 Y52.758 E14.67954
G1 X160.719 Y52.574 E14.68492
G1 X160.887 Y52.364 E14.69029
G1 X161.023 Y52.129 E14.6957
G1 X161.12 Y51.881 E14.70102
G1 X161.18 Y51.618 E14.7064
G1 X161.198 Y51.262 E14.71352
G1 X161.164 Y50.993 E14.71893
G1 X161.091 Y50.733 E14.72432
G1 X160.98 Y50.488 E14.72968
G1 X160.834 Y50.262 E14.73505
G1 X160.656 Y50.061 E14.74041
G1 X160.45 Y49.889 E14.74577
G1 X160.219 Y49.748 E14.75117
G1 X159.972 Y49.643 E14.75652
G1 X159.712 Y49.577 E14.76188
G1 X159.444 Y49.55 E14.76725
G1 X159.175 Y49.564 E14.77263
G1 X158.83 Y49.642 E14.77969
G1 X158.578 Y49.748 E14.78514
G1 X158.35 Y49.888 E14.79048
G1 X158.082 Y50.124 E14.79761
G1 X157.913 Y50.336 E14.80302
G1 X157.777 Y50.571 E14.80844
G1 X157.68 Y50.819 E14.81375
G1 X157.62 Y51.083 E14.81915
G1 X157.601 Y51.437 E14.82623
G1 X157.654 Y51.792 E14.83339
G1 X157.777 Y52.129 E14.84055
G1 X157.913 Y52.364 E14.84597
G1 X158.081 Y52.574 E14.85133
G1 X158.278 Y52.758 E14.85671
G1 X158.5 Y52.909 E14.86207
G1 X158.741 Y53.025 E14.86741
G1 X158.999 Y53.105 E14.8728
G0 F6000 X158.901 Y53.533
G1 F1500 E8.3728
G0 F6000 X160.811 Y53.761
G0 X160.806 Y105.111
G0 X158.162 Y104.484
G0 X157.046 Y106.579
G0 X156.962 Y107.243
G0 X157.15 Y107.988
G0 X158.094 Y109.198
;TYPE:WALL-INNER
G1 F1500 E14.8728
G1 F1200 X158.41 Y109.296 E14.8794
G1 X158.735 Y109.345 E14.88539
G1 X159.065 Y109.345 E14.88966
G1 X159.39 Y109.296 E14.89622
G1 X159.706 Y109.198 E14.90282
G1 X160 Y109.057 E14.90933
G1 X160.272 Y108.871 E14.9159
G1 X160.513 Y108.647 E14.92247
G1 X160.718 Y108.39 E14.92903
G1 X160.884 Y108.103 E14.93565
G1 X161.003 Y107.799 E14.94216
G1 X161.078 Y107.473 E14.94851
G1 X161.099 Y107.047 E14.95444
G1 X161.057 Y106.713 E14.96116
G1 X160.968 Y106.396 E14.96773
G1 X160.832 Y106.096 E14.9743
G1 X160.654 Y105.819 E14.98087
G1 X160.435 Y105.573 E14.98744
G1 X160.184 Y105.363 E14.99397
G1 X159.902 Y105.191 E15.00057
G1 X159.6 Y105.063 E15.00711
G1 X159.282 Y104.982 E15.01366
G1 X158.954 Y104.949 E15.02024
G1 X158.62 Y104.966 E15.02691
G1 X158.207 Y105.06 E15.03537
G1 X157.895 Y105.191 E15.04212
G1 X157.611 Y105.365 E15.04877
G1 X157.291 Y105.647 E15.05728
G1 X157.082 Y105.91 E15.06398
G1 X156.916 Y106.197 E15.0706
G1 X156.797 Y106.501 E15.07711
G1 X156.722 Y106.828 E15.08381
G1 X156.699 Y107.256 E15.09236
G1 X156.764 Y107.691 E15.10114
G1 X156.913 Y108.099 E15.10981
G1 X157.082 Y108.39 E15.11652
G1 X157.287 Y108.647 E15.12308
G1 X157.528 Y108.871 E15.12965
G1 X157.8 Y109.057 E15.13622
G1 X158.094 Y109.198 E15.14273
G0 F6000 X158.241 Y108.825
;TYPE:WALL-OUTER
G1 F1200 X158.499 Y108.905 E15.14812
G1 X158.765 Y108.945 E15.15349
G1 X159.035 Y108.945 E15.15888
G1 X159.301 Y108.905 E15.16425
G1 X159.559 Y108.825 E15.16964
G1 X159.8 Y108.709 E15.17497
G1 X160.022 Y108.558 E15.18033
G1 X160.219 Y108.374 E15.18571
G1 X160.387 Y108.164 E15.19108
G1 X160.523 Y107.929 E15.1965
G1 X160.62 Y107.681 E15.20181
G1 X160.68 Y107.418 E15.20719
G1 X160.698 Y107.062 E15.21431
G1 X160.664 Y106.793 E15.21972
G1 X160.591 Y106.533 E15.22511
G1 X160.48 Y106.288 E15.23047
G1 X160.334 Y106.062 E15.23584
G1 X160.156 Y105.861 E15.2412
G1 X159.95 Y105.689 E15.24656
G1 X159.719 Y105.548 E15.25196
G1 X159.472 Y105.443 E15.25731
G1 X159.212 Y105.377 E15.26267
G1 X158.944 Y105.35 E15.26804
G1 X158.675 Y105.364 E15.27342
G1 X158.33 Y105.442 E15.28048
G1 X158.078 Y105.548 E15.28593
G1 X157.85 Y105.688 E15.29127
G1 X157.582 Y105.924 E15.2984
G1 X157.413 Y106.136 E15.30381
G1 X157.277 Y106.371 E15.30923
G1 X157.18 Y106.619 E15.31454
G1 X157.12 Y106.883 E15.31994
G1 X157.101 Y107.237 E15.32702
G1 X157.154 Y107.592 E15.33418
G1 X157.277 Y107.929 E15.34134
G1 X157.413 Y108.164 E15.34676
G1 X157.581 Y108.374 E15.35213
G1 X157.778 Y108.558 E15.35751
G1 X158 Y108.709 E15.36286
G1 X158.241 Y108.825 E15.3682
G0 F6000 X158.08 Y109.234
G1 F1500 E8.8682
G0 F6000 X157.15 Y107.988
G0 X156.962 Y107.243
G0 X157.046 Y106.579
G0 X157.173 Y106.289
G0 X156.847 Y105.225
G0 X158.212 Y106.52
G0 X147.161 Y81.356
G0 X147.161 Y83.191
G0 X144.823 Y83.021
;TYPE:WALL-INNER
G1 F1500 E15.3682
G1 F1200 X149.177 Y83.021 E15.45509
G1 X151.355 Y79.25 E15.54199
G1 X149.177 Y75.479 E15.6289
G1 X144.823 Y75.479 E15.71579
G1 X142.645 Y79.25 E15.80269
G1 X144.823 Y83.021 E15.8896
G0 F6000 X145.054 Y82.621
G1 F1200 X148.946 Y82.621 E15.96726
G1 X150.893 Y79.25 E16.04495
G1 X148.946 Y75.879 E16.12264
G1 X145.054 Y75.879 E16.20031
G1 X143.107 Y79.25 E16.27799
G1 X145.054 Y82.621 E16.35568
G0 F6000 X145.285 Y82.221
;TYPE:WALL-OUTER
G1 F1200 X148.715 Y82.221 E16.42413
G1 X150.431 Y79.25 E16.4926
G1 X148.715 Y76.279 E16.56107
G1 X145.285 Y76.279 E16.62952
G1 X143.569 Y79.25 E16.69798
G1 X145.285 Y82.221 E16.76645
G1 F1500 E10.26645
G0 F6000 X145.285 Y82.421
G0 X143.667 Y81.361
G0 X145.256 Y80.443
G0 X61.675 Y52.087
G0 X62.853 Y53.549
G0 X61.59 Y53.496
;TYPE:WALL-INNER
G1 F1500 E16.76645
G1 F1200 X61.906 Y53.398 E16.77306
G1 X62.2 Y53.257 E16.77956
G1 X62.472 Y53.071 E16.78614
G1 X62.713 Y52.847 E16.7927
G1 X62.918 Y52.59 E16.79926
G1 X63.084 Y52.303 E16.80588
G1 X63.203 Y51.999 E16.8124
G1 X63.278 Y51.673 E16.81907
G1 X63.299 Y51.247 E16.82758
G1 X63.257 Y50.913 E16.8343
G1 X63.168 Y50.596 E16.84087
G1 X63.032 Y50.296 E16.84744
G1 X62.854 Y50.019 E16.85402
G1 X62.635 Y49.773 E16.86059
G1 X62.384 Y49.563 E16.86712
G1 X62.102 Y49.391 E16.87371
G1 X61.8 Y49.263 E16.88026
G1 X61.482 Y49.182 E16.88681
G1 X61.154 Y49.149 E16.89131
G1 X60.82 Y49.166 E16.89799
G1 X60.407 Y49.26 E16.90644
G1 X60.095 Y49.391 E16.91319
G1 X59.811 Y49.565 E16.91984
G1 X59.491 Y49.847 E16.92835
G1 X59.282 Y50.11 E16.93505
G1 X59.116 Y50.397 E16.94167
G1 X58.997 Y50.701 E16.94819
G1 X58.922 Y51.028 E16.95455
G1 X58.899 Y51.456 E16.96048
G1 X58.964 Y51.891 E16.96778
G1 X59.113 Y52.299 E16.97645
G1 X59.282 Y52.59 E16.98317
G1 X59.487 Y52.847 E16.98973
G1 X59.728 Y53.071 E16.99629
G1 X60 Y53.257 E17.00287
G1 X60.294 Y53.398 E17.00938
G1 X60.61 Y53.496 E17.01598
G1 X60.935 Y53.545 E17.02254
G1 X61.265 Y53.545 E17.02912
G1 X61.59 Y53.496 E17.03568
G0 F6000 X61.501 Y53.105
;TYPE:WALL-OUTER
G1 F1200 X61.759 Y53.025 E17.04107
G1 X62 Y52.909 E17.04641
G1 X62.222 Y52.758 E17.05177
G1 X62.419 Y52.574 E17.05715
G1 X62.587 Y52.364 E17.06251
G1 X62.723 Y52.129 E17.06793
G1 X62.82 Y51.881 E17.07325
G1 X62.88 Y51.618 E17.07863
G1 X62.898 Y51.262 E17.08574
G1 X62.864 Y50.993 E17.09115
G1 X62.791 Y50.733 E17.09654
G1 X62.68 Y50.488 E17.10191
G1 X62.534 Y50.262 E17.10728
G1 X62.356 Y50.061 E17.11264
G1 X62.15 Y49.889 E17.11799
G1 X61.919 Y49.748 E17.1234
G1 X61.672 Y49.643 E17.12875
G1 X61.412 Y49.577 E17.1341
G1 X61.144 Y49.55 E17.13948
G1 X60.875 Y49.564 E17.14486
G1 X60.53 Y49.642 E17.15191
G1 X60.278 Y49.748 E17.15737
G1 X60.05 Y49.888 E17.16271
G1 X59.782 Y50.124 E17.16984
G1 X59.613 Y50.336 E17.17525
G1 X59.477 Y50.571 E17.18066
G1 X59.38 Y50.819 E17.18598
G1 X59.32 Y51.083 E17.19138
G1 X59.301 Y51.437 E17.19846
G1 X59.354 Y51.792 E17.20562
G1 X59.477 Y52.129 E17.21278
G1 X59.613 Y52.364 E17.2182
G1 X59.781 Y52.574 E17.22356
G1 X59.978 Y52.758 E17.22894
G1 X60.2 Y52.909 E17.2343
G1 X60.441 Y53.025 E17.23964
G1 X60.699 Y53.105 E17.24503
G1 X60.965 Y53.145 E17.2504
G1 X61.235 Y53.145 E17.25578
G1 X61.501 Y53.105 E17.26115
G0 F6000 X61.599 Y53.533
G1 F1500 E10.76115
G0 F6000 X62.506 Y53.786
G0 X61.574 Y52.155
G0 X84.295 Y78.337
G0 X82.705 Y77.42
G0 X82.614 Y79.25
G0 X84.407 Y82.355
G0 X88.377 Y83.021
;TYPE:WALL-INNER
G1 F1500 E17.26115
G1 F1200 X90.555 Y79.25 E17.34806
G1 X88.377 Y75.479 E17.43496
G1 X84.023 Y75.479 E17.52185
G1 X81.845 Y79.25 E17.60875
G1 X84.023 Y83.021 E17.69566
G1 X88.377 Y83.021 E17.78255
G0 F6000 X88.146 Y82.621
G1 F1200 X90.093 Y79.25 E17.86023
G1 X88.146 Y75.879 E17.93792
G1 X84.254 Y75.879 E18.01559
G1 X82.307 Y79.25 E18.09328
G1 X84.254 Y82.621 E18.17096
G1 X88.146 Y82.621 E18.24863
G0 F6000 X87.915 Y82.221
;TYPE:WALL-OUTER
G1 F1200 X89.631 Y79.25 E18.3171
G1 X87.915 Y76.279 E18.38557
G1 X84.485 Y76.279 E18.45402
G1 X82.769 Y79.25 E18.52249
G1 X84.485 Y82.221 E18.59095
G1 X87.915 Y82.221 E18.6594
G1 F1500 E12.1594
G0 F6000 X88.087 Y82.323
G0 X86.361 Y83.191
G0 X86.361 Y81.356
G0 X61.975 Y106.826
G0 X63.743 Y106.187
G0 X62.996 Y107.409
G0 X62.849 Y107.99
G0 X61.906 Y109.198
;TYPE:WALL-INNER
G1 F1500 E18.6594
G1 F1200 X62.2 Y109.057 E18.66591
G1 X62.472 Y108.871 E18.67249
G1 X62.713 Y108.647 E18.67905
G1 X62.918 Y108.39 E18.68561
G1 X63.084 Y108.103 E18.69223
G1 X63.203 Y107.799 E18.69874
G1 X63.278 Y107.473 E18.70542
