;FLAVOR:Marlin
;TIME:13912
;Filament used: 6.82627m
;Layer height: 0.12
;MINX:57.335
;MINY:78.335
;MINZ:0.12
;MAXX:162.665
;MAXY:141.665
;MAXZ:24
;Generated with Cura_SteamEngine master
M140 S60
M105
M190 S60
M104 S205
M105
M109 S205
M82 ;absolute extrusion mode
; Ender 3 Custom Start G-code
G92 E0 ; Reset Extruder
G28 ; Home all axes
G1 Z2.0 F3000 ; Move Z Axis up little to prevent scratching of Heat Bed
G1 X0.1 Y20 Z0.3 F5000.0 ; Move to start position
G1 X0.1 Y200.0 Z0.3 F1500.0 E15 ; Draw the first line
G1 X0.4 Y200.0 Z0.3 F5000.0 ; Move to side a little
G1 X0.4 Y20 Z0.3 F1500.0 E30 ; Draw the second line
G92 E0 ; Reset Extruder
G1 Z2.0 F3000 ; Move Z Axis up little to prevent scratching of Heat Bed
G1 X5 Y20 Z0.3 F5000.0 ; Move over to prevent blob squish
G92 E0
G92 E0
G1 F1500 E-6.5
;LAYER_COUNT:200
;LAYER:0
M107
G0 F6000 X86.101 Y109.829 Z0.12
;TYPE:SKIRT
G1 F1500 E0
G1 F1200 X86.299 Y109.829 E0.00395
G1 X86.397 Y110 E0.00788
G1 X86.299 Y110.171 E0.01182
G1 X86.101 Y110.171 E0.01577
G1 X86.003 Y110 E0.0197
G1 X86.101 Y109.829 E0.02364
G0 F6000 X85.87 Y109.429
G1 F1200 X86.53 Y109.429 E0.03681
G1 X86.86 Y110 E0.04997
G1 X86.53 Y110.571 E0.06313
G1 X85.87 Y110.571 E0.0763
G1 X85.54 Y110 E0.08946
G1 X85.87 Y109.429 E0.10262
G0 F6000 X85.639 Y109.029
G1 F1200 X86.761 Y109.029 E0.12501
G1 X87.321 Y110 E0.14738
G1 X86.761 Y110.971 E0.16975
G1 X85.639 Y110.971 E0.19214
G1 X85.079 Y110 E0.21451
G1 X85.639 Y109.029 E0.23688
G0 F6000 X85.409 Y108.629
G1 F1200 X86.991 Y108.629 E0.26845
G1 X87.783 Y110 E0.30005
G1 X86.991 Y111.371 E0.33164
G1 X85.409 Y111.371 E0.36321
G1 X84.617 Y110 E0.39481
G1 X85.409 Y108.629 E0.42641
G0 F6000 X85.177 Y108.229
G1 F1200 X87.223 Y108.229 E0.46724
G1 X88.245 Y110 E0.50804
G1 X87.223 Y111.771 E0.54885
G1 X85.177 Y111.771 E0.58968
G1 X84.155 Y110 E0.63048
G1 X85.177 Y108.229 E0.67129
G1 F1500 E-5.82871
G0 F6000 X144.955 Y110
G1 F1500 E0.67129
G1 F1200 X145.977 Y108.229 E0.71209
G1 X148.023 Y108.229 E0.75292
G1 X149.045 Y110 E0.79373
G1 X148.023 Y111.771 E0.83453
G1 X145.977 Y111.771 E0.87536
G1 X144.955 Y110 E0.91617
G0 F6000 X145.417 Y110
G1 F1200 X146.209 Y108.629 E0.94776
G1 X147.791 Y108.629 E0.97933
G1 X148.583 Y110 E1.01093
G1 X147.791 Y111.371 E1.04253
G1 X146.209 Y111.371 E1.0741
G1 X145.417 Y110 E1.1057
G0 F6000 X145.879 Y110
G1 F1200 X146.439 Y109.029 E1.12806
G1 X147.561 Y109.029 E1.15045
G1 X148.121 Y110 E1.17282
G1 X147.561 Y110.971 E1.19519
G1 X146.439 Y110.971 E1.21758
G1 X145.879 Y110 E1.23995
G0 F6000 X146.34 Y110
G1 F1200 X146.67 Y109.429 E1.25311
G1 X147.33 Y109.429 E1.26628
G1 X147.66 Y110 E1.27945
G1 X147.33 Y110.571 E1.29261
G1 X146.67 Y110.571 E1.30578
G1 X146.34 Y110 E1.31894
G0 F6000 X146.803 Y110
G1 F1200 X146.901 Y109.829 E1.32287
G1 X147.099 Y109.829 E1.32682
G1 X147.197 Y110 E1.33076
G1 X147.099 Y110.171 E1.33469
G1 X146.901 Y110.171 E1.33864
G1 X146.803 Y110 E1.34257
G1 F1500 E-5.15743
;MESH:BatteryPlatform_v1.stl
G0 F6000 X159.056 Y82.967
G0 X158.37 Y84.717
G0 X158.82 Y84.637
;TYPE:WALL-INNER
G1 F1500 E1.34257
G1 F1200 X159.205 Y84.695 E1.35034
G1 X159.595 Y84.695 E1.35813
G1 X159.98 Y84.637 E1.3659
G1 X160.353 Y84.521 E1.37369
G1 X160.701 Y84.354 E1.38139
G1 X161 Y84.149 E1.38863
G1 X161 Y136.367 E2.4307
G1 X160.974 Y136.326 E2.43166
G1 X160.714 Y136.035 E2.43945
G1 X160.418 Y135.787 E2.44716
G1 X160.085 Y135.584 E2.45494
G1 X159.728 Y135.433 E2.46268
G1 X159.352 Y135.337 E2.47042
G1 X158.964 Y135.298 E2.4782
G1 X158.565 Y135.318 E2.48618
G1 X158.084 Y135.428 E2.49602
G1 X157.712 Y135.584 E2.50407
G1 X157.373 Y135.792 E2.51201
G1 X157 Y136.12 E2.52192
G1 X156.751 Y136.434 E2.52992
G1 X156.555 Y136.773 E2.53773
G1 X156.414 Y137.133 E2.54545
G1 X156.324 Y137.522 E2.55342
G1 X156.297 Y138.025 E2.56347
G1 X156.374 Y138.54 E2.57386
G1 X156.549 Y139.019 E2.58404
G1 X156.751 Y139.366 E2.59205
G1 X156.993 Y139.67 E2.5998
G1 X157.278 Y139.934 E2.60756
G1 X157.374 Y140 E2.60988
G1 X62.626 Y140 E4.50068
G1 X62.722 Y139.934 E4.50301
G1 X63.007 Y139.67 E4.51076
G1 X63.249 Y139.366 E4.51851
G1 X63.445 Y139.027 E4.52633
G1 X63.586 Y138.667 E4.53404
G1 X63.676 Y138.278 E4.54201
G1 X63.7 Y137.782 E4.55192
G1 X63.65 Y137.384 E4.55993
G1 X63.545 Y137.009 E4.5677
G1 X63.384 Y136.654 E4.57548
G1 X63.174 Y136.326 E4.58325
G1 X62.914 Y136.035 E4.59104
G1 X62.618 Y135.787 E4.59874
G1 X62.285 Y135.584 E4.60652
G1 X61.928 Y135.433 E4.61426
G1 X61.552 Y135.337 E4.622
G1 X61.164 Y135.298 E4.62979
G1 X60.765 Y135.318 E4.63776
G1 X60.284 Y135.428 E4.6476
G1 X59.912 Y135.584 E4.65565
G1 X59.573 Y135.792 E4.66359
G1 X59.2 Y136.12 E4.6735
G1 X59 Y136.372 E4.67992
G1 X59 Y83.628 E5.73249
G1 X59.193 Y83.87 E5.73867
G1 X59.478 Y84.134 E5.74642
G1 X59.799 Y84.354 E5.75418
G1 X60.147 Y84.521 E5.76189
G1 X60.52 Y84.637 E5.76968
G1 X60.905 Y84.695 E5.77745
G1 X61.295 Y84.695 E5.78523
G1 X61.68 Y84.637 E5.793
G1 X62.053 Y84.521 E5.8008
G1 X62.401 Y84.354 E5.8085
G1 X62.722 Y84.134 E5.81627
G1 X63.007 Y83.87 E5.82402
G1 X63.249 Y83.566 E5.83178
G1 X63.445 Y83.227 E5.83959
G1 X63.586 Y82.867 E5.84731
G1 X63.676 Y82.478 E5.85527
G1 X63.7 Y81.982 E5.86518
G1 X63.65 Y81.584 E5.87319
G1 X63.545 Y81.209 E5.88096
G1 X63.384 Y80.854 E5.88874
G1 X63.174 Y80.526 E5.89651
G1 X62.914 Y80.235 E5.9043
G1 X62.634 Y80 E5.91159
G1 X157.864 Y80 E7.81201
G1 X157.5 Y80.32 E7.82168
G1 X157.251 Y80.634 E7.82968
G1 X157.055 Y80.973 E7.83749
G1 X156.914 Y81.333 E7.84521
G1 X156.824 Y81.722 E7.85318
G1 X156.797 Y82.225 E7.86323
G1 X156.874 Y82.74 E7.87362
G1 X157.049 Y83.219 E7.8838
G1 X157.251 Y83.566 E7.89181
G1 X157.493 Y83.87 E7.89957
G1 X157.778 Y84.134 E7.90732
G1 X158.099 Y84.354 E7.91508
G1 X158.447 Y84.521 E7.92279
G1 X158.82 Y84.637 E7.93058
G0 F6000 X158.91 Y84.246
G1 F1200 X159.235 Y84.295 E7.93714
G1 X159.565 Y84.295 E7.94373
G1 X159.89 Y84.246 E7.95029
G1 X160.206 Y84.148 E7.95689
G1 X160.5 Y84.007 E7.9634
G1 X160.772 Y83.821 E7.96997
G1 X161.013 Y83.597 E7.97654
G1 X161.218 Y83.34 E7.9831
G1 X161.384 Y83.053 E7.98971
G1 X161.4 Y83.012 E7.99059
G1 X161.4 Y83.597 E7.99708
G1 X161.4 Y137.797 E9.0787
G1 X161.4 Y138.549 E9.0937
G1 X161.4 Y140.4 E9.13064
G1 X159.065 Y140.4 E9.17724
G1 X158.41 Y140.4 E9.19031
G1 X61.265 Y140.4 E11.12894
G1 X60.61 Y140.4 E11.14202
G1 X58.6 Y140.4 E11.18213
G1 X58.6 Y138.441 E11.22122
G1 X58.6 Y138.006 E11.2299
G1 X58.6 Y137.251 E11.24497
G1 X58.6 Y82.641 E12.33477
G1 X58.6 Y82.206 E12.34345
G1 X58.6 Y81.451 E12.35852
G1 X58.6 Y79.6 E12.39546
G1 X60.82 Y79.6 E12.43976
G1 X61.482 Y79.6 E12.45297
G1 X159.12 Y79.6 E14.40144
G1 X159.782 Y79.6 E14.41465
G1 X161.4 Y79.6 E14.44694
G1 X161.4 Y80.769 E14.47027
G1 X161.4 Y81.196 E14.47879
G1 X161.332 Y81.046
G1 X161.154 Y80.769 E14.48184
G1 X160.935 Y80.523 E14.48841
G1 X160.684 Y80.313 E14.49494
G1 X160.402 Y80.141 E14.50153
G1 X160.1 Y80.013 E14.50808
G1 X159.782 Y79.932 E14.51463
G1 X159.454 Y79.899 E14.52052
G1 X159.12 Y79.916 E14.52491
G1 X158.707 Y80.01 E14.53336
G1 X158.395 Y80.141 E14.54011
G1 X158.111 Y80.315 E14.54676
G1 X157.791 Y80.597 E14.55527
G1 X157.582 Y80.86 E14.56198
G1 X157.416 Y81.147 E14.56859
G1 X157.297 Y81.451 E14.57511
G1 X157.222 Y81.778 E14.5818
G1 X157.199 Y82.206 E14.59036
G1 X157.264 Y82.641 E14.59913
G1 X157.413 Y83.049 E14.6078
G1 X157.582 Y83.34 E14.61452
G1 X157.787 Y83.597 E14.62108
G1 X158.028 Y83.821 E14.62764
G1 X158.3 Y84.007 E14.63422
G1 X158.594 Y84.148 E14.64073
G1 X158.91 Y84.246 E14.64733
G0 F6000 X158.999 Y83.855
;TYPE:WALL-OUTER
G1 F1200 X159.265 Y83.895 E14.6527
G1 X159.535 Y83.895 E14.65809
G1 X159.801 Y83.855 E14.66345
G1 X160.059 Y83.775 E14.66884
G1 X160.3 Y83.659 E14.67418
G1 X160.522 Y83.508 E14.67954
G1 X160.719 Y83.324 E14.68492
G1 X160.887 Y83.114 E14.69029
G1 X161.023 Y82.879 E14.6957
G1 X161.12 Y82.631 E14.70102
G1 X161.18 Y82.368 E14.7064
G1 X161.198 Y82.012 E14.71352
G1 X161.164 Y81.743 E14.71893
G1 X161.091 Y81.483 E14.72432
G1 X160.98 Y81.238 E14.72968
G1 X160.834 Y81.012 E14.73505
G1 X160.656 Y80.811 E14.74041
G1 X160.45 Y80.639 E14.74577
G1 X160.219 Y80.498 E14.75117
G1 X159.972 Y80.393 E14.75652
G1 X159.712 Y80.327 E14.76188
G1 X159.444 Y80.3 E14.76725
G1 X159.175 Y80.314 E14.77263
G1 X158.83 Y80.392 E14.77969
G1 X158.578 Y80.498 E14.78514
G1 X158.35 Y80.638 E14.79048
G1 X158.082 Y80.874 E14.79761
G1 X157.913 Y81.086 E14.80302
G1 X157.777 Y81.321 E14.80844
G1 X157.68 Y81.569 E14.81375
G1 X157.62 Y81.833 E14.81915
G1 X157.601 Y82.187 E14.82623
G1 X157.654 Y82.542 E14.83339
G1 X157.777 Y82.879 E14.84055
G1 X157.913 Y83.114 E14.84597
G1 X158.081 Y83.324 E14.85133
G1 X158.278 Y83.508 E14.85671
G1 X158.5 Y83.659 E14.86207
G1 X158.741 Y83.775 E14.86741
G1 X158.999 Y83.855 E14.8728
G0 F6000 X158.901 Y84.283
G1 F1500 E8.3728
G0 F6000 X160.811 Y84.511
G0 X160.806 Y135.861
G0 X157.888 Y135.321
G0 X157.046 Y137.329
G0 X156.962 Y137.993
G0 X157.019 Y138.376
G0 X157.176 Y138.725
G0 X157.8 Y139.807
;TYPE:WALL-INNER
G1 F1500 E14.8728
G1 F1200 X158.094 Y139.948 E14.87931
G1 X158.41 Y140.046 E14.88591
G1 X158.735 Y140.095 E14.8919
G1 X159.065 Y140.095 E14.89617
G1 X159.39 Y140.046 E14.90273
G1 X159.706 Y139.948 E14.90933
G1 X160 Y139.807 E14.91584
G1 X160.272 Y139.621 E14.92241
G1 X160.513 Y139.397 E14.92898
G1 X160.718 Y139.14 E14.93554
G1 X160.884 Y138.853 E14.94215
G1 X161.003 Y138.549 E14.94867
G1 X161.078 Y138.223 E14.95501
G1 X161.099 Y137.797 E14.96094
G1 X161.057 Y137.463 E14.96766
G1 X160.968 Y137.146 E14.97423
G1 X160.832 Y136.846 E14.98081
G1 X160.654 Y136.569 E14.98738
G1 X160.435 Y136.323 E14.99395
G1 X160.184 Y136.113 E15.00048
G1 X159.902 Y135.941 E15.00707
G1 X159.6 Y135.813 E15.01362
G1 X159.282 Y135.732 E15.02017
G1 X158.954 Y135.699 E15.02675
G1 X158.62 Y135.716 E15.03342
G1 X158.207 Y135.81 E15.04187
G1 X157.895 Y135.941 E15.04863
G1 X157.611 Y136.115 E15.05527
G1 X157.291 Y136.397 E15.06378
G1 X157.082 Y136.66 E15.07049
G1 X156.916 Y136.947 E15.0771
G1 X156.797 Y137.251 E15.08362
G1 X156.722 Y137.578 E15.09031
G1 X156.699 Y138.006 E15.09887
G1 X156.764 Y138.441 E15.10764
G1 X156.913 Y138.849 E15.11631
G1 X157.082 Y139.14 E15.12303
G1 X157.287 Y139.397 E15.12959
G1 X157.528 Y139.621 E15.13615
G1 X157.8 Y139.807 E15.14273
G0 F6000 X158 Y139.459
;TYPE:WALL-OUTER
G1 F1200 X158.241 Y139.575 E15.14807
G1 X158.499 Y139.655 E15.15346
G1 X158.765 Y139.695 E15.15883
G1 X159.035 Y139.695 E15.16421
G1 X159.301 Y139.655 E15.16958
G1 X159.559 Y139.575 E15.17497
G1 X159.8 Y139.459 E15.18031
G1 X160.022 Y139.308 E15.18567
G1 X160.219 Y139.124 E15.19105
G1 X160.387 Y138.914 E15.19642
G1 X160.523 Y138.679 E15.20183
G1 X160.62 Y138.431 E15.20715
G1 X160.68 Y138.168 E15.21253
G1 X160.698 Y137.812 E15.21964
G1 X160.664 Y137.543 E15.22506
G1 X160.591 Y137.283 E15.23044
G1 X160.48 Y137.038 E15.23581
G1 X160.334 Y136.812 E15.24118
G1 X160.156 Y136.611 E15.24654
G1 X159.95 Y136.439 E15.2519
G1 X159.719 Y136.298 E15.2573
G1 X159.472 Y136.193 E15.26265
G1 X159.212 Y136.127 E15.268
G1 X158.944 Y136.1 E15.27338
G1 X158.675 Y136.114 E15.27876
G1 X158.33 Y136.192 E15.28581
G1 X158.078 Y136.298 E15.29127
G1 X157.85 Y136.438 E15.29661
G1 X157.582 Y136.674 E15.30374
G1 X157.413 Y136.886 E15.30915
G1 X157.277 Y137.121 E15.31456
G1 X157.18 Y137.369 E15.31988
G1 X157.12 Y137.633 E15.32528
G1 X157.101 Y137.987 E15.33236
G1 X157.154 Y138.342 E15.33952
G1 X157.277 Y138.679 E15.34668
G1 X157.413 Y138.914 E15.3521
G1 X157.581 Y139.124 E15.35746
G1 X157.778 Y139.308 E15.36284
G1 X158 Y139.459 E15.3682
G0 F6000 X157.781 Y139.84
G1 F1500 E8.8682
G0 F6000 X157.15 Y138.738
G0 X157.019 Y138.376
G0 X156.962 Y137.993
G0 X157.046 Y137.329
G0 X156.847 Y135.975
G0 X158.212 Y137.27
G0 X147.161 Y112.106
G0 X147.161 Y113.941
G0 X144.823 Y113.771
;TYPE:WALL-INNER
G1 F1500 E15.3682
G1 F1200 X149.177 Y113.771 E15.45509
G1 X151.355 Y110 E15.54199
G1 X149.177 Y106.229 E15.6289
G1 X144.823 Y106.229 E15.71579
G1 X142.645 Y110 E15.80269
G1 X144.823 Y113.771 E15.8896
G0 F6000 X145.054 Y113.371
G1 F1200 X148.946 Y113.371 E15.96726
G1 X150.893 Y110 E16.04495
G1 X148.946 Y106.629 E16.12264
G1 X145.054 Y106.629 E16.20031
G1 X143.107 Y110 E16.27799
G1 X145.054 Y113.371 E16.35568
G0 F6000 X145.285 Y112.971
;TYPE:WALL-OUTER
G1 F1200 X148.715 Y112.971 E16.42413
G1 X150.431 Y110 E16.4926
G1 X148.715 Y107.029 E16.56107
G1 X145.285 Y107.029 E16.62952
G1 X143.569 Y110 E16.69798
G1 X145.285 Y112.971 E16.76645
G1 F1500 E10.26645
G0 F6000 X145.285 Y113.171
G0 X143.667 Y112.111
G0 X145.256 Y111.193
G0 X61.874 Y82.62
G0 X63.423 Y83.685
G0 X61.59 Y84.246
;TYPE:WALL-INNER
G1 F1500 E16.76645
G1 F1200 X61.906 Y84.148 E16.77306
G1 X62.2 Y84.007 E16.77956
G1 X62.472 Y83.821 E16.78614
G1 X62.713 Y83.597 E16.7927
G1 X62.918 Y83.34 E16.79926
G1 X63.084 Y83.053 E16.80588
G1 X63.203 Y82.749 E16.8124
G1 X63.278 Y82.423 E16.81907
G1 X63.299 Y81.997 E16.82758
G1 X63.257 Y81.663 E16.8343
G1 X63.168 Y81.346 E16.84087
G1 X63.032 Y81.046 E16.84744
G1 X62.854 Y80.769 E16.85402
G1 X62.635 Y80.523 E16.86059
G1 X62.384 Y80.313 E16.86712
G1 X62.102 Y80.141 E16.87371
G1 X61.8 Y80.013 E16.88026
G1 X61.482 Y79.932 E16.88681
G1 X61.154 Y79.899 E16.89131
G1 X60.82 Y79.916 E16.89799
G1 X60.407 Y80.01 E16.90644
G1 X60.095 Y80.141 E16.91319
G1 X59.811 Y80.315 E16.91984
G1 X59.491 Y80.597 E16.92835
G1 X59.282 Y80.86 E16.93505
G1 X59.116 Y81.147 E16.94167
G1 X58.997 Y81.451 E16.94819
G1 X58.922 Y81.778 E16.95455
G1 X58.899 Y82.206 E16.96048
G1 X58.964 Y82.641 E16.96778
G1 X59.113 Y83.049 E16.97645
G1 X59.282 Y83.34 E16.98317
G1 X59.487 Y83.597 E16.98973
G1 X59.728 Y83.821 E16.99629
G1 X60 Y84.007 E17.00287
G1 X60.294 Y84.148 E17.00938
G1 X60.61 Y84.246 E17.01598
G1 X60.935 Y84.295 E17.02254
G1 X61.265 Y84.295 E17.02912
G1 X61.59 Y84.246 E17.03568
G0 F6000 X61.501 Y83.855
;TYPE:WALL-OUTER
G1 F1200 X61.759 Y83.775 E17.04107
G1 X62 Y83.659 E17.04641
G1 X62.222 Y83.508 E17.05177
G1 X62.419 Y83.324 E17.05715
G1 X62.587 Y83.114 E17.06251
G1 X62.723 Y82.879 E17.06793
G1 X62.82 Y82.631 E17.07325
G1 X62.88 Y82.368 E17.07863
G1 X62.898 Y82.012 E17.08574
G1 X62.864 Y81.743 E17.09115
G1 X62.791 Y81.483 E17.09654
G1 X62.68 Y81.238 E17.10191
G1 X62.534 Y81.012 E17.10728
G1 X62.356 Y80.811 E17.11264
G1 X62.15 Y80.639 E17.11799
G1 X61.919 Y80.498 E17.1234
G1 X61.672 Y80.393 E17.12875
G1 X61.412 Y80.327 E17.1341
G1 X61.144 Y80.3 E17.13948
G1 X60.875 Y80.314 E17.14486
G1 X60.53 Y80.392 E17.15191
G1 X60.278 Y80.498 E17.15737
G1 X60.05 Y80.638 E17.16271
G1 X59.782 Y80.874 E17.16984
G1 X59.613 Y81.086 E17.17525
G1 X59.477 Y81.321 E17.18066
G1 X59.38 Y81.569 E17.18598
G1 X59.32 Y81.833 E17.19138
G1 X59.301 Y82.187 E17.19846
G1 X59.354 Y82.542 E17.20562
G1 X59.477 Y82.879 E17.21278
G1 X59.613 Y83.114 E17.2182
G1 X59.781 Y83.324 E17.22356
G1 X59.978 Y83.508 E17.22894
G1 X60.2 Y83.659 E17.2343
G1 X60.441 Y83.775 E17.23964
G1 X60.699 Y83.855 E17.24503
G1 X60.965 Y83.895 E17.2504
G1 X61.235 Y83.895 E17.25578
G1 X61.501 Y83.855 E17.26115
G0 F6000 X61.599 Y84.283
G1 F1500 E10.76115
G0 F6000 X62.506 Y84.536
G0 X61.574 Y82.905
G0 X84.295 Y109.087
G0 X82.705 Y108.17
G0 X82.614 Y110
G0 X84.407 Y113.105
G0 X88.377 Y113.771
;TYPE:WALL-INNER
G1 F1500 E17.26115
G1 F1200 X90.555 Y110 E17.34806
G1 X88.377 Y106.229 E17.43496
G1 X84.023 Y106.229 E17.52185
G1 X81.845 Y110 E17.60875
G1 X84.023 Y113.771 E17.69566
G1 X88.377 Y113.771 E17.78255
G0 F6000 X88.146 Y113.371
G1 F1200 X90.093 Y110 E17.86023
G1 X88.146 Y106.629 E17.93792
G1 X84.254 Y106.629 E18.01559
G1 X82.307 Y110 E18.09328
G1 X84.254 Y113.371 E18.17096
G1 X88.146 Y113.371 E18.24863
G0 F6000 X87.915 Y112.971
;TYPE:WALL-OUTER
G1 F1200 X89.631 Y110 E18.3171
G1 X87.915 Y107.029 E18.38557
G1 X84.485 Y107.029 E18.45402
G1 X82.769 Y110 E18.52249
G1 X84.485 Y112.971 E18.59095
G1 X87.915 Y112.971 E18.6594
G1 F1500 E12.1594
G0 F6000 X88.087 Y113.073
G0 X86.361 Y113.941
G0 X86.361 Y112.106
G0 X83.911 Y141.665
G0 X83.911 Y139.79
G0 X62.2 Y139.807
;TYPE:WALL-INNER
G1 F1500 E18.6594
G1 F1200 X62.472 Y139.621 E18.66598
G1 X62.713 Y139.397 E18.67255
G1 X62.918 Y139.14 E18.67911
G1 X63.084 Y138.853 E18.68572
G1 X63.203 Y138.549 E18.69224
G1 X63.278 Y138.223 E18.69891
G1 X63.299 Y137.797 E18.70743
G1 X63.257 Y137.463 E18.71414
G1 X63.168 Y137.146 E18.72071
