;FLAVOR:Marlin
;TIME:6544
;Filament used: 4.44564m
;Layer height: 0.2
;MINX:79.335
;MINY:92.26
;MINZ:0.2
;MAXX:140.665
;MAXY:127.74
;MAXZ:22
;Generated with Cura_SteamEngine master
M140 S65
M105
M190 S65
M104 S205
M105
M109 S205
M82 ;absolute extrusion mode
; Ender 3 Custom Start G-code
G92 E0 ; Reset Extruder
G28 ; Home all axes
G1 Z2.0 F3000 ; Move Z Axis up little to prevent scratching of Heat Bed
G1 X0.1 Y20 Z0.3 F5000.0 ; Move to start position
G1 X0.1 Y200.0 Z0.3 F1500.0 E15 ; Draw the first line
G1 X0.4 Y200.0 Z0.3 F5000.0 ; Move to side a little
G1 X0.4 Y20 Z0.3 F1500.0 E30 ; Draw the second line
G92 E0 ; Reset Extruder
G1 Z2.0 F3000 ; Move Z Axis up little to prevent scratching of Heat Bed
G1 X5 Y20 Z0.3 F5000.0 ; Move over to prevent blob squish
G92 E0
G92 E0
G1 F1500 E-6.5
;LAYER_COUNT:110
;LAYER:0
M107
G0 F6000 X88 Y95.925 Z0.2
;TYPE:SKIRT
G1 F1500 E0
G1 F1200 X88.427 Y95.925 E0.0142
G1 X88.123 Y96.308 E0.03047
G1 X88 Y96.299 E0.03457
G1 X88 Y95.925 E0.04701
G0 F6000 X87.6 Y95.525
G1 F1200 X89.299 Y95.525 E0.10352
G1 X89.039 Y95.796 E0.11601
G1 X88.281 Y96.754 E0.15664
G1 X87.718 Y96.68 E0.17552
G1 X87.6 Y96.68 E0.17945
G1 X87.6 Y95.525 E0.21786
G0 F6000 X87.2 Y95.125
G1 F1200 X90.363 Y95.125 E0.32307
G1 X89.645 Y95.74 E0.35451
G1 X89.352 Y96.044 E0.36855
G1 X88.43 Y97.208 E0.41794
G1 X88.183 Y97.13 E0.42656
G1 X87.718 Y97.08 E0.44211
G1 X87.2 Y97.08 E0.45934
G1 X87.2 Y95.125 E0.52436
G0 F6000 X87.992 Y97.501
G1 F1200 X87.718 Y97.48 E0.5335
G1 X86.8 Y97.48 E0.56404
G1 X86.8 Y94.725 E0.65567
G1 X91.552 Y94.725 E0.81372
G1 X91.333 Y94.855 E0.82219
G1 X91.082 Y95.035 E0.83246
G1 X89.906 Y96.043 E0.88398
G1 X89.666 Y96.293 E0.89551
G1 X88.693 Y97.522 E0.94764
G1 X88.573 Y97.707 E0.95498
G1 X88.358 Y97.598 E0.96299
G1 X87.992 Y97.501 E0.97559
G0 F6000 X87.718 Y97.88
G1 F1200 X86.4 Y97.88 E1.01943
G1 X86.4 Y94.325 E1.13766
G1 X93.046 Y94.325 E1.35871
G1 X92.872 Y94.406 E1.3651
G1 X91.538 Y95.199 E1.41671
G1 X91.342 Y95.339 E1.42472
G1 X90.166 Y96.347 E1.47624
G1 X89.979 Y96.541 E1.4852
G1 X89.006 Y97.77 E1.53734
G1 X88.86 Y97.996 E1.54629
G1 X88.708 Y98.29 E1.55729
G1 X88.445 Y98.084 E1.56841
G1 X88.141 Y97.945 E1.57952
G1 X87.718 Y97.88 E1.59376
G0 F6000 X87.718 Y98.28
G1 F1200 X86 Y98.28 E1.6509
G1 X86 Y93.925 E1.79575
G1 X96.248 Y93.925 E2.1366
G1 X94.884 Y94.125 E2.18245
G1 X94.704 Y94.168 E2.1886
G1 X93.262 Y94.663 E2.23931
G1 X93.076 Y94.749 E2.24613
G1 X91.742 Y95.542 E2.29774
G1 X91.602 Y95.643 E2.30349
G1 X90.426 Y96.651 E2.355
G1 X90.293 Y96.789 E2.36138
G1 X89.32 Y98.018 E2.41351
G1 X89.216 Y98.18 E2.41992
G1 X88.804 Y98.976 E2.44973
G1 X88.707 Y98.855 E2.45489
G1 X88.425 Y98.573 E2.46815
G1 X88.199 Y98.404 E2.47754
G1 X87.935 Y98.304 E2.48693
G1 X87.718 Y98.28 E2.49419
G0 F6000 X87.718 Y98.68
G1 F1200 X85.6 Y98.68 E2.56463
G1 X85.6 Y93.525 E2.73609
G1 X104.514 Y93.525 E3.36517
G1 X104.413 Y93.664 E3.37088
G1 X104.136 Y94.16 E3.38978
G1 X104.079 Y94.302 E3.39487
G1 X103.936 Y94.852 E3.41377
G1 X103.917 Y95.003 E3.41883
G1 X103.917 Y95.642 E3.44009
G1 X103.941 Y95.811 E3.44576
G1 X104.085 Y96.3 E3.46272
G1 X104.11 Y96.369 E3.46516
G1 X104.345 Y96.912 E3.48484
G1 X104.465 Y97.091 E3.49201
G1 X104.897 Y97.537 E3.51266
G1 X104.975 Y97.605 E3.5161
G1 X105.426 Y97.933 E3.53465
G1 X105.577 Y98.013 E3.54033
G1 X106.123 Y98.208 E3.55961
G1 X106.239 Y98.237 E3.56359
G1 X106.805 Y98.319 E3.58261
G1 X106.891 Y98.325 E3.58548
G1 X113.13 Y98.325 E3.79299
G1 X113.225 Y98.317 E3.79616
G1 X113.71 Y98.239 E3.8125
G1 X113.787 Y98.222 E3.81512
G1 X114.37 Y98.048 E3.83536
G1 X114.555 Y97.955 E3.84224
G1 X115.064 Y97.578 E3.86331
G1 X115.154 Y97.496 E3.86736
G1 X115.542 Y97.063 E3.8867
G1 X115.63 Y96.934 E3.89189
G1 X115.907 Y96.386 E3.91232
G1 X115.959 Y96.24 E3.91747
G1 X116.07 Y95.719 E3.93519
G1 X116.083 Y95.594 E3.93937
G1 X116.083 Y95.003 E3.95902
G1 X116.064 Y94.852 E3.96409
G1 X115.921 Y94.302 E3.98299
G1 X115.864 Y94.16 E3.98808
G1 X115.587 Y93.664 E4.00697
G1 X115.486 Y93.525 E4.01269
G1 X134.4 Y93.525 E4.64177
G1 X134.4 Y98.68 E4.81322
G1 X132.282 Y98.68 E4.88367
G1 X132.067 Y98.72 E4.89094
G1 X131.858 Y98.856 E4.89924
G1 X131.576 Y99.138 E4.9125
G1 X131.452 Y99.317 E4.91974
G1 X131.4 Y99.562 E4.92807
G1 X131.4 Y100.477 E4.95851
G1 X130.826 Y99.06 E5.00936
G1 X130.775 Y98.961 E5.01306
G1 X129.945 Y97.669 E5.06414
G1 X129.877 Y97.582 E5.06781
G1 X128.856 Y96.496 E5.11739
G1 X128.766 Y96.418 E5.12135
G1 X127.435 Y95.474 E5.17562
G1 X127.34 Y95.419 E5.17927
G1 X125.945 Y94.772 E5.23042
G1 X125.833 Y94.733 E5.23436
G1 X124.345 Y94.375 E5.28526
G1 X124.233 Y94.359 E5.28903
G1 X122.626 Y94.285 E5.34253
G1 X122.511 Y94.29 E5.34636
G1 X120.942 Y94.52 E5.3991
G1 X120.834 Y94.547 E5.40281
G1 X119.392 Y95.042 E5.45352
G1 X119.28 Y95.093 E5.45761
G1 X117.946 Y95.886 E5.50922
G1 X117.863 Y95.946 E5.51263
G1 X116.687 Y96.954 E5.56415
G1 X116.607 Y97.038 E5.56801
G1 X115.634 Y98.267 E5.62014
G1 X115.571 Y98.363 E5.62396
G1 X114.84 Y99.777 E5.6769
G1 X114.797 Y99.885 E5.68077
G1 X114.6 Y100.561 E5.70419
G1 X114.6 Y99.522 E5.73875
G1 X114.56 Y99.307 E5.74602
G1 X114.424 Y99.098 E5.75431
G1 X114.142 Y98.816 E5.76758
G1 X113.963 Y98.692 E5.77482
G1 X113.718 Y98.64 E5.78315
G1 X106.282 Y98.64 E6.03047
G1 X106.067 Y98.68 E6.03775
G1 X105.858 Y98.816 E6.04604
G1 X105.576 Y99.098 E6.0593
G1 X105.452 Y99.277 E6.06655
G1 X105.4 Y99.522 E6.07488
G1 X105.4 Y100.477 E6.10664
G1 X104.826 Y99.06 E6.15749
G1 X104.775 Y98.961 E6.16119
G1 X103.945 Y97.669 E6.21227
G1 X103.877 Y97.582 E6.21594
G1 X102.856 Y96.496 E6.26552
G1 X102.766 Y96.418 E6.26948
G1 X101.435 Y95.474 E6.32375
G1 X101.34 Y95.419 E6.32741
G1 X99.945 Y94.772 E6.37855
G1 X99.833 Y94.733 E6.38249
G1 X98.345 Y94.375 E6.4334
G1 X98.233 Y94.359 E6.43716
G1 X96.626 Y94.285 E6.49067
G1 X96.511 Y94.29 E6.4945
G1 X94.942 Y94.52 E6.54724
G1 X94.834 Y94.547 E6.55094
G1 X93.392 Y95.042 E6.60165
G1 X93.28 Y95.093 E6.60574
G1 X91.946 Y95.886 E6.65736
G1 X91.863 Y95.946 E6.66077
G1 X90.687 Y96.954 E6.71228
G1 X90.607 Y97.038 E6.71614
G1 X89.634 Y98.267 E6.76828
G1 X89.571 Y98.363 E6.77209
G1 X88.84 Y99.777 E6.82504
G1 X88.797 Y99.885 E6.8289
G1 X88.6 Y100.561 E6.85232
G1 X88.6 Y99.562 E6.88555
G1 X88.56 Y99.347 E6.89282
G1 X88.424 Y99.138 E6.90112
G1 X88.142 Y98.856 E6.91438
G1 X87.963 Y98.732 E6.92162
G1 X87.718 Y98.68 E6.92995
G0 F6000 X87.718 Y99.08
G1 F1200 X85.2 Y99.08 E7.0137
G1 X85.2 Y93.125 E7.21177
G1 X105.534 Y93.125 E7.88808
G1 X105.154 Y93.387 E7.90343
G1 X105.113 Y93.425 E7.90529
G1 X104.782 Y93.83 E7.92269
G1 X104.762 Y93.859 E7.92386
G1 X104.485 Y94.355 E7.94275
G1 X104.466 Y94.403 E7.94447
G1 X104.323 Y94.953 E7.96337
G1 X104.317 Y95.003 E7.96505
G1 X104.317 Y95.642 E7.9863
G1 X104.325 Y95.698 E7.98818
G1 X104.477 Y96.21 E8.00595
G1 X104.712 Y96.753 E8.02562
G1 X104.752 Y96.813 E8.02802
G1 X105.184 Y97.259 E8.04868
G1 X105.21 Y97.282 E8.04983
G1 X105.661 Y97.61 E8.06838
G1 X105.712 Y97.636 E8.07028
G1 X106.258 Y97.831 E8.08956
G1 X106.296 Y97.841 E8.09087
G1 X106.862 Y97.923 E8.10989
G1 X106.891 Y97.925 E8.11086
G1 X113.13 Y97.925 E8.31837
G1 X113.162 Y97.922 E8.31944
G1 X113.672 Y97.839 E8.33663
G1 X114.255 Y97.665 E8.35686
G1 X114.317 Y97.634 E8.35917
G1 X114.826 Y97.257 E8.38023
G1 X114.856 Y97.229 E8.3816
G1 X115.244 Y96.796 E8.40094
G1 X115.273 Y96.753 E8.40266
G1 X115.55 Y96.205 E8.42308
G1 X115.568 Y96.157 E8.42479
G1 X115.679 Y95.636 E8.44251
G1 X115.683 Y95.594 E8.44391
G1 X115.683 Y95.003 E8.46357
G1 X115.677 Y94.953 E8.46524
G1 X115.534 Y94.403 E8.48414
G1 X115.515 Y94.355 E8.48586
G1 X115.238 Y93.859 E8.50476
G1 X115.218 Y93.83 E8.50593
G1 X114.887 Y93.425 E8.52332
G1 X114.846 Y93.387 E8.52518
G1 X114.466 Y93.125 E8.54053
G1 X134.8 Y93.125 E9.21685
G1 X134.8 Y99.08 E9.41491
G1 X132.282 Y99.08 E9.49866
G1 X132.141 Y99.139 E9.50374
G1 X131.859 Y99.421 E9.51701
G1 X131.8 Y99.562 E9.52209
G1 X131.8 Y112.005 E9.93595
G1 X131.634 Y112.075 E9.94194
G1 X114.713 Y112.075 E10.50473
G1 X114.318 Y110.806 E10.54894
G1 X114.2 Y110.67 E10.55493
G1 X114.2 Y99.522 E10.92571
G1 X114.141 Y99.381 E10.93079
G1 X113.859 Y99.099 E10.94406
G1 X113.718 Y99.04 E10.94914
G1 X106.282 Y99.04 E11.19647
G1 X106.141 Y99.099 E11.20155
G1 X105.859 Y99.381 E11.21481
G1 X105.8 Y99.522 E11.2199
G1 X105.8 Y110.67 E11.59068
G1 X105.682 Y110.806 E11.59667
G1 X105.287 Y112.075 E11.64087
G1 X88.367 Y112.075 E12.20364
G1 X88.2 Y112.004 E12.20967
G1 X88.2 Y99.562 E12.62349
G1 X88.141 Y99.421 E12.62858
G1 X87.859 Y99.139 E12.64184
G1 X87.718 Y99.08 E12.64693
G0 F6000 X90.92 Y97.286
G1 F1200 X89.947 Y98.515 E12.69906
G1 X89.926 Y98.547 E12.70034
G1 X89.195 Y99.961 E12.75328
G1 X89.181 Y99.997 E12.75456
G1 X88.756 Y101.455 E12.80507
G1 X88.749 Y101.492 E12.80633
G1 X88.602 Y103.037 E12.85795
G1 X88.602 Y103.075 E12.85921
G1 X88.755 Y104.643 E12.91161
G1 X88.762 Y104.68 E12.91286
G1 X89.21 Y106.209 E12.96585
G1 X89.224 Y106.244 E12.96711
G1 X89.896 Y107.554 E13.01608
G1 X89.916 Y107.586 E13.01733
G1 X90.905 Y108.856 E13.07087
G1 X90.932 Y108.884 E13.07216
G1 X92.116 Y109.907 E13.12421
G1 X92.147 Y109.929 E13.12547
G1 X93.515 Y110.721 E13.17805
G1 X93.55 Y110.737 E13.17933
G1 X95.008 Y111.241 E13.23064
G1 X95.044 Y111.25 E13.23187
G1 X96.512 Y111.464 E13.28121
G1 X96.55 Y111.466 E13.28248
G1 X98.163 Y111.392 E13.33618
G1 X98.202 Y111.386 E13.33749
G1 X99.757 Y111.003 E13.39076
G1 X99.793 Y110.99 E13.39203
G1 X101.206 Y110.335 E13.44383
G1 X101.237 Y110.318 E13.44501
G1 X102.474 Y109.447 E13.49533
G1 X102.504 Y109.421 E13.49665
G1 X103.589 Y108.275 E13.54914
G1 X103.612 Y108.245 E13.55039
G1 X104.469 Y106.916 E13.60299
G1 X104.487 Y106.882 E13.60427
G1 X105.067 Y105.43 E13.65627
G1 X105.077 Y105.394 E13.65752
G1 X105.359 Y103.929 E13.70714
G1 X105.363 Y103.891 E13.70841
G1 X105.363 Y102.383 E13.75856
G1 X105.359 Y102.346 E13.7598
G1 X105.04 Y100.665 E13.81671
G1 X105.029 Y100.627 E13.81803
G1 X104.455 Y99.21 E13.86888
G1 X104.438 Y99.177 E13.87011
G1 X103.608 Y97.885 E13.92119
G1 X103.586 Y97.856 E13.9224
G1 X102.565 Y96.77 E13.97197
G1 X102.535 Y96.744 E13.97329
G1 X101.204 Y95.8 E14.02757
G1 X101.172 Y95.782 E14.02879
G1 X99.777 Y95.135 E14.07993
G1 X99.74 Y95.122 E14.08124
G1 X98.252 Y94.764 E14.13214
G1 X98.214 Y94.758 E14.13342
G1 X96.607 Y94.684 E14.18693
G1 X96.569 Y94.686 E14.18819
G1 X95 Y94.916 E14.24094
G1 X94.964 Y94.925 E14.24217
G1 X93.522 Y95.42 E14.29288
G1 X93.485 Y95.437 E14.29423
G1 X92.151 Y96.23 E14.34585
G1 X92.123 Y96.25 E14.34699
G1 X90.947 Y97.258 E14.39851
G1 X90.92 Y97.286 E14.3998
G0 F6000 X97.513 Y93.925
G1 F1200 X103.809 Y93.925 E14.60921
G1 X103.787 Y93.965 E14.61073
G1 X103.692 Y94.201 E14.61919
G1 X103.549 Y94.751 E14.63809
G1 X103.517 Y95.003 E14.64654
G1 X103.517 Y95.642 E14.66779
G1 X103.558 Y95.924 E14.67727
G1 X103.702 Y96.413 E14.69422
G1 X103.743 Y96.528 E14.69829
G1 X103.978 Y97.071 E14.71796
G1 X104.056 Y97.188 E14.72264
G1 X103.148 Y96.222 E14.76674
G1 X102.998 Y96.091 E14.77336
G1 X101.667 Y95.147 E14.82763
G1 X101.509 Y95.056 E14.8337
G1 X100.114 Y94.409 E14.88484
G1 X99.927 Y94.344 E14.89143
G1 X98.439 Y93.986 E14.94233
G1 X98.251 Y93.959 E14.94865
G1 X97.513 Y93.925 E14.97322
G0 F6000 X100.884 Y94.325
G1 F1200 X103.247 Y94.325 E15.05181
G1 X103.162 Y94.651 E15.06302
G1 X103.117 Y95.003 E15.07482
G1 X103.117 Y95.642 E15.09607
G1 X103.124 Y95.691 E15.09772
G1 X101.898 Y94.821 E15.14772
G1 X101.677 Y94.693 E15.15622
G1 X100.884 Y94.325 E15.18529
G0 F6000 X102.453 Y94.725
G1 F1200 X102.753 Y94.725 E15.19527
G1 X102.728 Y94.92 E15.20181
G1 X102.453 Y94.725 E15.21302
G0 F6000 X104.326 Y97.522
G1 F1200 X104.61 Y97.816 E15.22662
G1 X104.74 Y97.929 E15.23235
G1 X105.191 Y98.257 E15.25089
G1 X105.443 Y98.39 E15.26037
G1 X105.658 Y98.467 E15.26797
G1 X105.575 Y98.533 E15.27149
G1 X105.293 Y98.815 E15.28476
G1 X105.197 Y98.91 E15.28925
G1 X105.111 Y98.745 E15.29544
G1 X104.326 Y97.522 E15.34378
G0 F6000 X114.344 Y98.473
G1 F1200 X114.484 Y98.431 E15.34864
G1 X114.793 Y98.277 E15.36012
G1 X115.302 Y97.9 E15.38119
G1 X115.452 Y97.763 E15.38794
G1 X115.84 Y97.33 E15.40728
G1 X115.987 Y97.114 E15.41597
G1 X116.264 Y96.566 E15.43639
G1 X116.35 Y96.323 E15.44497
G1 X116.461 Y95.802 E15.46269
G1 X116.483 Y95.594 E15.46964
G1 X116.483 Y95.003 E15.4893
G1 X116.451 Y94.751 E15.49775
G1 X116.308 Y94.201 E15.51665
G1 X116.213 Y93.965 E15.52511
G1 X116.191 Y93.925 E15.52663
G1 X122.248 Y93.925 E15.72809
G1 X120.884 Y94.125 E15.77394
G1 X120.704 Y94.168 E15.78009
G1 X119.262 Y94.663 E15.8308
G1 X119.076 Y94.749 E15.83762
G1 X117.742 Y95.542 E15.88923
G1 X117.602 Y95.643 E15.89497
G1 X116.426 Y96.651 E15.94649
G1 X116.293 Y96.789 E15.95287
G1 X115.32 Y98.018 E16.005
G1 X115.216 Y98.18 E16.0114
G1 X114.817 Y98.952 E16.04031
G1 X114.707 Y98.815 E16.04615
G1 X114.425 Y98.533 E16.05942
G1 X114.344 Y98.473 E16.06277
G0 F6000 X114.756 Y101.455
G1 F1200 X114.749 Y101.492 E16.06402
G1 X114.602 Y103.037 E16.11564
G1 X114.602 Y103.075 E16.1169
G1 X114.755 Y104.643 E16.1693
G1 X114.762 Y104.68 E16.17056
G1 X115.21 Y106.209 E16.22355
G1 X115.224 Y106.244 E16.2248
G1 X115.896 Y107.554 E16.27377
G1 X115.916 Y107.586 E16.27503
G1 X116.905 Y108.856 E16.32856
G1 X116.932 Y108.884 E16.32986
G1 X118.116 Y109.907 E16.3819
G1 X118.147 Y109.929 E16.38317
G1 X119.515 Y110.721 E16.43574
G1 X119.55 Y110.737 E16.43702
G1 X121.008 Y111.241 E16.48833
G1 X121.044 Y111.25 E16.48956
G1 X122.512 Y111.464 E16.53891
G1 X122.55 Y111.466 E16.54017
G1 X124.163 Y111.392 E16.59388
G1 X124.202 Y111.386 E16.59519
G1 X125.757 Y111.003 E16.64845
G1 X125.793 Y110.99 E16.64973
G1 X127.206 Y110.335 E16.70153
G1 X127.237 Y110.318 E16.7027
G1 X128.474 Y109.447 E16.75302
G1 X128.504 Y109.421 E16.75434
G1 X129.589 Y108.275 E16.80683
G1 X129.612 Y108.245 E16.80809
G1 X130.469 Y106.916 E16.86069
G1 X130.487 Y106.882 E16.86196
G1 X131.067 Y105.43 E16.91397
G1 X131.077 Y105.394 E16.91521
G1 X131.359 Y103.929 E16.96483
G1 X131.363 Y103.891 E16.9661
G1 X131.363 Y102.383 E17.01626
G1 X131.359 Y102.346 E17.0175
G1 X131.04 Y100.665 E17.07441
G1 X131.029 Y100.627 E17.07572
G1 X130.455 Y99.21 E17.12657
G1 X130.438 Y99.177 E17.12781
G1 X129.608 Y97.885 E17.17888
G1 X129.586 Y97.856 E17.18009
G1 X128.565 Y96.77 E17.22967
G1 X128.535 Y96.744 E17.23099
G1 X127.204 Y95.8 E17.28526
G1 X127.172 Y95.782 E17.28648
G1 X125.777 Y95.135 E17.33763
G1 X125.74 Y95.122 E17.33893
G1 X124.252 Y94.764 E17.38984
G1 X124.214 Y94.758 E17.39112
G1 X122.607 Y94.684 E17.44462
G1 X122.569 Y94.686 E17.44589
G1 X121 Y94.916 E17.49863
G1 X120.964 Y94.925 E17.49986
G1 X119.522 Y95.42 E17.55057
G1 X119.485 Y95.437 E17.55193
G1 X118.151 Y96.23 E17.60354
G1 X118.123 Y96.25 E17.60469
G1 X116.947 Y97.258 E17.6562
G1 X116.92 Y97.286 E17.6575
G1 X115.947 Y98.515 E17.70963
G1 X115.926 Y98.547 E17.71091
G1 X115.195 Y99.961 E17.76385
G1 X115.181 Y99.997 E17.76513
G1 X114.756 Y101.455 E17.81565
G0 F6000 X114.6 Y105.551
G1 F1200 X114.826 Y106.322 E17.84237
G1 X114.868 Y106.427 E17.84613
G1 X115.54 Y107.737 E17.8951
G1 X115.601 Y107.832 E17.89885
G1 X116.59 Y109.102 E17.95239
G1 X116.671 Y109.187 E17.9563
G1 X117.855 Y110.21 E18.00834
G1 X117.946 Y110.275 E18.01206
G1 X119.314 Y111.067 E18.06463
G1 X119.419 Y111.115 E18.06847
G1 X120.877 Y111.619 E18.11978
G1 X121.185 Y111.675 E18.1302
G1 X115.008 Y111.675 E18.33564
G1 X114.7 Y110.687 E18.37006
G1 X114.6 Y110.498 E18.37718
G1 X114.6 Y105.551 E18.54171
G0 F6000 X115 Y107.56
G1 F1200 X115.184 Y107.919 E18.55513
G1 X115.285 Y108.077 E18.56137
G1 X116.274 Y109.347 E18.61491
G1 X116.409 Y109.49 E18.62145
G1 X117.593 Y110.513 E18.67349
G1 X117.746 Y110.621 E18.67972
G1 X118.876 Y111.275 E18.72314
G1 X115.302 Y111.275 E18.84201
G1 X115.082 Y110.568 E18.86664
G1 X115 Y110.395 E18.87301
G1 X115 Y107.56 E18.9673
G0 F6000 X115.4 Y108.876
G1 F1200 X115.958 Y109.593 E18.99752
G1 X116.148 Y109.792 E19.00667
G1 X117.332 Y110.815 E19.05871
G1 X117.416 Y110.875 E19.06215
G1 X115.597 Y110.875 E19.12265
G1 X115.464 Y110.449 E19.13749
G1 X115.4 Y110.307 E19.14267
G1 X115.4 Y108.876 E19.19027
G0 F6000 X115.8 Y110.004
G1 F1200 X115.886 Y110.095 E19.19443
G1 X116.326 Y110.475 E19.21377
G1 X115.891 Y110.475 E19.22824
