;FLAVOR:Marlin
;TIME:5263
;Filament used: 3.26061m
;Layer height: 0.2
;MINX:75.539
;MINY:93.124
;MINZ:0.2
;MAXX:144.136
;MAXY:129.119
;MAXZ:22
;TARGET_MACHINE.NAME:Creality Ender-3 Pro
;Generated with Cura_SteamEngine 5.10.0
; Ender 3 Custom Start G-code
G92 E0 ; Reset Extruder
G28 ; Home all axes
G1 Z5.0 F3000 ; Move Z Axis up a bit during heating to not damage bed
M104 S175 ; Start heating up the nozzle most of the way
M190 S65 ; Start heating the bed, wait until target temperature reached
M109 S205 ; Finish heating the nozzle
G1 Z2.0 F3000 ; Move Z Axis up little to prevent scratching of Heat Bed
G1 X0.1 Y20 Z0.3 F5000.0 ; Move to start position
G1 X0.1 Y200.0 Z0.3 F1500.0 E15 ; Draw the first line
G1 X0.4 Y200.0 Z0.3 F5000.0 ; Move to side a little
G1 X0.4 Y20 Z0.3 F1500.0 E30 ; Draw the second line
G92 E0 ; Reset Extruder
G1 Z2.0 F3000 ; Move Z Axis up little to prevent scratching of Heat Bed
G1 X5 Y20 Z0.3 F5000.0 ; Move over to prevent blob squish
M82 ;absolute extrusion mode
G92 E0
G92 E0
G1 F1500 E-6.5
;LAYER_COUNT:110
;LAYER:0
M107
G0 F6000 X77.679 Y118.017 Z0.2
;TYPE:SKIRT
G1 F1500 E0
G1 F1200 X79.81 Y117.419 E0.07362
G1 X81.941 Y118.017 E0.14723
G1 X83.484 Y119.643 E0.22179
G1 X84.079 Y121.685 E0.29253
G1 X83.481 Y123.82 E0.36627
G1 X81.943 Y125.358 E0.43861
G1 X79.808 Y125.956 E0.51236
G1 X77.766 Y125.359 E0.58312
G1 X76.138 Y123.731 E0.65969
G1 X75.539 Y121.687 E0.73054
G1 X76.136 Y119.643 E0.80136
G1 X77.679 Y118.017 E0.87592
G0 F6000 X77.893 Y118.372
G1 F1200 X79.81 Y117.834 E0.94214
G1 X81.727 Y118.372 E1.00836
G1 X83.127 Y119.847 E1.076
G1 X83.663 Y121.687 E1.13974
G1 X83.124 Y123.611 E1.2062
G1 X81.734 Y125.001 E1.27158
G1 X79.811 Y125.54 E1.338
G1 X77.977 Y125.004 E1.40156
G1 X76.493 Y123.52 E1.47136
G1 X75.956 Y121.686 E1.53492
G1 X76.493 Y119.847 E1.59864
G1 X77.893 Y118.372 E1.66628
G0 F6000 X78.106 Y118.728
G1 F1200 X79.81 Y118.25 E1.72514
G1 X81.514 Y118.728 E1.784
G1 X82.769 Y120.051 E1.84465
G1 X83.247 Y121.69 E1.90144
G1 X82.767 Y123.402 E1.96058
G1 X81.525 Y124.644 E2.019
G1 X79.814 Y125.124 E2.0781
G1 X78.188 Y124.649 E2.13444
G1 X76.848 Y123.309 E2.19747
G1 X76.373 Y121.685 E2.25375
G1 X76.85 Y120.052 E2.31033
G1 X78.106 Y118.728 E2.37103
G0 F6000 X78.323 Y119.082
G1 F1200 X79.81 Y118.665 E2.4224
G1 X81.297 Y119.082 E2.47376
G1 X82.413 Y120.259 E2.52771
G1 X82.831 Y121.693 E2.57739
G1 X82.411 Y123.192 E2.62917
G1 X81.315 Y124.288 E2.68072
G1 X79.817 Y124.708 E2.73246
G1 X78.398 Y124.293 E2.78164
G1 X77.203 Y123.098 E2.83785
G1 X76.79 Y121.686 E2.88678
G1 X77.207 Y120.259 E2.93622
G1 X78.323 Y119.082 E2.99017
G0 F6000 X78.537 Y119.438
G1 F1200 X79.81 Y119.08 E3.03415
G1 X81.083 Y119.438 E3.07814
G1 X82.056 Y120.463 E3.12514
G1 X82.415 Y121.695 E3.16782
G1 X82.054 Y122.983 E3.21231
G1 X81.106 Y123.931 E3.2569
G1 X79.819 Y124.292 E3.30136
G1 X78.609 Y123.938 E3.34329
G1 X77.557 Y122.886 E3.39278
G1 X77.206 Y121.687 E3.43433
G1 X77.564 Y120.463 E3.47674
G1 X78.537 Y119.438 E3.52375
G0 F6000 X78.751 Y119.793
G1 F1200 X79.81 Y119.496 E3.56033
G1 X80.869 Y119.793 E3.59691
G1 X81.699 Y120.668 E3.63703
G1 X81.999 Y121.697 E3.67268
G1 X81.698 Y122.773 E3.70984
G1 X80.896 Y123.575 E3.74756
G1 X79.822 Y123.876 E3.78466
G1 X78.82 Y123.583 E3.81938
G1 X77.912 Y122.675 E3.86209
G1 X77.623 Y121.687 E3.89633
G1 X77.921 Y120.667 E3.93167
G1 X78.751 Y119.793 E3.97176
G0 F6000 X78.966 Y120.148
G1 F1200 X79.81 Y119.911 E4.00092
G1 X80.654 Y120.148 E4.03008
G1 X81.343 Y120.873 E4.06334
G1 X81.583 Y121.698 E4.09192
G1 X81.339 Y122.568 E4.12197
G1 X80.691 Y123.216 E4.15245
G1 X79.823 Y123.459 E4.18243
G1 X79.028 Y123.227 E4.20998
G1 X78.269 Y122.468 E4.24568
G1 X78.04 Y121.687 E4.27275
G1 X78.278 Y120.873 E4.30095
G1 X78.966 Y120.148 E4.3342
G0 F6000 X79.179 Y120.504
G1 F1200 X79.81 Y120.327 E4.35599
G1 X80.441 Y120.504 E4.37779
G1 X80.986 Y121.078 E4.40412
G1 X81.167 Y121.699 E4.42563
G1 X80.983 Y122.358 E4.44839
G1 X80.481 Y122.86 E4.472
G1 X79.826 Y123.043 E4.49462
G1 X79.239 Y122.872 E4.51496
G1 X78.624 Y122.257 E4.54388
G1 X78.457 Y121.687 E4.56364
G1 X78.635 Y121.077 E4.58477
G1 X79.179 Y120.504 E4.61105
G0 F6000 X79.392 Y120.86
G1 F1200 X79.81 Y120.743 E4.62549
G1 X80.228 Y120.86 E4.63993
G1 X80.628 Y121.282 E4.65927
G1 X80.751 Y121.703 E4.67385
G1 X80.626 Y122.149 E4.68926
G1 X80.272 Y122.503 E4.70591
G1 X79.829 Y122.627 E4.72121
G1 X79.45 Y122.517 E4.73434
G1 X78.979 Y122.046 E4.75649
G1 X78.873 Y121.686 E4.76897
G1 X78.992 Y121.282 E4.78298
G1 X79.392 Y120.86 E4.80232
G0 F6000 X79.608 Y121.215
G1 F1200 X79.81 Y121.158 E4.8093
G1 X80.012 Y121.215 E4.81628
G1 X80.272 Y121.489 E4.82885
G1 X80.335 Y121.705 E4.83633
G1 X80.27 Y121.939 E4.84441
G1 X80.062 Y122.147 E4.85419
G1 X79.831 Y122.211 E4.86216
G1 X79.66 Y122.161 E4.86809
G1 X79.334 Y121.835 E4.88342
G1 X79.29 Y121.686 E4.88859
G1 X79.348 Y121.489 E4.89542
G1 X79.608 Y121.215 E4.90798
G1 F1500 E-1.59202
G0 F6000 X79.81 Y120.675
G0 X90.967 Y121.934
G1 F1500 E4.90798
G1 F1200 X91.564 Y119.89 E4.97881
G1 X93.107 Y118.264 E5.05336
G1 X95.238 Y117.666 E5.12698
G1 X97.369 Y118.264 E5.20059
G1 X98.912 Y119.89 E5.27515
G1 X99.507 Y121.932 E5.34589
G1 X98.909 Y124.067 E5.41963
G1 X97.371 Y125.605 E5.49198
G1 X95.236 Y126.203 E5.56572
G1 X93.194 Y125.606 E5.63648
G1 X91.566 Y123.978 E5.71306
G1 X90.967 Y121.934 E5.7839
G0 F6000 X91.384 Y121.933
G1 F1200 X91.921 Y120.094 E5.84762
G1 X93.321 Y118.619 E5.91526
G1 X95.238 Y118.081 E5.98148
G1 X97.155 Y118.619 E6.0477
G1 X98.555 Y120.094 E6.11534
G1 X99.091 Y121.934 E6.17908
G1 X98.552 Y123.858 E6.24554
G1 X97.162 Y125.248 E6.31092
G1 X95.239 Y125.787 E6.37735
G1 X93.405 Y125.251 E6.4409
G1 X91.921 Y123.767 E6.5107
G1 X91.384 Y121.933 E6.57426
G0 F6000 X91.801 Y121.932
G1 F1200 X92.278 Y120.299 E6.63084
G1 X93.534 Y118.975 E6.69154
G1 X95.238 Y118.497 E6.7504
G1 X96.942 Y118.975 E6.80927
G1 X98.197 Y120.298 E6.86992
G1 X98.675 Y121.937 E6.9267
G1 X98.195 Y123.649 E6.98584
G1 X96.953 Y124.891 E7.04426
G1 X95.242 Y125.371 E7.10337
G1 X93.616 Y124.896 E7.15971
G1 X92.276 Y123.556 E7.22274
G1 X91.801 Y121.932 E7.27901
G0 F6000 X92.218 Y121.933
G1 F1200 X92.635 Y120.506 E7.32846
G1 X93.751 Y119.329 E7.38241
G1 X95.238 Y118.912 E7.43377
G1 X96.725 Y119.329 E7.48514
G1 X97.841 Y120.506 E7.53909
G1 X98.259 Y121.94 E7.58877
G1 X97.839 Y123.439 E7.64054
G1 X96.743 Y124.535 E7.6921
G1 X95.245 Y124.955 E7.74384
G1 X93.826 Y124.54 E7.79301
G1 X92.631 Y123.345 E7.84922
G1 X92.218 Y121.933 E7.89815
G0 F6000 X92.634 Y121.934
G1 F1200 X92.992 Y120.71 E7.94057
G1 X93.965 Y119.685 E7.98758
G1 X95.238 Y119.327 E8.03156
G1 X96.511 Y119.685 E8.07554
G1 X97.484 Y120.71 E8.12255
G1 X97.843 Y121.942 E8.16523
G1 X97.482 Y123.23 E8.20972
G1 X96.534 Y124.178 E8.25431
G1 X95.247 Y124.539 E8.29877
G1 X94.037 Y124.185 E8.3407
G1 X92.985 Y123.133 E8.39018
G1 X92.634 Y121.934 E8.43173
G0 F6000 X93.051 Y121.934
G1 F1200 X93.349 Y120.914 E8.46708
G1 X94.179 Y120.04 E8.50717
G1 X95.238 Y119.743 E8.54375
G1 X96.297 Y120.04 E8.58033
G1 X97.127 Y120.915 E8.62044
G1 X97.427 Y121.944 E8.65609
G1 X97.126 Y123.02 E8.69325
G1 X96.324 Y123.822 E8.73098
G1 X95.25 Y124.123 E8.76807
G1 X94.248 Y123.83 E8.8028
G1 X93.34 Y122.922 E8.84551
G1 X93.051 Y121.934 E8.87974
G0 F6000 X93.468 Y121.934
G1 F1200 X93.706 Y121.12 E8.90795
G1 X94.394 Y120.395 E8.94119
G1 X95.238 Y120.158 E8.97035
G1 X96.082 Y120.395 E8.99951
G1 X96.771 Y121.12 E9.03278
G1 X97.011 Y121.945 E9.06135
G1 X96.767 Y122.815 E9.09141
G1 X96.119 Y123.463 E9.12189
G1 X95.251 Y123.706 E9.15187
G1 X94.456 Y123.474 E9.17941
G1 X93.697 Y122.715 E9.21511
G1 X93.468 Y121.934 E9.24218
G0 F6000 X93.885 Y121.934
G1 F1200 X94.063 Y121.324 E9.26332
G1 X94.607 Y120.751 E9.28959
G1 X95.238 Y120.574 E9.31139
G1 X95.869 Y120.751 E9.33319
G1 X96.414 Y121.325 E9.35951
G1 X96.595 Y121.947 E9.38106
G1 X96.411 Y122.605 E9.40379
G1 X95.909 Y123.107 E9.4274
G1 X95.254 Y123.29 E9.45002
G1 X94.667 Y123.119 E9.47035
G1 X94.052 Y122.504 E9.49928
G1 X93.885 Y121.934 E9.51904
G0 F6000 X94.301 Y121.933
G1 F1200 X94.42 Y121.529 E9.53304
G1 X94.82 Y121.107 E9.55238
G1 X95.238 Y120.99 E9.56682
G1 X95.656 Y121.107 E9.58126
G1 X96.056 Y121.529 E9.6006
G1 X96.179 Y121.95 E9.61518
G1 X96.054 Y122.396 E9.63059
G1 X95.7 Y122.75 E9.64724
G1 X95.257 Y122.874 E9.66254
G1 X94.878 Y122.764 E9.67567
G1 X94.407 Y122.293 E9.69782
G1 X94.301 Y121.933 E9.7103
G0 F6000 X94.718 Y121.933
G1 F1200 X94.776 Y121.736 E9.71713
G1 X95.036 Y121.462 E9.7297
G1 X95.238 Y121.405 E9.73668
G1 X95.44 Y121.462 E9.74366
G1 X95.7 Y121.736 E9.75622
G1 X95.763 Y121.952 E9.76371
G1 X95.698 Y122.186 E9.77178
G1 X95.49 Y122.394 E9.78157
G1 X95.259 Y122.458 E9.78954
G1 X95.088 Y122.408 E9.79546
G1 X94.762 Y122.082 E9.8108
G1 X94.718 Y121.933 E9.81597
G1 F1500 E3.31597
G0 F6000 X94.273 Y122.059
G0 X94.349 Y122.325
G0 X94.844 Y122.82
G0 X95.176 Y122.919
G0 X105.453 Y122.193
G1 F1500 E9.81597
G1 F1200 X106.05 Y120.149 E9.88679
G1 X107.593 Y118.523 E9.96135
G1 X109.724 Y117.925 E10.03496
G1 X111.855 Y118.523 E10.10858
G1 X113.398 Y120.149 E10.18313
G1 X114.029 Y122.32 E10.25833
G1 X114.1 Y122.423 E10.26249
G1 X114.221 Y122.464 E10.26674
G1 X114.469 Y122.464 E10.27499
G1 X114.588 Y122.425 E10.27915
G1 X114.661 Y122.32 E10.2834
G1 X115.056 Y120.963 E10.33041
G1 X116.599 Y119.337 E10.40497
G1 X118.73 Y118.739 E10.47858
G1 X120.861 Y119.337 E10.5522
G1 X122.404 Y120.963 E10.62675
G1 X122.999 Y123.005 E10.6975
G1 X122.401 Y125.14 E10.77124
G1 X120.863 Y126.678 E10.84358
G1 X118.728 Y127.276 E10.91732
G1 X116.686 Y126.679 E10.98808
G1 X115.058 Y125.051 E11.06466
G1 X114.427 Y122.896 E11.13935
G1 X114.356 Y122.793 E11.14351
G1 X114.233 Y122.752 E11.14782
G1 X113.985 Y122.754 E11.15607
G1 X113.867 Y122.794 E11.16021
G1 X113.794 Y122.9 E11.16449
G1 X113.395 Y124.326 E11.21374
G1 X111.857 Y125.864 E11.28609
G1 X109.722 Y126.462 E11.35983
G1 X107.68 Y125.865 E11.43059
G1 X106.052 Y124.237 E11.50717
G1 X105.453 Y122.193 E11.57801
G0 F6000 X105.87 Y122.192
G1 F1200 X106.407 Y120.353 E11.64173
G1 X107.807 Y118.878 E11.70937
G1 X109.724 Y118.34 E11.77559
G1 X111.641 Y118.878 E11.84181
G1 X113.04 Y120.353 E11.90943
G1 X113.645 Y122.432 E11.98144
G1 X113.66 Y122.462 E11.98256
G1 X113.583 Y122.511 E11.9856
G1 X113.451 Y122.685 E11.99286
G1 X113.409 Y122.792 E11.99668
G1 X113.038 Y124.117 E12.04245
G1 X111.648 Y125.507 E12.10783
G1 X109.725 Y126.046 E12.17425
G1 X107.891 Y125.51 E12.2378
G1 X106.407 Y124.026 E12.30761
G1 X105.87 Y122.192 E12.37117
G0 F6000 X106.287 Y122.192
G1 F1200 X106.764 Y120.558 E12.42778
G1 X108.02 Y119.234 E12.48848
G1 X109.724 Y118.756 E12.54734
G1 X111.428 Y119.234 E12.60621
G1 X112.684 Y120.558 E12.66691
G1 X113.203 Y122.343 E12.72873
G1 X113.078 Y122.537 E12.73641
G1 X113.024 Y122.684 E12.74162
G1 X112.681 Y123.908 E12.7839
G1 X111.439 Y125.15 E12.84232
G1 X109.728 Y125.63 E12.90142
G1 X108.102 Y125.155 E12.95776
G1 X106.762 Y123.815 E13.02079
G1 X106.287 Y122.192 E13.07704
G0 F6000 X106.704 Y122.192
G1 F1200 X107.121 Y120.765 E13.12649
G1 X108.237 Y119.588 E13.18043
G1 X109.724 Y119.171 E13.2318
G1 X111.211 Y119.588 E13.28316
G1 X112.327 Y120.765 E13.33711
G1 X112.772 Y122.294 E13.39008
G1 X112.639 Y122.577 E13.40048
G1 X112.325 Y123.698 E13.4392
G1 X111.229 Y124.794 E13.49075
G1 X109.731 Y125.214 E13.54249
G1 X108.312 Y124.799 E13.59167
G1 X107.117 Y123.604 E13.64788
G1 X106.704 Y122.192 E13.69681
G0 F6000 X107.12 Y122.193
G1 F1200 X107.478 Y120.969 E13.73922
G1 X108.451 Y119.944 E13.78623
G1 X109.724 Y119.586 E13.83021
G1 X110.997 Y119.944 E13.87419
G1 X111.97 Y120.969 E13.9212
G1 X112.343 Y122.251 E13.96561
G1 X112.254 Y122.469 E13.97344
G1 X111.969 Y123.488 E14.00863
G1 X111.02 Y124.437 E14.05327
G1 X109.733 Y124.798 E14.09773
G1 X108.523 Y124.444 E14.13966
G1 X107.471 Y123.392 E14.18914
G1 X107.12 Y122.193 E14.23069
G0 F6000 X107.537 Y122.193
G1 F1200 X107.835 Y121.173 E14.26604
G1 X108.665 Y120.299 E14.30613
G1 X109.724 Y120.002 E14.34271
G1 X110.783 Y120.299 E14.37929
G1 X111.613 Y121.174 E14.4194
G1 X111.918 Y122.222 E14.45571
G1 X111.868 Y122.361 E14.46062
G1 X111.611 Y123.28 E14.49236
G1 X110.81 Y124.081 E14.53003
G1 X109.736 Y124.382 E14.56713
G1 X108.734 Y124.089 E14.60185
G1 X107.826 Y123.181 E14.64456
G1 X107.537 Y122.193 E14.6788
G0 F6000 X107.954 Y122.193
G1 F1200 X108.192 Y121.379 E14.70701
G1 X108.88 Y120.654 E14.74025
G1 X109.724 Y120.417 E14.76941
G1 X110.568 Y120.654 E14.79857
G1 X111.255 Y121.378 E14.83176
G1 X111.499 Y122.215 E14.86076
G1 X111.483 Y122.253 E14.86213
G1 X111.253 Y123.074 E14.89049
G1 X110.605 Y123.722 E14.92097
G1 X109.737 Y123.965 E14.95095
G1 X108.942 Y123.733 E14.97849
G1 X108.183 Y122.974 E15.01419
G1 X107.954 Y122.193 E15.04126
G0 F6000 X108.371 Y122.193
G1 F1200 X108.549 Y121.583 E15.0624
G1 X109.093 Y121.01 E15.08868
G1 X109.724 Y120.833 E15.11047
G1 X110.355 Y121.01 E15.13227
G1 X110.898 Y121.582 E15.1585
G1 X111.08 Y122.209 E15.18022
G1 X110.897 Y122.864 E15.20284
G1 X110.395 Y123.366 E15.22645
G1 X109.74 Y123.549 E15.24907
G1 X109.153 Y123.378 E15.26941
G1 X108.538 Y122.763 E15.29833
G1 X108.371 Y122.193 E15.31809
G0 F6000 X108.787 Y122.192
G1 F1200 X108.906 Y121.788 E15.3321
G1 X109.306 Y121.366 E15.35144
G1 X109.724 Y121.249 E15.36587
G1 X110.142 Y121.366 E15.38031
G1 X110.541 Y121.787 E15.3996
G1 X110.664 Y122.21 E15.41425
G1 X110.54 Y122.655 E15.42962
G1 X110.186 Y123.009 E15.44627
G1 X109.743 Y123.133 E15.46157
G1 X109.364 Y123.023 E15.4747
G1 X108.893 Y122.552 E15.49685
G1 X108.787 Y122.192 E15.50933
G0 F6000 X109.204 Y122.192
G1 F1200 X109.262 Y121.995 E15.51616
G1 X109.522 Y121.721 E15.52873
G1 X109.724 Y121.664 E15.53571
G1 X109.926 Y121.721 E15.54269
G1 X110.185 Y121.994 E15.5552
G1 X110.249 Y122.213 E15.56279
G1 X110.183 Y122.446 E15.57085
G1 X109.976 Y122.653 E15.58058
G1 X109.745 Y122.717 E15.58856
G1 X109.574 Y122.667 E15.59448
G1 X109.248 Y122.341 E15.60982
G1 X109.204 Y122.192 E15.61498
G1 F1500 E9.11498
G0 F6000 X108.759 Y122.318
G0 X108.835 Y122.584
G0 X109.33 Y123.079
G0 X109.662 Y123.178
G0 X114.797 Y122.755
G1 F1500 E15.61498
G1 F1200 X114.87 Y122.711 E15.61782
G1 X115.003 Y122.538 E15.62508
G1 X115.045 Y122.432 E15.62887
G1 X115.413 Y121.167 E15.67269
G1 X116.813 Y119.692 E15.74033
G1 X118.73 Y119.154 E15.80655
G1 X120.647 Y119.692 E15.87277
G1 X122.047 Y121.167 E15.94041
G1 X122.583 Y123.008 E16.00418
G1 X122.044 Y124.931 E16.07061
G1 X120.654 Y126.321 E16.13599
G1 X118.731 Y126.86 E16.20241
G1 X116.897 Y126.324 E16.26596
G1 X115.413 Y124.84 E16.33577
G1 X114.811 Y122.783 E16.40705
G1 X114.797 Y122.755 E16.40809
G0 F6000 X115.254 Y122.873
G1 F1200 X115.374 Y122.689 E16.4154
G1 X115.429 Y122.544 E16.42056
G1 X115.771 Y121.371 E16.4612
G1 X117.026 Y120.048 E16.52185
G1 X118.73 Y119.57 E16.58071
G1 X120.434 Y120.048 E16.63957
G1 X121.689 Y121.371 E16.70023
G1 X122.167 Y123.01 E16.75701
G1 X121.687 Y124.722 E16.81615
G1 X120.445 Y125.964 E16.87457
G1 X118.734 Y126.444 E16.93367
G1 X117.108 Y125.969 E16.99001
G1 X115.768 Y124.629 E17.05304
G1 X115.254 Y122.873 E17.1139
G0 F6000 X115.685 Y122.921
G1 F1200 X115.813 Y122.656 E17.12369
G1 X116.127 Y121.579 E17.161
G1 X117.243 Y120.402 E17.21495
G1 X118.73 Y119.985 E17.26631
G1 X120.217 Y120.402 E17.31768
G1 X121.333 Y121.579 E17.37163
G1 X121.751 Y123.013 E17.42131
G1 X121.331 Y124.512 E17.47308
G1 X120.235 Y125.608 E17.52463
G1 X118.737 Y126.028 E17.57638
G1 X117.318 Y125.613 E17.62555
G1 X116.123 Y124.418 E17.68176
G1 X115.685 Y122.921 E17.73364
G0 F6000 X116.114 Y122.964
G1 F1200 X116.197 Y122.767 E17.74075
G1 X116.484 Y121.783 E17.77484
G1 X117.457 Y120.758 E17.82185
G1 X118.73 Y120.4 E17.86583
G1 X120.003 Y120.758 E17.90981
G1 X120.976 Y121.783 E17.95682
G1 X121.335 Y123.015 E17.9995
G1 X120.974 Y124.303 E18.04399
G1 X120.026 Y125.251 E18.08858
G1 X118.739 Y125.612 E18.13304
G1 X117.529 Y125.258 E18.17497
G1 X116.477 Y124.206 E18.22445
G1 X116.114 Y122.964 E18.26749
G0 F6000 X116.539 Y122.993
G1 F1200 X116.581 Y122.879 E18.27153
G1 X116.841 Y121.988 E18.3024
G1 X117.671 Y121.113 E18.34251
G1 X118.73 Y120.816 E18.3791
G1 X119.789 Y121.113 E18.41568
G1 X120.619 Y121.988 E18.45579
G1 X120.919 Y123.017 E18.49144
