;FLAVOR:Marlin
;TIME:1101
;Filament used: 0.352748m
;Layer height: 0.12
;MINX:87.55
;MINY:100.05
;MINZ:0.12
;MAXX:132.45
;MAXY:120.125
;MAXZ:2.04
;Generated with Cura_SteamEngine master
M140 S60
M105
M190 S60
M104 S205
M105
M109 S205
M82 ;absolute extrusion mode
; Ender 3 Custom Start G-code
G92 E0 ; Reset Extruder
G28 ; Home all axes
G1 Z2.0 F3000 ; Move Z Axis up little to prevent scratching of Heat Bed
G1 X0.1 Y20 Z0.3 F5000.0 ; Move to start position
G1 X0.1 Y200.0 Z0.3 F1500.0 E15 ; Draw the first line
G1 X0.4 Y200.0 Z0.3 F5000.0 ; Move to side a little
G1 X0.4 Y20 Z0.3 F1500.0 E30 ; Draw the second line
G92 E0 ; Reset Extruder
G1 Z2.0 F3000 ; Move Z Axis up little to prevent scratching of Heat Bed
G1 X5 Y20 Z0.3 F5000.0 ; Move over to prevent blob squish
G92 E0
G92 E0
G1 F1500 E-6.5
;LAYER_COUNT:17
;LAYER:0
M107
;MESH:HCSR04_v1.stl
G0 F6000 X114.981 Y103.199 Z0.12
;TYPE:WALL-INNER
G1 F1500 E0
G1 F1200 X115.435 Y103.025 E0.0097
G1 X115.838 Y102.746 E0.01948
G1 X116.153 Y102.39 E0.02897
G1 X116.378 Y101.96 E0.03866
G1 X116.493 Y101.48 E0.04851
G1 X116.492 Y100.994 E0.0582
G1 X116.455 Y100.85 E0.06117
G1 X120.163 Y100.85 E0.13517
G1 X121.329 Y100.85 E0.15844
G1 X122.24 Y100.85 E0.17662
G1 X121.329 Y100.951 E0.179
G1 X120.028 Y101.289 E0.19737
G1 X118.792 Y101.815 E0.22418
G1 X117.646 Y102.516 E0.25099
G1 X116.614 Y103.375 E0.27778
G1 X115.717 Y104.375 E0.30459
G1 X114.974 Y105.497 E0.33144
G1 X114.404 Y106.713 E0.35825
G1 X114.018 Y107.999 E0.38504
G1 X113.822 Y109.328 E0.41185
G1 X113.822 Y110.672 E0.43867
G1 X114.018 Y112.001 E0.46548
G1 X114.404 Y113.287 E0.49227
G1 X114.974 Y114.503 E0.51907
G1 X115.208 Y114.856 E0.52752
G1 X115.471 Y115.254 E0.53704
G1 X115.717 Y115.625 E0.54593
G1 X116.614 Y116.625 E0.57274
G1 X117.646 Y117.484 E0.59953
G1 X118.792 Y118.185 E0.62634
G1 X120.028 Y118.711 E0.65315
G1 X121.329 Y119.049 E0.67997
G1 X122.24 Y119.15 E0.69826
G1 X121.329 Y119.15 E0.70055
G1 X120.163 Y119.15 E0.71536
G1 X116.126 Y119.15 E0.79592
G1 X116.193 Y119.022 E0.79881
G1 X116.383 Y118.247 E0.81473
G1 X116.383 Y117.453 E0.83058
G1 X116.193 Y116.678 E0.8465
G1 X115.823 Y115.97 E0.86005
G1 X115.293 Y115.373 E0.8725
G1 X114.637 Y114.921 E0.88551
G1 X113.89 Y114.639 E0.90144
G1 X113.16 Y114.55 E0.91611
G1 X106.84 Y114.55 E1.04224
G1 X106.11 Y114.639 E1.05691
G1 X105.363 Y114.921 E1.07285
G1 X104.707 Y115.373 E1.08875
G1 X104.177 Y115.97 E1.10468
G1 X103.807 Y116.678 E1.12062
G1 X103.617 Y117.453 E1.13654
G1 X103.617 Y118.247 E1.15239
G1 X103.807 Y119.022 E1.16831
G1 X103.874 Y119.15 E1.17119
G1 X99.788 Y119.149 E1.25274
G1 X99.327 Y119.149 E1.26193
G1 X98.007 Y119.148 E1.28828
G1 X99.327 Y118.903 E1.29676
G1 X99.763 Y118.755 E1.30421
G1 X100.599 Y118.47 E1.32184
G1 X101.794 Y117.854 E1.34867
G1 X102.885 Y117.073 E1.37544
G1 X103.561 Y116.423 E1.39416
G1 X103.854 Y116.142 E1.40108
G1 X104.674 Y115.077 E1.42426
G1 X105.333 Y113.906 E1.45108
G1 X105.812 Y112.65 E1.4779
G1 X106.105 Y111.341 E1.50467
G1 X106.203 Y110 E1.53151
G1 X106.105 Y108.659 E1.55834
G1 X105.812 Y107.35 E1.58511
G1 X105.333 Y106.094 E1.61193
G1 X104.674 Y104.923 E1.63875
G1 X103.854 Y103.858 E1.66557
G1 X102.885 Y102.927 E1.69239
G1 X101.794 Y102.146 E1.71916
G1 X100.599 Y101.53 E1.74599
G1 X99.766 Y101.246 E1.76355
G1 X99.327 Y101.097 E1.77281
G1 X98.007 Y100.852 E1.7996
G1 X99.326 Y100.852 E1.8076
G1 X99.79 Y100.852 E1.81509
G1 X103.548 Y100.85 E1.89009
G1 X103.507 Y101.02 E1.89358
G1 X103.508 Y101.506 E1.90328
G1 X103.628 Y101.974 E1.91292
G1 X103.851 Y102.395 E1.92243
G1 X104.178 Y102.759 E1.93219
G1 X104.57 Y103.028 E1.94168
G1 X105.03 Y103.2 E1.95148
G1 X105.44 Y103.25 E1.95972
G1 X114.56 Y103.25 E2.14172
G1 X114.981 Y103.199 E2.15018
G0 F6000 X114.884 Y102.808
G1 F1200 X115.247 Y102.669 E2.15794
G1 X115.57 Y102.445 E2.16579
G1 X115.821 Y102.161 E2.17335
G1 X116.001 Y101.818 E2.18108
G1 X116.093 Y101.433 E2.18898
G1 X116.092 Y101.045 E2.19672
G1 X115.996 Y100.671 E2.20443
G1 X115.879 Y100.45 E2.20942
G1 X129.821 Y100.45 E2.48765
G1 X129.679 Y100.656 E2.49264
G1 X129.541 Y101.025 E2.5005
G1 X129.495 Y101.403 E2.5081
G1 X129.545 Y101.793 E2.51595
G1 X129.681 Y102.147 E2.52351
G1 X129.905 Y102.47 E2.53136
G1 X130.189 Y102.721 E2.53892
G1 X130.532 Y102.901 E2.54665
G1 X130.917 Y102.993 E2.55455
G1 X131.305 Y102.992 E2.56229
G1 X131.679 Y102.896 E2.57
G1 X132.014 Y102.719 E2.57756
G1 X132.05 Y102.687 E2.57852
G1 X132.05 Y108.718 E2.69888
G1 X132.05 Y110 E2.72446
G1 X132.05 Y111.282 E2.75004
G1 X132.05 Y117.702 E2.87816
G1 X131.911 Y117.579 E2.88187
G1 X131.57 Y117.4 E2.88955
G1 X131.193 Y117.307 E2.8973
G1 X130.795 Y117.308 E2.90524
G1 X130.421 Y117.404 E2.91295
G1 X130.086 Y117.581 E2.92051
G1 X129.794 Y117.844 E2.92835
G1 X129.579 Y118.156 E2.93591
G1 X129.441 Y118.525 E2.94378
G1 X129.395 Y118.903 E2.95138
G1 X129.445 Y119.293 E2.95922
G1 X129.544 Y119.55 E2.96472
G1 X115.448 Y119.55 E3.24602
G1 X115.491 Y119.501 E3.24732
G1 X115.816 Y118.88 E3.26131
G1 X115.983 Y118.199 E3.2753
G1 X115.983 Y117.501 E3.28923
G1 X115.816 Y116.82 E3.30322
G1 X115.491 Y116.199 E3.31721
G1 X115.026 Y115.675 E3.33119
G1 X114.45 Y115.278 E3.34515
G1 X113.794 Y115.03 E3.35915
G1 X113.136 Y114.95 E3.37237
G1 X106.864 Y114.95 E3.49754
G1 X106.206 Y115.03 E3.51077
G1 X105.55 Y115.278 E3.52476
G1 X104.974 Y115.675 E3.53872
G1 X104.509 Y116.199 E3.5527
G1 X104.184 Y116.82 E3.56669
G1 X104.017 Y117.501 E3.58068
G1 X104.017 Y118.199 E3.59461
G1 X104.184 Y118.88 E3.6086
G1 X104.509 Y119.501 E3.62259
G1 X104.552 Y119.55 E3.62389
G1 X90.179 Y119.55 E3.91072
G1 X90.321 Y119.344 E3.91572
G1 X90.459 Y118.975 E3.92358
G1 X90.505 Y118.597 E3.93118
G1 X90.455 Y118.207 E3.93902
G1 X90.319 Y117.853 E3.94659
G1 X90.095 Y117.53 E3.95443
G1 X89.811 Y117.279 E3.962
G1 X89.47 Y117.1 E3.96968
G1 X89.093 Y117.007 E3.97743
G1 X88.695 Y117.008 E3.98538
G1 X88.321 Y117.104 E3.99308
G1 X87.986 Y117.281 E4.00064
G1 X87.95 Y117.313 E4.0016
G1 X87.95 Y111.51 E4.11741
G1 X87.95 Y110.643 E4.13471
G1 X87.95 Y109.357 E4.16037
G1 X87.95 Y108.49 E4.17768
G1 X87.95 Y102.858 E4.29007
G1 X88.032 Y102.901 E4.29192
G1 X88.417 Y102.993 E4.29982
G1 X88.805 Y102.992 E4.30756
G1 X89.179 Y102.896 E4.31526
G1 X89.514 Y102.719 E4.32283
G1 X89.806 Y102.456 E4.33067
G1 X90.021 Y102.144 E4.33823
G1 X90.159 Y101.775 E4.34609
G1 X90.205 Y101.397 E4.35369
G1 X90.155 Y101.007 E4.36154
G1 X90.019 Y100.653 E4.3691
G1 X89.878 Y100.45 E4.37404
G1 X104.121 Y100.45 E4.65827
G1 X103.999 Y100.682 E4.6635
G1 X103.907 Y101.067 E4.6714
G1 X103.908 Y101.455 E4.67914
G1 X104.004 Y101.829 E4.68685
G1 X104.181 Y102.164 E4.69441
G1 X104.444 Y102.456 E4.70225
G1 X104.756 Y102.671 E4.70981
G1 X105.125 Y102.809 E4.71768
G1 X105.464 Y102.85 E4.72449
G1 X114.536 Y102.85 E4.90553
G1 X114.884 Y102.808 E4.91253
G0 F6000 X114.787 Y102.417
;TYPE:WALL-OUTER
G1 F1200 X115.059 Y102.313 E4.91834
G1 X115.302 Y102.144 E4.92425
G1 X115.489 Y101.932 E4.92989
G1 X115.624 Y101.676 E4.93566
G1 X115.693 Y101.387 E4.94159
G1 X115.692 Y101.096 E4.9474
G1 X115.62 Y100.816 E4.95317
G1 X115.488 Y100.567 E4.95879
G1 X115.29 Y100.346 E4.96471
G1 X115.058 Y100.186 E4.97034
G1 X114.78 Y100.082 E4.97626
G1 X114.512 Y100.05 E4.98165
G1 X105.48 Y100.051 E5.16189
G1 X105.205 Y100.086 E5.16742
G1 X104.941 Y100.187 E5.17306
G1 X104.698 Y100.356 E5.17897
G1 X104.511 Y100.568 E5.18461
G1 X104.376 Y100.824 E5.19039
G1 X104.307 Y101.113 E5.19632
G1 X104.308 Y101.404 E5.20212
G1 X104.38 Y101.684 E5.20789
G1 X104.512 Y101.933 E5.21352
G1 X104.71 Y102.154 E5.21944
G1 X104.942 Y102.314 E5.22506
G1 X105.22 Y102.418 E5.23099
G1 X105.488 Y102.45 E5.23637
G1 X114.512 Y102.45 E5.41646
G1 X114.787 Y102.417 E5.42198
G0 F6000 X114.892 Y102.844
G1 F1500 E-1.07802
G0 F6000 X116.674 Y101.032
G0 X128.953 Y101.034
G0 X129.071 Y101.508
G0 X130.581 Y102.7
G1 F1500 E5.42198
G0 F6000 X130.674 Y102.524
G1 F1200 X130.963 Y102.593 E5.42791
G1 X131.254 Y102.592 E5.43372
G1 X131.534 Y102.52 E5.43949
G1 X131.783 Y102.388 E5.44511
G1 X132.004 Y102.19 E5.45104
G1 X132.164 Y101.958 E5.45666
G1 X132.268 Y101.68 E5.46258
G1 X132.302 Y101.399 E5.46823
G1 X132.264 Y101.105 E5.47415
G1 X132.163 Y100.841 E5.47979
G1 X131.994 Y100.598 E5.4857
G1 X131.782 Y100.411 E5.49134
G1 X131.527 Y100.277 E5.49709
G1 X131.245 Y100.207 E5.50288
G1 X130.946 Y100.208 E5.50885
G1 X130.666 Y100.28 E5.51462
G1 X130.417 Y100.412 E5.52024
G1 X130.196 Y100.61 E5.52617
G1 X130.036 Y100.842 E5.53179
G1 X129.932 Y101.12 E5.53771
G1 X129.898 Y101.401 E5.54336
G1 X129.936 Y101.695 E5.54928
G1 X130.037 Y101.959 E5.55492
G1 X130.206 Y102.202 E5.56083
G1 X130.418 Y102.389 E5.56647
G1 X130.674 Y102.524 E5.57224
G0 F6000 X130.52 Y102.935
G0 X131.464 Y103.556
G0 X131.54 Y110
G0 X131.449 Y111.246
G0 X131.179 Y112.456
G0 X130.731 Y113.632
G0 X130.127 Y114.707
G0 X129.357 Y115.702
G0 X128.463 Y116.564
G0 X127.448 Y117.291
G0 X126.34 Y117.861
G0 X125.16 Y118.262
G0 X124.171 Y118.444
G0 X121.402 Y118.655
;TYPE:WALL-INNER
G1 F1200 X122.679 Y118.796 E5.59788
G1 X123.963 Y118.749 E5.62352
G1 X125.226 Y118.515 E5.64916
G1 X126.442 Y118.101 E5.67479
G1 X127.585 Y117.512 E5.70045
G1 X128.629 Y116.765 E5.72607
G1 X129.555 Y115.874 E5.75171
G1 X130.34 Y114.856 E5.77737
G1 X130.97 Y113.736 E5.80301
G1 X131.428 Y112.535 E5.82866
G1 X131.708 Y111.282 E5.85428
G1 X131.802 Y110 E5.87326
G1 X131.708 Y108.718 E5.89224
G1 X131.428 Y107.465 E5.91786
G1 X130.97 Y106.264 E5.94351
G1 X130.34 Y105.144 E5.96916
G1 X129.555 Y104.126 E5.99481
G1 X128.629 Y103.235 E6.02046
G1 X127.585 Y102.488 E6.04607
G1 X126.442 Y101.899 E6.07173
G1 X125.226 Y101.485 E6.09737
G1 X123.963 Y101.251 E6.123
G1 X122.679 Y101.204 E6.14864
G1 X121.402 Y101.345 E6.17428
G1 X120.157 Y101.669 E6.19996
G1 X118.976 Y102.172 E6.22557
G1 X117.879 Y102.842 E6.25122
G1 X116.892 Y103.664 E6.27686
G1 X116.034 Y104.62 E6.30249
G1 X115.324 Y105.693 E6.32817
G1 X114.779 Y106.856 E6.3538
G1 X114.409 Y108.086 E6.37943
G1 X114.222 Y109.357 E6.40507
G1 X114.222 Y110.643 E6.43073
G1 X114.409 Y111.914 E6.45637
G1 X114.779 Y113.144 E6.482
G1 X115.324 Y114.307 E6.50763
G1 X116.034 Y115.38 E6.53331
G1 X116.892 Y116.336 E6.55894
G1 X117.879 Y117.158 E6.58458
G1 X118.976 Y117.828 E6.61023
G1 X120.157 Y118.331 E6.63585
G1 X121.402 Y118.655 E6.66152
G0 F6000 X121.475 Y118.261
;TYPE:WALL-OUTER
G1 F1200 X122.694 Y118.395 E6.68599
G1 X123.919 Y118.35 E6.71045
G1 X125.125 Y118.127 E6.73493
G1 X126.285 Y117.732 E6.75938
G1 X127.376 Y117.17 E6.78387
G1 X128.373 Y116.457 E6.80833
G1 X129.256 Y115.606 E6.83281
G1 X130.006 Y114.635 E6.85729
G1 X130.607 Y113.566 E6.88177
G1 X131.044 Y112.42 E6.90624
G1 X131.311 Y111.223 E6.93072
G1 X131.401 Y110 E6.95519
G1 X131.311 Y108.777 E6.97966
G1 X131.044 Y107.58 E7.00413
G1 X130.607 Y106.434 E7.02861
G1 X130.006 Y105.365 E7.05308
G1 X129.256 Y104.394 E7.07757
G1 X128.373 Y103.543 E7.10204
G1 X127.376 Y102.83 E7.1265
G1 X126.285 Y102.268 E7.15099
G1 X125.125 Y101.873 E7.17545
G1 X123.919 Y101.65 E7.19992
G1 X122.694 Y101.605 E7.22438
G1 X121.475 Y101.739 E7.24886
G1 X120.287 Y102.049 E7.27336
G1 X119.159 Y102.529 E7.29782
G1 X118.112 Y103.168 E7.3223
G1 X117.17 Y103.953 E7.34677
G1 X116.351 Y104.865 E7.37123
G1 X115.674 Y105.889 E7.39573
G1 X115.154 Y106.999 E7.42019
G1 X114.8 Y108.173 E7.44466
G1 X114.622 Y109.386 E7.46913
G1 X114.622 Y110.614 E7.49363
G1 X114.8 Y111.827 E7.5181
G1 X115.154 Y113.001 E7.54257
G1 X115.674 Y114.111 E7.56703
G1 X116.351 Y115.135 E7.59153
G1 X117.17 Y116.047 E7.61599
G1 X118.112 Y116.832 E7.64046
G1 X119.159 Y117.471 E7.66494
G1 X120.287 Y117.951 E7.6894
G1 X121.475 Y118.261 E7.7139
G0 F6000 X121.396 Y118.693
G1 F1500 E1.2139
G0 F6000 X120.114 Y118.943
G0 X116.398 Y118.964
G0 X115.571 Y116.915
G0 X115.274 Y116.35
G0 X114.853 Y115.873
G0 X114.328 Y115.511
G0 X113.73 Y115.284
G0 X113.119 Y115.211
G0 X106.881 Y115.211
G0 X106.27 Y115.284
G0 X105.672 Y115.511
G0 X105.147 Y115.873
G0 X104.726 Y116.35
G0 X104.429 Y116.915
G0 X104.278 Y117.532
G0 X104.278 Y118.168
G0 X104.429 Y118.785
G0 X90.07 Y119.214
G0 X88.997 Y119.607
G1 F1500 E7.7139
G0 F6000 X89.054 Y119.792
G1 F1200 X89.334 Y119.72 E7.71967
G1 X89.583 Y119.588 E7.7253
G1 X89.804 Y119.39 E7.73122
G1 X89.964 Y119.158 E7.73684
G1 X90.068 Y118.88 E7.74277
G1 X90.102 Y118.599 E7.74842
G1 X90.064 Y118.305 E7.75433
G1 X89.963 Y118.041 E7.75997
G1 X89.794 Y117.798 E7.76588
G1 X89.582 Y117.611 E7.77152
G1 X89.327 Y117.477 E7.77727
G1 X89.045 Y117.407 E7.78307
G1 X88.746 Y117.408 E7.78903
G1 X88.466 Y117.48 E7.7948
G1 X88.217 Y117.612 E7.80043
G1 X87.996 Y117.81 E7.80635
G1 X87.836 Y118.042 E7.81197
G1 X87.732 Y118.32 E7.8179
G1 X87.698 Y118.601 E7.82355
G1 X87.736 Y118.895 E7.82946
G1 X87.837 Y119.159 E7.8351
G1 X88.006 Y119.402 E7.84101
G1 X88.218 Y119.589 E7.84665
G1 X88.474 Y119.724 E7.85243
G1 X88.763 Y119.793 E7.85836
G1 X89.054 Y119.792 E7.86416
G1 F1500 E1.36416
G0 F6000 X88.881 Y119.784
G0 X89.654 Y119.685
G0 X97.963 Y118.749
;TYPE:WALL-INNER
G1 F1500 E7.86416
G1 F1200 X99.226 Y118.515 E7.8898
G1 X100.442 Y118.101 E7.91543
G1 X101.585 Y117.512 E7.94109
G1 X102.629 Y116.765 E7.96671
G1 X103.555 Y115.874 E7.99235
G1 X104.34 Y114.856 E8.01801
G1 X104.97 Y113.736 E8.04365
G1 X105.428 Y112.535 E8.0693
G1 X105.708 Y111.282 E8.09492
G1 X105.802 Y110 E8.12058
G1 X105.708 Y108.718 E8.14623
G1 X105.428 Y107.465 E8.17185
G1 X104.97 Y106.264 E8.1975
G1 X104.34 Y105.144 E8.22315
G1 X103.555 Y104.126 E8.2488
G1 X102.629 Y103.235 E8.27444
G1 X101.585 Y102.488 E8.30006
G1 X100.442 Y101.899 E8.32572
G1 X99.226 Y101.485 E8.35136
G1 X97.963 Y101.251 E8.37699
G1 X96.679 Y101.204 E8.40263
G1 X95.402 Y101.345 E8.42827
G1 X94.157 Y101.669 E8.45394
G1 X92.976 Y102.172 E8.47956
G1 X91.879 Y102.842 E8.50521
G1 X90.892 Y103.664 E8.53084
G1 X90.034 Y104.62 E8.55648
G1 X89.324 Y105.693 E8.58216
G1 X88.779 Y106.856 E8.60779
G1 X88.409 Y108.086 E8.63342
G1 X88.348 Y108.499 E8.64175
G1 X88.222 Y109.357 E8.65631
G1 X88.222 Y110.643 E8.6738
G1 X88.348 Y111.501 E8.68836
G1 X88.409 Y111.914 E8.6967
G1 X88.779 Y113.144 E8.72233
G1 X89.324 Y114.307 E8.74796
G1 X90.034 Y115.38 E8.77363
G1 X90.892 Y116.336 E8.79927
G1 X91.879 Y117.158 E8.8249
G1 X92.976 Y117.828 E8.85055
G1 X94.157 Y118.331 E8.87617
G1 X95.402 Y118.655 E8.90184
G1 X96.679 Y118.796 E8.92748
G1 X97.963 Y118.749 E8.95312
G0 F6000 X97.919 Y118.35
;TYPE:WALL-OUTER
G1 F1200 X99.125 Y118.127 E8.9776
G1 X100.285 Y117.732 E9.00205
G1 X101.376 Y117.17 E9.02654
G1 X102.373 Y116.457 E9.051
G1 X103.256 Y115.606 E9.07548
G1 X104.006 Y114.635 E9.09996
G1 X104.607 Y113.566 E9.12444
G1 X105.044 Y112.42 E9.14891
G1 X105.311 Y111.223 E9.17339
G1 X105.401 Y110 E9.19786
G1 X105.311 Y108.777 E9.22233
G1 X105.044 Y107.58 E9.2468
G1 X104.607 Y106.434 E9.27128
G1 X104.006 Y105.365 E9.29575
G1 X103.256 Y104.394 E9.32024
G1 X102.373 Y103.543 E9.34471
G1 X101.376 Y102.83 E9.36917
G1 X100.285 Y102.268 E9.39366
G1 X99.125 Y101.873 E9.41812
G1 X97.919 Y101.65 E9.44259
G1 X96.694 Y101.605 E9.46706
G1 X95.475 Y101.739 E9.49153
G1 X94.287 Y102.049 E9.51603
G1 X93.159 Y102.529 E9.54049
G1 X92.112 Y103.168 E9.56497
G1 X91.17 Y103.953 E9.58944
G1 X90.351 Y104.865 E9.6139
G1 X89.674 Y105.889 E9.6384
G1 X89.154 Y106.999 E9.66286
G1 X88.8 Y108.173 E9.68733
G1 X88.622 Y109.386 E9.7118
G1 X88.622 Y110.614 E9.7363
G1 X88.8 Y111.827 E9.76077
G1 X89.154 Y113.001 E9.78524
G1 X89.674 Y114.111 E9.8097
G1 X90.351 Y115.135 E9.8342
G1 X91.17 Y116.047 E9.85866
G1 X92.112 Y116.832 E9.88313
G1 X93.159 Y117.471 E9.90761
G1 X94.287 Y117.951 E9.93207
G1 X95.475 Y118.261 E9.95657
G1 X96.694 Y118.395 E9.98105
G1 X97.919 Y118.35 E10.00551
G0 F6000 X97.967 Y118.787
G1 F1500 E3.50551
G0 F6000 X105.163 Y119.813
G0 X105.821 Y119.074
G0 X113.579 Y120.125
G0 X114.375 Y119.965
G1 F1500 E10.00551
G0 F6000 X114.43 Y119.95
G1 F1200 X114.759 Y119.723 E10.01349
G1 X115.159 Y119.272 E10.02552
G1 X115.439 Y118.737 E10.03757
G1 X115.583 Y118.151 E10.04961
G1 X115.583 Y117.549 E10.06162
G1 X115.439 Y116.963 E10.07367
G1 X115.159 Y116.428 E10.08572
G1 X114.759 Y115.977 E10.09775
G1 X114.263 Y115.635 E10.10977
G1 X113.698 Y115.421 E10.12183
G1 X113.112 Y115.35 E10.13361
G1 X106.888 Y115.35 E10.25781
G1 X106.302 Y115.421 E10.26959
