;FLAVOR:Marlin
;TIME:3922
;Filament used: 1.71758m
;Layer height: 0.12
;MINX:93.835
;MINY:84.385
;MINZ:0.12
;MAXX:126.165
;MAXY:135.615
;MAXZ:5.76
;Generated with Cura_SteamEngine master
M140 S75
M105
M190 S75
M104 S205
M105
M109 S205
M82 ;absolute extrusion mode
; Ender 3 Custom Start G-code
G92 E0 ; Reset Extruder
G28 ; Home all axes
G1 Z2.0 F3000 ; Move Z Axis up little to prevent scratching of Heat Bed
G1 X0.1 Y20 Z0.3 F5000.0 ; Move to start position
G1 X0.1 Y200.0 Z0.3 F1500.0 E15 ; Draw the first line
G1 X0.4 Y200.0 Z0.3 F5000.0 ; Move to side a little
G1 X0.4 Y20 Z0.3 F1500.0 E30 ; Draw the second line
G92 E0 ; Reset Extruder
G1 Z2.0 F3000 ; Move Z Axis up little to prevent scratching of Heat Bed
G1 X5 Y20 Z0.3 F5000.0 ; Move over to prevent blob squish
G92 E0
G92 E0
G1 F1500 E-6.5
;LAYER_COUNT:48
;LAYER:0
M107
;MESH:Motor Mount-TestPrint.stl
G0 F6000 X118.899 Y103.139 Z0.12
;TYPE:WALL-INNER
G1 F1500 E0
G1 F1200 X119.501 Y103.139 E0.01201
G1 X120.09 Y102.995 E0.02411
G1 X120.624 Y102.714 E0.03616
G1 X121.078 Y102.313 E0.04824
G1 X121.42 Y101.814 E0.06032
G1 X121.634 Y101.251 E0.07234
G1 X121.707 Y100.65 E0.08442
G1 X121.634 Y100.049 E0.0965
G1 X121.42 Y99.486 E0.10852
G1 X121.078 Y98.987 E0.12059
G1 X120.624 Y98.586 E0.13268
G1 X120.09 Y98.305 E0.14472
G1 X119.501 Y98.161 E0.15682
G1 X118.899 Y98.161 E0.16884
G1 X118.31 Y98.305 E0.18094
G1 X117.776 Y98.586 E0.19298
G1 X117.322 Y98.987 E0.20507
G1 X116.98 Y99.486 E0.21714
G1 X116.766 Y100.049 E0.22916
G1 X116.693 Y100.65 E0.24124
G1 X116.766 Y101.251 E0.25332
G1 X116.98 Y101.814 E0.26534
G1 X117.322 Y102.313 E0.27741
G1 X117.776 Y102.714 E0.2895
G1 X118.31 Y102.995 E0.30154
G1 X118.899 Y103.139 E0.31364
G0 F6000 X118.947 Y102.739
G1 F1200 X119.453 Y102.739 E0.32374
G1 X119.947 Y102.618 E0.33389
G1 X120.395 Y102.382 E0.344
G1 X120.776 Y102.046 E0.35413
G1 X121.063 Y101.627 E0.36427
G1 X121.243 Y101.154 E0.37437
G1 X121.304 Y100.65 E0.3845
G1 X121.243 Y100.146 E0.39463
G1 X121.063 Y99.673 E0.40473
G1 X120.776 Y99.254 E0.41487
G1 X120.395 Y98.918 E0.425
G1 X119.947 Y98.682 E0.43511
G1 X119.453 Y98.561 E0.44526
G1 X118.947 Y98.561 E0.45536
G1 X118.453 Y98.682 E0.46551
G1 X118.005 Y98.918 E0.47561
G1 X117.624 Y99.254 E0.48575
G1 X117.337 Y99.673 E0.49588
G1 X117.157 Y100.146 E0.50598
G1 X117.096 Y100.65 E0.51611
G1 X117.157 Y101.154 E0.52624
G1 X117.337 Y101.627 E0.53634
G1 X117.624 Y102.046 E0.54648
G1 X118.005 Y102.382 E0.55662
G1 X118.453 Y102.618 E0.56672
G1 X118.947 Y102.739 E0.57687
G0 F6000 X118.995 Y102.339
;TYPE:WALL-OUTER
G1 F1200 X119.405 Y102.339 E0.58505
G1 X119.804 Y102.241 E0.59325
G1 X120.166 Y102.05 E0.60142
G1 X120.474 Y101.779 E0.60961
G1 X120.706 Y101.44 E0.61781
G1 X120.852 Y101.057 E0.62599
G1 X120.901 Y100.65 E0.63417
G1 X120.852 Y100.243 E0.64235
G1 X120.706 Y99.86 E0.65053
G1 X120.474 Y99.521 E0.65872
G1 X120.166 Y99.25 E0.66691
G1 X119.804 Y99.059 E0.67508
G1 X119.405 Y98.961 E0.68328
G1 X118.995 Y98.961 E0.69146
G1 X118.596 Y99.059 E0.69966
G1 X118.234 Y99.25 E0.70783
G1 X117.926 Y99.521 E0.71601
G1 X117.694 Y99.86 E0.72421
G1 X117.548 Y100.243 E0.73239
G1 X117.499 Y100.65 E0.74057
G1 X117.548 Y101.057 E0.74875
G1 X117.694 Y101.44 E0.75693
G1 X117.926 Y101.779 E0.76513
G1 X118.234 Y102.05 E0.77332
G1 X118.596 Y102.241 E0.78149
G1 X118.995 Y102.339 E0.78968
G0 F6000 X118.943 Y102.775
G1 F1500 E-5.71032
G0 F6000 X116.81 Y101.903
G0 X118.463 Y101.035
G0 X101.537 Y101.035
G0 X103.19 Y101.903
G0 X101.101 Y103.139
;TYPE:WALL-INNER
G1 F1500 E0.78968
G1 F1200 X101.69 Y102.995 E0.80178
G1 X102.224 Y102.714 E0.81383
G1 X102.678 Y102.313 E0.82592
G1 X103.02 Y101.814 E0.83799
G1 X103.234 Y101.251 E0.85001
G1 X103.307 Y100.65 E0.86209
G1 X103.234 Y100.049 E0.87417
G1 X103.02 Y99.486 E0.88619
G1 X102.678 Y98.987 E0.89826
G1 X102.224 Y98.586 E0.91035
G1 X101.69 Y98.305 E0.92239
G1 X101.101 Y98.161 E0.93449
G1 X100.499 Y98.161 E0.94651
G1 X99.91 Y98.305 E0.95861
G1 X99.376 Y98.586 E0.97065
G1 X98.922 Y98.987 E0.98274
G1 X98.58 Y99.486 E0.99481
G1 X98.366 Y100.049 E1.00683
G1 X98.293 Y100.65 E1.01891
G1 X98.366 Y101.251 E1.03099
G1 X98.58 Y101.814 E1.04301
G1 X98.922 Y102.313 E1.05508
G1 X99.376 Y102.714 E1.06717
G1 X99.91 Y102.995 E1.07921
G1 X100.499 Y103.139 E1.09131
G1 X101.101 Y103.139 E1.10333
G0 F6000 X101.053 Y102.739
G1 F1200 X101.547 Y102.618 E1.11348
G1 X101.995 Y102.382 E1.12358
G1 X102.376 Y102.046 E1.13372
G1 X102.663 Y101.627 E1.14386
G1 X102.843 Y101.154 E1.15396
G1 X102.904 Y100.65 E1.16409
G1 X102.843 Y100.146 E1.17422
G1 X102.663 Y99.673 E1.18432
G1 X102.376 Y99.254 E1.19445
G1 X101.995 Y98.918 E1.20459
G1 X101.547 Y98.682 E1.21469
G1 X101.053 Y98.561 E1.22484
G1 X100.547 Y98.561 E1.23494
G1 X100.053 Y98.682 E1.24509
G1 X99.605 Y98.918 E1.2552
G1 X99.224 Y99.254 E1.26533
G1 X98.937 Y99.673 E1.27547
G1 X98.757 Y100.146 E1.28557
G1 X98.696 Y100.65 E1.2957
G1 X98.757 Y101.154 E1.30583
G1 X98.937 Y101.627 E1.31593
G1 X99.224 Y102.046 E1.32607
G1 X99.605 Y102.382 E1.3362
G1 X100.053 Y102.618 E1.34631
G1 X100.547 Y102.739 E1.35646
G1 X101.053 Y102.739 E1.36656
G0 F6000 X101.005 Y102.339
;TYPE:WALL-OUTER
G1 F1200 X101.404 Y102.241 E1.37476
G1 X101.766 Y102.05 E1.38292
G1 X102.074 Y101.779 E1.39111
G1 X102.306 Y101.44 E1.39931
G1 X102.452 Y101.057 E1.40749
G1 X102.501 Y100.65 E1.41567
G1 X102.452 Y100.243 E1.42385
G1 X102.306 Y99.86 E1.43203
G1 X102.074 Y99.521 E1.44023
G1 X101.766 Y99.25 E1.44841
G1 X101.404 Y99.059 E1.45658
G1 X101.005 Y98.961 E1.46478
G1 X100.595 Y98.961 E1.47296
G1 X100.196 Y99.059 E1.48116
G1 X99.834 Y99.25 E1.48933
G1 X99.526 Y99.521 E1.49752
G1 X99.294 Y99.86 E1.50571
G1 X99.148 Y100.243 E1.51389
G1 X99.099 Y100.65 E1.52208
G1 X99.148 Y101.057 E1.53026
G1 X99.294 Y101.44 E1.53844
G1 X99.526 Y101.779 E1.54663
G1 X99.834 Y102.05 E1.55482
G1 X100.196 Y102.241 E1.56299
G1 X100.595 Y102.339 E1.57119
G1 X101.005 Y102.339 E1.57937
G0 F6000 X101.057 Y102.775
G1 F1500 E-4.92063
G0 F6000 X101.758 Y103.175
G0 X101.093 Y101.428
G0 X108.61 Y108.308
G0 X106.797 Y107.858
G0 X107.75 Y109.832
G0 X108.03 Y110.24
G0 X109.626 Y111.735
;TYPE:WALL-INNER
G1 F1500 E1.57937
G1 F1200 X110.374 Y111.735 E1.5943
G1 X111.103 Y111.556 E1.60928
G1 X111.765 Y111.208 E1.6242
G1 X112.327 Y110.711 E1.63917
G1 X112.751 Y110.094 E1.65411
G1 X113.017 Y109.395 E1.66904
G1 X113.107 Y108.65 E1.68401
G1 X113.017 Y107.905 E1.69899
G1 X112.751 Y107.206 E1.71391
G1 X112.327 Y106.589 E1.72885
G1 X111.765 Y106.092 E1.74383
G1 X111.103 Y105.744 E1.75875
G1 X110.374 Y105.565 E1.77373
G1 X109.626 Y105.565 E1.78866
G1 X108.897 Y105.744 E1.80364
G1 X108.235 Y106.092 E1.81856
G1 X107.673 Y106.589 E1.83354
G1 X107.249 Y107.206 E1.84848
G1 X106.983 Y107.905 E1.8634
G1 X106.893 Y108.65 E1.87838
G1 X106.983 Y109.395 E1.89335
G1 X107.249 Y110.094 E1.90828
G1 X107.673 Y110.711 E1.92322
G1 X108.235 Y111.208 E1.93819
G1 X108.897 Y111.556 E1.95311
G1 X109.626 Y111.735 E1.96809
G0 F6000 X109.674 Y111.335
G1 F1200 X110.326 Y111.335 E1.9811
G1 X110.96 Y111.179 E1.99413
G1 X111.536 Y110.876 E2.00712
G1 X112.025 Y110.444 E2.02014
G1 X112.394 Y109.907 E2.03315
G1 X112.626 Y109.298 E2.04615
G1 X112.704 Y108.65 E2.05918
G1 X112.626 Y108.002 E2.0722
G1 X112.394 Y107.393 E2.08521
G1 X112.025 Y106.856 E2.09821
G1 X111.536 Y106.424 E2.11123
G1 X110.96 Y106.121 E2.12422
G1 X110.326 Y105.965 E2.13725
G1 X109.674 Y105.965 E2.15026
G1 X109.04 Y106.121 E2.16329
G1 X108.464 Y106.424 E2.17628
G1 X107.975 Y106.856 E2.1893
G1 X107.606 Y107.393 E2.2023
G1 X107.374 Y108.002 E2.21531
G1 X107.296 Y108.65 E2.22833
G1 X107.374 Y109.298 E2.24136
G1 X107.606 Y109.907 E2.25436
G1 X107.975 Y110.444 E2.26736
G1 X108.464 Y110.876 E2.28038
G1 X109.04 Y111.179 E2.29337
G1 X109.674 Y111.335 E2.3064
G0 F6000 X109.723 Y110.935
;TYPE:WALL-OUTER
G1 F1200 X110.277 Y110.935 E2.31746
G1 X110.817 Y110.802 E2.32856
G1 X111.307 Y110.544 E2.33961
G1 X111.723 Y110.177 E2.35068
G1 X112.037 Y109.72 E2.36174
G1 X112.235 Y109.201 E2.37283
G1 X112.301 Y108.65 E2.3839
G1 X112.235 Y108.099 E2.39498
G1 X112.037 Y107.58 E2.40606
G1 X111.723 Y107.123 E2.41713
G1 X111.307 Y106.756 E2.4282
G1 X110.817 Y106.498 E2.43925
G1 X110.277 Y106.365 E2.45035
G1 X109.723 Y106.365 E2.4614
G1 X109.183 Y106.498 E2.4725
G1 X108.693 Y106.756 E2.48355
G1 X108.277 Y107.123 E2.49462
G1 X107.963 Y107.58 E2.50569
G1 X107.765 Y108.099 E2.51677
G1 X107.699 Y108.65 E2.52785
G1 X107.765 Y109.201 E2.53892
G1 X107.963 Y109.72 E2.55001
G1 X108.277 Y110.177 E2.56107
G1 X108.693 Y110.544 E2.57214
G1 X109.183 Y110.802 E2.5832
G1 X109.723 Y110.935 E2.59429
G0 F6000 X109.67 Y111.371
G1 F1500 E-3.90571
G0 F6000 X109.603 Y111.926
G0 X109.603 Y115.136
G0 X107.762 Y116.556
G0 X107.049 Y117.185
G0 X106.51 Y117.967
G0 X106.172 Y118.857
G0 X106.058 Y119.8
G0 X106.172 Y120.743
G0 X106.51 Y121.633
G0 X107.049 Y122.415
G0 X107.452 Y122.771
G0 X109.458 Y124.274
;TYPE:WALL-INNER
G1 F1500 E2.59429
G1 F1200 X110.542 Y124.274 E2.61593
G1 X111.598 Y124.015 E2.63762
G1 X112.56 Y123.51 E2.65931
G1 X113.375 Y122.789 E2.68102
G1 X113.991 Y121.895 E2.70269
G1 X114.376 Y120.878 E2.72439
G1 X114.507 Y119.8 E2.74606
G1 X114.376 Y118.722 E2.76773
G1 X113.991 Y117.705 E2.78943
G1 X113.375 Y116.811 E2.8111
G1 X112.56 Y116.09 E2.83281
G1 X111.598 Y115.585 E2.85449
G1 X110.542 Y115.326 E2.87619
G1 X109.458 Y115.326 E2.89782
G1 X108.402 Y115.585 E2.91952
G1 X107.44 Y116.09 E2.94121
G1 X106.625 Y116.811 E2.96292
G1 X106.009 Y117.705 E2.98459
G1 X105.624 Y118.722 E3.00629
G1 X105.493 Y119.8 E3.02796
G1 X105.624 Y120.878 E3.04963
G1 X106.009 Y121.895 E3.07133
G1 X106.625 Y122.789 E3.093
G1 X107.44 Y123.51 E3.11471
G1 X108.402 Y124.015 E3.13639
G1 X109.458 Y124.274 E3.15809
G0 F6000 X109.506 Y123.874
G1 F1200 X110.494 Y123.874 E3.17781
G1 X111.455 Y123.638 E3.19756
G1 X112.331 Y123.178 E3.2173
G1 X113.073 Y122.522 E3.23707
G1 X113.634 Y121.708 E3.25679
G1 X113.985 Y120.782 E3.27656
G1 X114.104 Y119.8 E3.2963
G1 X113.985 Y118.818 E3.31604
G1 X113.634 Y117.892 E3.3358
G1 X113.073 Y117.078 E3.35553
G1 X112.331 Y116.422 E3.37529
G1 X111.455 Y115.962 E3.39504
G1 X110.494 Y115.726 E3.41478
G1 X109.506 Y115.726 E3.4345
G1 X108.545 Y115.962 E3.45425
G1 X107.669 Y116.422 E3.47399
G1 X106.927 Y117.078 E3.49376
G1 X106.366 Y117.892 E3.51349
G1 X106.015 Y118.818 E3.53325
G1 X105.896 Y119.8 E3.55299
G1 X106.015 Y120.782 E3.57273
G1 X106.366 Y121.708 E3.59249
G1 X106.927 Y122.522 E3.61222
G1 X107.669 Y123.178 E3.63199
G1 X108.545 Y123.638 E3.65173
G1 X109.506 Y123.874 E3.67148
G0 F6000 X109.554 Y123.474
;TYPE:WALL-OUTER
G1 F1200 X110.446 Y123.474 E3.68928
G1 X111.312 Y123.261 E3.70708
G1 X112.102 Y122.846 E3.72488
G1 X112.771 Y122.255 E3.7427
G1 X113.277 Y121.521 E3.76049
G1 X113.594 Y120.686 E3.77831
G1 X113.701 Y119.8 E3.79612
G1 X113.594 Y118.914 E3.81393
G1 X113.277 Y118.079 E3.83176
G1 X112.771 Y117.345 E3.84955
G1 X112.102 Y116.754 E3.86736
G1 X111.312 Y116.339 E3.88517
G1 X110.446 Y116.126 E3.90297
G1 X109.554 Y116.126 E3.92077
G1 X108.688 Y116.339 E3.93856
G1 X107.898 Y116.754 E3.95637
G1 X107.229 Y117.345 E3.97419
G1 X106.723 Y118.079 E3.99198
G1 X106.406 Y118.914 E4.0098
G1 X106.299 Y119.8 E4.02761
G1 X106.406 Y120.686 E4.04542
G1 X106.723 Y121.521 E4.06324
G1 X107.229 Y122.255 E4.08103
G1 X107.898 Y122.846 E4.09885
G1 X108.688 Y123.261 E4.11666
G1 X109.554 Y123.474 E4.13445
G0 F6000 X109.502 Y123.91
G1 F1500 E-2.36555
G0 F6000 X111.666 Y124.195
G0 X111.004 Y122.447
G0 X111.666 Y135.615
G0 X111.666 Y133.74
G0 X124.5 Y133.95
;TYPE:WALL-INNER
G1 F1500 E4.13445
G1 F1200 X95.5 Y133.95 E4.71318
G1 X95.5 Y86.05 E5.66908
G1 X124.5 Y86.05 E6.2478
G1 X124.5 Y133.95 E7.2037
G0 F6000 X124.9 Y134.35
G1 F1200 X95.1 Y134.35 E7.79839
G1 X95.1 Y85.65 E8.77025
G1 X124.9 Y85.65 E9.36494
G1 X124.9 Y134.35 E10.3368
G0 F6000 X125.3 Y134.75
;TYPE:WALL-OUTER
G1 F1200 X94.7 Y134.75 E10.94746
G1 X94.7 Y85.25 E11.93529
G1 X125.3 Y85.25 E12.54594
G1 X125.3 Y134.75 E13.53377
G0 F6000 X125.03 Y134.48
G0 X124.39 Y133.56
G0 X124.11 Y133.56
;TYPE:SKIN
G1 F1200 X95.89 Y133.56 E14.09693
G1 X95.89 Y86.44 E15.03726
G1 X124.11 Y86.44 E15.60042
G1 X124.11 Y133.56 E16.54075
G1 F1500 E10.04075
G0 F6000 X124.39 Y133.56
G0 X124.29 Y122.862
G0 X126.165 Y122.862
G0 X112.507 Y121.116
G0 X114.161 Y121.984
G0 X113.459 Y122.862
G1 F1500 E16.54075
G0 F6000 X113.669 Y123.05
G1 F1200 X114.339 Y122.077 E16.56433
G1 X114.758 Y120.972 E16.58791
G1 X114.899 Y119.8 E16.61147
G1 X114.758 Y118.628 E16.63502
G1 X114.339 Y117.523 E16.65861
G1 X113.669 Y116.55 E16.68218
G1 X112.783 Y115.766 E16.70579
G1 X111.737 Y115.218 E16.72936
G1 X110.589 Y114.936 E16.75295
G1 X109.411 Y114.936 E16.77646
G1 X108.263 Y115.218 E16.80005
G1 X107.217 Y115.766 E16.82361
G1 X106.331 Y116.55 E16.84722
G1 X105.661 Y117.523 E16.8708
G1 X105.242 Y118.628 E16.89438
G1 X105.101 Y119.8 E16.91794
G1 X105.242 Y120.972 E16.9415
G1 X105.661 Y122.077 E16.96508
G1 X106.331 Y123.05 E16.98865
G1 X107.217 Y123.834 E17.01226
G1 X108.263 Y124.382 E17.03583
G1 X109.411 Y124.664 E17.05942
G1 X110.589 Y124.664 E17.08293
G1 X111.737 Y124.382 E17.10652
G1 X112.783 Y123.834 E17.13008
G1 X113.669 Y123.05 E17.15369
G1 F1500 E10.65369
G0 F6000 X113.459 Y122.862
G0 X113.942 Y119.8
G0 X113.828 Y118.857
G0 X113.524 Y118.056
G0 X111.666 Y115.405
G0 X111.171 Y111.736
G0 X111.829 Y111.299
G1 F1500 E17.15369
G0 F6000 X111.988 Y111.532
G1 F1200 X112.621 Y110.972 E17.17056
G1 X113.098 Y110.277 E17.18738
G1 X113.399 Y109.489 E17.20421
G1 X113.499 Y108.65 E17.22108
G1 X113.399 Y107.811 E17.23794
G1 X113.098 Y107.023 E17.25477
G1 X112.621 Y106.328 E17.27159
G1 X111.988 Y105.768 E17.28846
G1 X111.242 Y105.377 E17.30527
G1 X110.421 Y105.175 E17.32214
G1 X109.579 Y105.175 E17.33894
G1 X108.758 Y105.377 E17.35582
G1 X108.012 Y105.768 E17.37262
G1 X107.379 Y106.328 E17.38949
G1 X106.902 Y107.023 E17.40631
G1 X106.601 Y107.811 E17.42315
G1 X106.501 Y108.65 E17.44001
G1 X106.601 Y109.489 E17.45687
G1 X106.902 Y110.277 E17.4737
G1 X107.379 Y110.972 E17.49052
G1 X108.012 Y111.532 E17.50739
G1 X108.758 Y111.923 E17.5242
G1 X109.579 Y112.125 E17.54107
G1 X110.421 Y112.125 E17.55787
G1 X111.242 Y111.923 E17.57475
G1 X111.988 Y111.532 E17.59155
G1 F1500 E11.09155
G0 F6000 X111.829 Y111.299
G0 X113.299 Y108.65
G0 X111.431 Y108.65
G0 X118.907 Y101.428
G0 X118.242 Y103.175
G0 X119.516 Y103.248
G1 F1500 E17.59155
G0 F6000 X119.548 Y103.529
G1 F1200 X120.229 Y103.362 E17.60555
G1 X120.847 Y103.038 E17.61947
G1 X121.372 Y102.574 E17.63345
G1 X121.768 Y101.996 E17.64744
G1 X122.016 Y101.345 E17.66134
G1 X122.099 Y100.65 E17.67531
G1 X122.016 Y99.955 E17.68927
G1 X121.768 Y99.304 E17.70318
G1 X121.372 Y98.726 E17.71716
G1 X120.847 Y98.262 E17.73114
G1 X120.229 Y97.938 E17.74507
G1 X119.548 Y97.771 E17.75906
G1 X118.852 Y97.771 E17.77295
G1 X118.171 Y97.938 E17.78694
G1 X117.553 Y98.262 E17.80087
G1 X117.028 Y98.726 E17.81485
G1 X116.632 Y99.304 E17.82883
G1 X116.384 Y99.955 E17.84273
G1 X116.301 Y100.65 E17.8567
G1 X116.384 Y101.345 E17.87067
G1 X116.632 Y101.996 E17.88457
G1 X117.028 Y102.574 E17.89855
G1 X117.553 Y103.038 E17.91254
G1 X118.171 Y103.362 E17.92646
G1 X118.852 Y103.529 E17.94045
G1 X119.548 Y103.529 E17.95434
G1 F1500 E11.45434
G0 F6000 X119.516 Y103.248
G0 X116.81 Y101.903
G0 X118.463 Y101.035
G0 X101.537 Y101.035
G0 X103.19 Y101.903
G0 X102.288 Y102.805
G1 F1500 E17.95434
G0 F6000 X102.447 Y103.038
G1 F1200 X102.972 Y102.574 E17.96833
G1 X103.368 Y101.996 E17.98231
G1 X103.616 Y101.345 E17.99621
G1 X103.699 Y100.65 E18.01018
G1 X103.616 Y99.955 E18.02415
G1 X103.368 Y99.304 E18.03805
G1 X102.972 Y98.726 E18.05203
G1 X102.447 Y98.262 E18.06601
G1 X101.829 Y97.938 E18.07994
G1 X101.148 Y97.771 E18.09393
G1 X100.452 Y97.771 E18.10782
G1 X99.771 Y97.938 E18.12181
G1 X99.153 Y98.262 E18.13574
G1 X98.628 Y98.726 E18.14972
G1 X98.232 Y99.304 E18.1637
G1 X97.984 Y99.955 E18.1776
G1 X97.901 Y100.65 E18.19157
G1 X97.984 Y101.345 E18.20554
G1 X98.232 Y101.996 E18.21944
G1 X98.628 Y102.574 E18.23342
G1 X99.153 Y103.038 E18.24741
G1 X99.771 Y103.362 E18.26133
G1 X100.452 Y103.529 E18.27532
G1 X101.148 Y103.529 E18.28921
G1 X101.829 Y103.362 E18.30321
G1 X102.447 Y103.038 E18.31713
G1 F1500 E11.81713
