;FLAVOR:Marlin
;TIME:19033
;Filament used: 8.53905m
;Layer height: 0.12
;MINX:57.335
;MINY:78.335
;MINZ:0.12
;MAXX:162.665
;MAXY:141.665
;MAXZ:30.96
;Generated with Cura_SteamEngine master
M140 S75
M105
M190 S75
M104 S205
M105
M109 S205
M82 ;absolute extrusion mode
; Ender 3 Custom Start G-code
G92 E0 ; Reset Extruder
G28 ; Home all axes
G1 Z2.0 F3000 ; Move Z Axis up little to prevent scratching of Heat Bed
G1 X0.1 Y20 Z0.3 F5000.0 ; Move to start position
G1 X0.1 Y200.0 Z0.3 F1500.0 E15 ; Draw the first line
G1 X0.4 Y200.0 Z0.3 F5000.0 ; Move to side a little
G1 X0.4 Y20 Z0.3 F1500.0 E30 ; Draw the second line
G92 E0 ; Reset Extruder
G1 Z2.0 F3000 ; Move Z Axis up little to prevent scratching of Heat Bed
G1 X5 Y20 Z0.3 F5000.0 ; Move over to prevent blob squish
G92 E0
G92 E0
G1 F1500 E-6.5
;LAYER_COUNT:258
;LAYER:0
M107
G0 F6000 X84.564 Y118.969 Z0.12
;TYPE:SKIRT
G1 F1500 E0
G1 F1200 X85.036 Y118.969 E0.00942
G1 X85.274 Y119.38 E0.0189
G1 X85.036 Y119.791 E0.02838
G1 X84.564 Y119.791 E0.03779
G1 X84.326 Y119.38 E0.04727
G1 X84.564 Y118.969 E0.05675
G0 F6000 X84.332 Y118.569
G1 F1200 X85.268 Y118.569 E0.07543
G1 X85.736 Y119.38 E0.09411
G1 X85.268 Y120.191 E0.1128
G1 X84.332 Y120.191 E0.13148
G1 X83.864 Y119.38 E0.15017
G1 X84.332 Y118.569 E0.16885
G0 F6000 X84.102 Y118.169
G1 F1200 X85.498 Y118.169 E0.19671
G1 X86.198 Y119.38 E0.22462
G1 X85.498 Y120.591 E0.25254
G1 X84.102 Y120.591 E0.2804
G1 X83.402 Y119.38 E0.30831
G1 X84.102 Y118.169 E0.33622
G0 F6000 X83.871 Y117.769
G1 F1200 X85.729 Y117.769 E0.3733
G1 X86.659 Y119.38 E0.41042
G1 X85.729 Y120.991 E0.44754
G1 X83.871 Y120.991 E0.48462
G1 X82.941 Y119.38 E0.52175
G1 X83.871 Y117.769 E0.55887
G0 F6000 X83.639 Y117.369
G1 F1200 X85.961 Y117.369 E0.6052
G1 X87.121 Y119.38 E0.65153
G1 X85.961 Y121.391 E0.69786
G1 X83.639 Y121.391 E0.7442
G1 X82.479 Y119.38 E0.79053
G1 X83.639 Y117.369 E0.83686
G0 F6000 X83.409 Y116.969
G1 F1200 X86.191 Y116.969 E0.89238
G1 X87.583 Y119.38 E0.94794
G1 X86.191 Y121.791 E1.00349
G1 X83.409 Y121.791 E1.05901
G1 X82.017 Y119.38 E1.11457
G1 X83.409 Y116.969 E1.17013
G0 F6000 X83.177 Y116.569
G1 F1200 X86.423 Y116.569 E1.2349
G1 X88.045 Y119.38 E1.29967
G1 X86.423 Y122.191 E1.36443
G1 X83.177 Y122.191 E1.42921
G1 X81.555 Y119.38 E1.49398
G1 X83.177 Y116.569 E1.55874
G1 F1500 E-4.94126
G0 F6000 X131.955 Y119.38
G1 F1500 E1.55874
G1 F1200 X133.577 Y116.569 E1.62351
G1 X136.823 Y116.569 E1.68829
G1 X138.445 Y119.38 E1.75305
G1 X136.823 Y122.191 E1.81782
G1 X133.577 Y122.191 E1.88259
G1 X131.955 Y119.38 E1.94736
G0 F6000 X132.417 Y119.38
G1 F1200 X133.809 Y116.969 E2.00292
G1 X136.591 Y116.969 E2.05843
G1 X137.983 Y119.38 E2.11399
G1 X136.591 Y121.791 E2.16955
G1 X133.809 Y121.791 E2.22507
G1 X132.417 Y119.38 E2.28063
G0 F6000 X132.879 Y119.38
G1 F1200 X134.039 Y117.369 E2.32695
G1 X136.361 Y117.369 E2.37329
G1 X137.521 Y119.38 E2.41962
G1 X136.361 Y121.391 E2.46595
G1 X134.039 Y121.391 E2.51229
G1 X132.879 Y119.38 E2.55862
G0 F6000 X133.341 Y119.38
G1 F1200 X134.271 Y117.769 E2.59574
G1 X136.129 Y117.769 E2.63282
G1 X137.059 Y119.38 E2.66994
G1 X136.129 Y120.991 E2.70706
G1 X134.271 Y120.991 E2.74414
G1 X133.341 Y119.38 E2.78126
G0 F6000 X133.802 Y119.38
G1 F1200 X134.502 Y118.169 E2.80918
G1 X135.898 Y118.169 E2.83704
G1 X136.598 Y119.38 E2.86495
G1 X135.898 Y120.591 E2.89286
G1 X134.502 Y120.591 E2.92072
G1 X133.802 Y119.38 E2.94864
G0 F6000 X134.264 Y119.38
G1 F1200 X134.732 Y118.569 E2.96732
G1 X135.668 Y118.569 E2.986
G1 X136.136 Y119.38 E3.00469
G1 X135.668 Y120.191 E3.02337
G1 X134.732 Y120.191 E3.04205
G1 X134.264 Y119.38 E3.06074
G0 F6000 X134.726 Y119.38
G1 F1200 X134.964 Y118.969 E3.07021
G1 X135.436 Y118.969 E3.07963
G1 X135.674 Y119.38 E3.08911
G1 X135.436 Y119.791 E3.09859
G1 X134.964 Y119.791 E3.10801
G1 X134.726 Y119.38 E3.11749
G1 F1500 E-3.38251
;MESH:MotorMountPlatform_v1.stl
G0 F6000 X61.874 Y82.62
G0 X63.423 Y83.685
G0 X61.59 Y84.246
;TYPE:WALL-INNER
G1 F1500 E3.11749
G1 F1200 X61.906 Y84.148 E3.12409
G1 X62.2 Y84.007 E3.1306
G1 X62.472 Y83.821 E3.13717
G1 X62.713 Y83.597 E3.14374
G1 X62.918 Y83.34 E3.1503
G1 X63.084 Y83.053 E3.15691
G1 X63.203 Y82.749 E3.16343
G1 X63.278 Y82.423 E3.1701
G1 X63.299 Y81.997 E3.17862
G1 X63.257 Y81.663 E3.18533
G1 X63.168 Y81.346 E3.1919
G1 X63.032 Y81.046 E3.19848
G1 X62.854 Y80.769 E3.20505
G1 X62.635 Y80.523 E3.21162
G1 X62.384 Y80.313 E3.21815
G1 X62.102 Y80.141 E3.22474
G1 X61.8 Y80.013 E3.23129
G1 X61.482 Y79.932 E3.23784
G1 X61.154 Y79.899 E3.24442
G1 X60.82 Y79.916 E3.25109
G1 X60.407 Y80.01 E3.25954
G1 X60.095 Y80.141 E3.2663
G1 X59.811 Y80.315 E3.27294
G1 X59.491 Y80.597 E3.28146
G1 X59.282 Y80.86 E3.28816
G1 X59.116 Y81.147 E3.29478
G1 X58.997 Y81.451 E3.30129
G1 X58.922 Y81.778 E3.30799
G1 X58.899 Y82.206 E3.31654
G1 X58.964 Y82.641 E3.32532
G1 X59.113 Y83.049 E3.33398
G1 X59.282 Y83.34 E3.3407
G1 X59.487 Y83.597 E3.34726
G1 X59.728 Y83.821 E3.35383
G1 X60 Y84.007 E3.3604
G1 X60.294 Y84.148 E3.36691
G1 X60.61 Y84.246 E3.37351
G1 X60.935 Y84.295 E3.38007
G1 X61.265 Y84.295 E3.38666
G1 X61.59 Y84.246 E3.39322
G0 F6000 X61.501 Y83.855
;TYPE:WALL-OUTER
G1 F1200 X61.759 Y83.775 E3.39861
G1 X62 Y83.659 E3.40394
G1 X62.222 Y83.508 E3.4093
G1 X62.419 Y83.324 E3.41468
G1 X62.587 Y83.114 E3.42005
G1 X62.723 Y82.879 E3.42547
G1 X62.82 Y82.631 E3.43078
G1 X62.88 Y82.368 E3.43616
G1 X62.898 Y82.012 E3.44328
G1 X62.864 Y81.743 E3.44869
G1 X62.791 Y81.483 E3.45408
G1 X62.68 Y81.238 E3.45944
G1 X62.534 Y81.012 E3.46481
G1 X62.356 Y80.811 E3.47017
G1 X62.15 Y80.639 E3.47553
G1 X61.919 Y80.498 E3.48093
G1 X61.672 Y80.393 E3.48628
G1 X61.412 Y80.327 E3.49164
G1 X61.144 Y80.3 E3.49701
G1 X60.875 Y80.314 E3.50239
G1 X60.53 Y80.392 E3.50945
G1 X60.278 Y80.498 E3.5149
G1 X60.05 Y80.638 E3.52024
G1 X59.782 Y80.874 E3.52737
G1 X59.613 Y81.086 E3.53278
G1 X59.477 Y81.321 E3.5382
G1 X59.38 Y81.569 E3.54351
G1 X59.32 Y81.833 E3.54891
G1 X59.301 Y82.187 E3.55599
G1 X59.354 Y82.542 E3.56315
G1 X59.477 Y82.879 E3.57031
G1 X59.613 Y83.114 E3.57573
G1 X59.781 Y83.324 E3.5811
G1 X59.978 Y83.508 E3.58648
G1 X60.2 Y83.659 E3.59183
G1 X60.441 Y83.775 E3.59717
G1 X60.699 Y83.855 E3.60256
G1 X60.965 Y83.895 E3.60793
G1 X61.235 Y83.895 E3.61332
G1 X61.501 Y83.855 E3.61869
G0 F6000 X61.599 Y84.283
G1 F1500 E-2.88131
G0 F6000 X63.846 Y82.502
G0 X63.137 Y80.194
G0 X157.355 Y80.193
G0 X157.364 Y83.264
G0 X158.82 Y84.637
;TYPE:WALL-INNER
G1 F1500 E3.61869
G1 F1200 X159.205 Y84.695 E3.62645
G1 X159.595 Y84.695 E3.63424
G1 X159.98 Y84.637 E3.64201
G1 X160.353 Y84.521 E3.6498
G1 X160.701 Y84.354 E3.65751
G1 X161 Y84.149 E3.66474
G1 X161 Y136.367 E4.70681
G1 X160.974 Y136.326 E4.70778
G1 X160.714 Y136.035 E4.71556
G1 X160.418 Y135.787 E4.72327
G1 X160.085 Y135.584 E4.73105
G1 X159.728 Y135.433 E4.73879
G1 X159.352 Y135.337 E4.74653
G1 X158.964 Y135.298 E4.75431
G1 X158.565 Y135.318 E4.76229
G1 X158.084 Y135.428 E4.77213
G1 X157.712 Y135.584 E4.78018
G1 X157.373 Y135.792 E4.78812
G1 X157 Y136.12 E4.79803
G1 X156.751 Y136.434 E4.80603
G1 X156.555 Y136.773 E4.81384
G1 X156.414 Y137.133 E4.82156
G1 X156.324 Y137.522 E4.82953
G1 X156.297 Y138.025 E4.83958
G1 X156.374 Y138.54 E4.84997
G1 X156.549 Y139.019 E4.86015
G1 X156.751 Y139.366 E4.86816
G1 X156.993 Y139.67 E4.87592
G1 X157.278 Y139.934 E4.88367
G1 X157.374 Y140 E4.88599
G1 X62.626 Y140 E6.77679
G1 X62.722 Y139.934 E6.77912
G1 X63.007 Y139.67 E6.78687
G1 X63.249 Y139.366 E6.79462
G1 X63.445 Y139.027 E6.80244
G1 X63.586 Y138.667 E6.81015
G1 X63.676 Y138.278 E6.81812
G1 X63.7 Y137.782 E6.82803
G1 X63.65 Y137.384 E6.83604
G1 X63.545 Y137.009 E6.84381
G1 X63.384 Y136.654 E6.85159
G1 X63.174 Y136.326 E6.85936
G1 X62.914 Y136.035 E6.86715
G1 X62.618 Y135.787 E6.87485
G1 X62.285 Y135.584 E6.88264
G1 X61.928 Y135.433 E6.89037
G1 X61.552 Y135.337 E6.89811
G1 X61.164 Y135.298 E6.9059
G1 X60.765 Y135.318 E6.91387
G1 X60.284 Y135.428 E6.92372
G1 X59.912 Y135.584 E6.93177
G1 X59.573 Y135.792 E6.9397
G1 X59.2 Y136.12 E6.94962
G1 X59 Y136.372 E6.95604
G1 X59 Y83.628 E8.0086
G1 X59.193 Y83.87 E8.01478
G1 X59.478 Y84.134 E8.02253
G1 X59.799 Y84.354 E8.03029
G1 X60.147 Y84.521 E8.038
G1 X60.52 Y84.637 E8.04579
G1 X60.905 Y84.695 E8.05356
G1 X61.295 Y84.695 E8.06135
G1 X61.68 Y84.637 E8.06912
G1 X62.053 Y84.521 E8.07691
G1 X62.401 Y84.354 E8.08461
G1 X62.722 Y84.134 E8.09238
G1 X63.007 Y83.87 E8.10013
G1 X63.249 Y83.566 E8.10789
G1 X63.445 Y83.227 E8.1157
G1 X63.586 Y82.867 E8.12342
G1 X63.676 Y82.478 E8.13138
G1 X63.7 Y81.982 E8.14129
G1 X63.65 Y81.584 E8.1493
G1 X63.545 Y81.209 E8.15707
G1 X63.384 Y80.854 E8.16485
G1 X63.174 Y80.526 E8.17262
G1 X62.914 Y80.235 E8.18041
G1 X62.634 Y80 E8.1877
G1 X157.864 Y80 E10.08812
G1 X157.5 Y80.32 E10.09779
G1 X157.251 Y80.634 E10.10579
G1 X157.055 Y80.973 E10.11361
G1 X156.914 Y81.333 E10.12132
G1 X156.824 Y81.722 E10.12929
G1 X156.797 Y82.225 E10.13934
G1 X156.874 Y82.74 E10.14973
G1 X157.049 Y83.219 E10.15991
G1 X157.251 Y83.566 E10.16792
G1 X157.493 Y83.87 E10.17568
G1 X157.778 Y84.134 E10.18343
G1 X158.099 Y84.354 E10.1912
G1 X158.447 Y84.521 E10.1989
G1 X158.82 Y84.637 E10.20669
G0 F6000 X158.91 Y84.246
G1 F1200 X159.235 Y84.295 E10.21325
G1 X159.565 Y84.295 E10.21984
G1 X159.89 Y84.246 E10.2264
G1 X160.206 Y84.148 E10.233
G1 X160.5 Y84.007 E10.23951
G1 X160.772 Y83.821 E10.24608
G1 X161.013 Y83.597 E10.25265
G1 X161.218 Y83.34 E10.25921
G1 X161.384 Y83.053 E10.26583
G1 X161.4 Y83.012 E10.2667
G1 X161.4 Y83.597 E10.27319
G1 X161.4 Y137.797 E11.35481
G1 X161.4 Y138.549 E11.36981
G1 X161.4 Y140.4 E11.40675
G1 X159.065 Y140.4 E11.45335
G1 X158.41 Y140.4 E11.46642
G1 X61.265 Y140.4 E13.40505
G1 X60.61 Y140.4 E13.41813
G1 X58.6 Y140.4 E13.45824
G1 X58.6 Y138.441 E13.49733
G1 X58.6 Y138.006 E13.50601
G1 X58.6 Y137.251 E13.52108
G1 X58.6 Y82.641 E14.61088
G1 X58.6 Y82.206 E14.61809
G1 X58.6 Y81.451 E14.63054
G1 X58.6 Y79.6 E14.66748
G1 X60.82 Y79.6 E14.71178
G1 X61.482 Y79.6 E14.72292
G1 X159.12 Y79.6 E16.6714
G1 X159.782 Y79.6 E16.68461
G1 X161.4 Y79.6 E16.7169
G1 X161.4 Y80.769 E16.74022
G1 X161.4 Y81.196 E16.74875
G1 X161.332 Y81.046
G1 X161.154 Y80.769 E16.75179
G1 X160.935 Y80.523 E16.75836
G1 X160.684 Y80.313 E16.76489
G1 X160.402 Y80.141 E16.77149
G1 X160.1 Y80.013 E16.77803
G1 X159.782 Y79.932 E16.78458
G1 X159.454 Y79.899 E16.79047
G1 X159.12 Y79.916 E16.79486
G1 X158.707 Y80.01 E16.80332
G1 X158.395 Y80.141 E16.81007
G1 X158.111 Y80.315 E16.81672
G1 X157.791 Y80.597 E16.82523
G1 X157.582 Y80.86 E16.83193
G1 X157.416 Y81.147 E16.83855
G1 X157.297 Y81.451 E16.84506
G1 X157.222 Y81.778 E16.85176
G1 X157.199 Y82.206 E16.86031
G1 X157.264 Y82.641 E16.86909
G1 X157.413 Y83.049 E16.87776
G1 X157.582 Y83.34 E16.88447
G1 X157.787 Y83.597 E16.89103
G1 X158.028 Y83.821 E16.8976
G1 X158.3 Y84.007 E16.90417
G1 X158.594 Y84.148 E16.91068
G1 X158.91 Y84.246 E16.91728
G0 F6000 X158.999 Y83.855
;TYPE:WALL-OUTER
G1 F1200 X159.265 Y83.895 E16.92265
G1 X159.535 Y83.895 E16.92804
G1 X159.801 Y83.855 E16.93341
G1 X160.059 Y83.775 E16.9388
G1 X160.3 Y83.659 E16.94414
G1 X160.522 Y83.508 E16.94949
G1 X160.719 Y83.324 E16.95487
G1 X160.887 Y83.114 E16.96024
G1 X161.023 Y82.879 E16.96566
G1 X161.12 Y82.631 E16.97097
G1 X161.18 Y82.368 E16.97636
G1 X161.198 Y82.012 E16.98347
G1 X161.164 Y81.743 E16.98888
G1 X161.091 Y81.483 E16.99427
G1 X160.98 Y81.238 E16.99964
G1 X160.834 Y81.012 E17.00501
G1 X160.656 Y80.811 E17.01036
G1 X160.45 Y80.639 E17.01572
G1 X160.219 Y80.498 E17.02112
G1 X159.972 Y80.393 E17.02648
G1 X159.712 Y80.327 E17.03183
G1 X159.444 Y80.3 E17.0372
G1 X159.175 Y80.314 E17.04258
G1 X158.83 Y80.392 E17.04964
G1 X158.578 Y80.498 E17.05509
G1 X158.35 Y80.638 E17.06043
G1 X158.082 Y80.874 E17.06756
G1 X157.913 Y81.086 E17.07297
G1 X157.777 Y81.321 E17.07839
G1 X157.68 Y81.569 E17.0837
G1 X157.62 Y81.833 E17.08911
G1 X157.601 Y82.187 E17.09618
G1 X157.654 Y82.542 E17.10334
G1 X157.777 Y82.879 E17.1105
G1 X157.913 Y83.114 E17.11592
G1 X158.081 Y83.324 E17.12129
G1 X158.278 Y83.508 E17.12667
G1 X158.5 Y83.659 E17.13203
G1 X158.741 Y83.775 E17.13736
G1 X158.999 Y83.855 E17.14275
G0 F6000 X158.901 Y84.283
G1 F1500 E10.64275
G0 F6000 X160.811 Y84.511
G0 X160.806 Y135.861
G0 X157.888 Y135.321
G0 X157.046 Y137.329
G0 X156.962 Y137.993
G0 X157.019 Y138.376
G0 X157.176 Y138.725
G0 X157.8 Y139.807
;TYPE:WALL-INNER
G1 F1500 E17.14275
G1 F1200 X158.094 Y139.948 E17.14926
G1 X158.41 Y140.046 E17.15586
G1 X158.735 Y140.095 E17.16185
G1 X159.065 Y140.095 E17.16612
G1 X159.39 Y140.046 E17.17268
G1 X159.706 Y139.948 E17.17928
G1 X160 Y139.807 E17.18579
G1 X160.272 Y139.621 E17.19236
G1 X160.513 Y139.397 E17.19893
G1 X160.718 Y139.14 E17.20549
G1 X160.884 Y138.853 E17.21211
G1 X161.003 Y138.549 E17.21862
G1 X161.078 Y138.223 E17.22497
G1 X161.099 Y137.797 E17.2309
G1 X161.057 Y137.463 E17.23762
G1 X160.968 Y137.146 E17.24419
G1 X160.832 Y136.846 E17.25076
G1 X160.654 Y136.569 E17.25733
G1 X160.435 Y136.323 E17.2639
G1 X160.184 Y136.113 E17.27043
G1 X159.902 Y135.941 E17.27703
G1 X159.6 Y135.813 E17.28357
G1 X159.282 Y135.732 E17.29012
G1 X158.954 Y135.699 E17.2967
G1 X158.62 Y135.716 E17.30337
G1 X158.207 Y135.81 E17.31183
G1 X157.895 Y135.941 E17.31858
G1 X157.611 Y136.115 E17.32523
G1 X157.291 Y136.397 E17.33374
G1 X157.082 Y136.66 E17.34044
G1 X156.916 Y136.947 E17.34706
G1 X156.797 Y137.251 E17.35357
G1 X156.722 Y137.578 E17.36027
G1 X156.699 Y138.006 E17.36882
G1 X156.764 Y138.441 E17.3776
G1 X156.913 Y138.849 E17.38627
G1 X157.082 Y139.14 E17.39298
G1 X157.287 Y139.397 E17.39954
G1 X157.528 Y139.621 E17.40611
G1 X157.8 Y139.807 E17.41268
G0 F6000 X158 Y139.459
;TYPE:WALL-OUTER
G1 F1200 X158.241 Y139.575 E17.41802
G1 X158.499 Y139.655 E17.42341
G1 X158.765 Y139.695 E17.42878
G1 X159.035 Y139.695 E17.43417
G1 X159.301 Y139.655 E17.43954
G1 X159.559 Y139.575 E17.44493
G1 X159.8 Y139.459 E17.45026
G1 X160.022 Y139.308 E17.45562
G1 X160.219 Y139.124 E17.461
G1 X160.387 Y138.914 E17.46637
G1 X160.523 Y138.679 E17.47179
G1 X160.62 Y138.431 E17.4771
G1 X160.68 Y138.168 E17.48248
G1 X160.698 Y137.812 E17.4896
G1 X160.664 Y137.543 E17.49501
G1 X160.591 Y137.283 E17.5004
G1 X160.48 Y137.038 E17.50577
G1 X160.334 Y136.812 E17.51114
G1 X160.156 Y136.611 E17.51649
G1 X159.95 Y136.439 E17.52185
G1 X159.719 Y136.298 E17.52725
G1 X159.472 Y136.193 E17.53261
G1 X159.212 Y136.127 E17.53796
G1 X158.944 Y136.1 E17.54333
G1 X158.675 Y136.114 E17.54871
G1 X158.33 Y136.192 E17.55577
G1 X158.078 Y136.298 E17.56122
G1 X157.85 Y136.438 E17.56656
G1 X157.582 Y136.674 E17.57369
G1 X157.413 Y136.886 E17.5791
G1 X157.277 Y137.121 E17.58452
G1 X157.18 Y137.369 E17.58983
G1 X157.12 Y137.633 E17.59524
G1 X157.101 Y137.987 E17.60231
G1 X157.154 Y138.342 E17.60947
G1 X157.277 Y138.679 E17.61663
G1 X157.413 Y138.914 E17.62205
G1 X157.581 Y139.124 E17.62742
G1 X157.778 Y139.308 E17.6328
G1 X158 Y139.459 E17.63815
G0 F6000 X157.781 Y139.84
G1 F1500 E11.13815
G0 F6000 X132.423 Y139.79
G0 X132.423 Y141.665
G0 X132.856 Y121.614
G0 X131.268 Y122.531
G0 X132.423 Y124.191
;TYPE:WALL-INNER
G1 F1500 E17.63815
G1 F1200 X137.977 Y124.191 E17.74899
G1 X140.755 Y119.38 E17.85986
G1 X137.977 Y114.569 E17.97072
G1 X132.423 Y114.569 E18.08156
G1 X129.645 Y119.38 E18.19242
G1 X132.423 Y124.191 E18.30329
G0 F6000 X132.654 Y123.791
G1 F1200 X137.746 Y123.791 E18.4049
G1 X140.293 Y119.38 E18.50655
G1 X137.746 Y114.969 E18.6082
G1 X132.654 Y114.969 E18.70981
G1 X130.107 Y119.38 E18.81146
G1 X132.654 Y123.791 E18.91311
G0 F6000 X132.885 Y123.391
;TYPE:WALL-OUTER
G1 F1200 X137.515 Y123.391 E19.0055
G1 X139.831 Y119.38 E19.09793
G1 X137.515 Y115.369 E19.19036
G1 X132.885 Y115.369 E19.28276
G1 X130.569 Y119.38 E19.37519
G1 X132.885 Y123.391 E19.46762
G1 F1500 E12.96762
G0 F6000 X132.885 Y123.591
G0 X131.268 Y122.531
G0 X132.856 Y121.614
G0 X87.906 Y120.294
G0 X89.495 Y121.21
G0 X87.577 Y124.191
;TYPE:WALL-INNER
G1 F1500 E19.46762
G1 F1200 X90.355 Y119.38 E19.57848
G1 X87.577 Y114.569 E19.68935
G1 X82.023 Y114.569 E19.80018
G1 X79.245 Y119.38 E19.91105
G1 X82.023 Y124.191 E20.02191
G1 X87.577 Y124.191 E20.13275
G0 F6000 X87.346 Y123.791
G1 F1200 X89.893 Y119.38 E20.2344
G1 X87.346 Y114.969 E20.33604
