;FLAVOR:Marlin
;TIME:7517
;Filament used: 3.37525m
;Layer height: 0.12
;MINX:94.7
;MINY:85.248
;MINZ:0.12
;MAXX:125.3
;MAXY:134.748
;MAXZ:15.84
;TARGET_MACHINE.NAME:Creality Ender-3 Pro
;Generated with Cura_SteamEngine 5.10.0
; Ender 3 Custom Start G-code
G92 E0 ; Reset Extruder
G28 ; Home all axes
G1 Z5.0 F3000 ; Move Z Axis up a bit during heating to not damage bed
M104 S175 ; Start heating up the nozzle most of the way
M190 S75 ; Start heating the bed, wait until target temperature reached
M109 S205 ; Finish heating the nozzle
G1 Z2.0 F3000 ; Move Z Axis up little to prevent scratching of Heat Bed
G1 X0.1 Y20 Z0.3 F5000.0 ; Move to start position
G1 X0.1 Y200.0 Z0.3 F1500.0 E15 ; Draw the first line
G1 X0.4 Y200.0 Z0.3 F5000.0 ; Move to side a little
G1 X0.4 Y20 Z0.3 F1500.0 E30 ; Draw the second line
G92 E0 ; Reset Extruder
G1 Z2.0 F3000 ; Move Z Axis up little to prevent scratching of Heat Bed
G1 X5 Y20 Z0.3 F5000.0 ; Move over to prevent blob squish
M82 ;absolute extrusion mode
G92 E0
G92 E0
G1 F1500 E-6.5
;LAYER_COUNT:132
;LAYER:0
M107
;MESH:Motor Mount-TestPrint.stl
G0 F6000 X101.041 Y98.74 Z0.12
;TYPE:WALL-INNER
G1 F1500 E0
G1 F1200 X100.548 Y98.734 E0.00984
G1 X100.061 Y98.623 E0.01981
G1 X99.716 Y98.445 E0.02755
G1 X99.507 Y98.3 E0.03263
G1 X99.225 Y98.048 E0.04018
G1 X99.006 Y97.736 E0.04778
G1 X98.886 Y97.508 E0.05293
G1 X98.754 Y97.153 E0.06048
G1 X98.7 Y96.648 E0.07062
G1 X98.75 Y96.155 E0.08051
G1 X98.886 Y95.788 E0.08832
G1 X99.006 Y95.56 E0.09346
G1 X99.225 Y95.248 E0.10107
G1 X99.507 Y94.996 E0.10862
G1 X99.716 Y94.851 E0.11369
G1 X100.056 Y94.675 E0.12133
G1 X100.552 Y94.556 E0.13151
G1 X101.051 Y94.556 E0.14147
G1 X101.54 Y94.683 E0.15155
G1 X101.878 Y94.848 E0.15906
G1 X102.101 Y95.003 E0.16448
G1 X102.374 Y95.262 E0.17199
G1 X102.645 Y95.636 E0.1812
G1 X102.84 Y96.135 E0.19189
G1 X102.903 Y96.65 E0.20225
G1 X102.839 Y97.163 E0.21257
G1 X102.66 Y97.631 E0.22257
G1 X102.377 Y98.04 E0.23249
G1 X102.017 Y98.37 E0.24224
G1 X101.537 Y98.622 E0.25306
G1 X101.041 Y98.74 E0.26323
G0 F6000 X100.997 Y98.34
G1 F1200 X100.594 Y98.336 E0.27127
G1 X100.202 Y98.245 E0.2793
G1 X99.832 Y98.054 E0.28761
G1 X99.526 Y97.78 E0.29581
G1 X99.288 Y97.442 E0.30406
G1 X99.146 Y97.058 E0.31223
G1 X99.1 Y96.648 E0.32046
G1 X99.143 Y96.245 E0.32855
G1 X99.288 Y95.853 E0.33689
G1 X99.526 Y95.516 E0.34512
G1 X99.832 Y95.242 E0.35332
G1 X100.199 Y95.052 E0.36157
G1 X100.564 Y94.964 E0.36906
G1 X100.999 Y94.955 E0.37774
G1 X101.399 Y95.058 E0.38599
G1 X101.768 Y95.248 E0.39427
G1 X102.072 Y95.525 E0.40248
G1 X102.305 Y95.859 E0.4106
G1 X102.451 Y96.257 E0.41906
G1 X102.501 Y96.65 E0.42697
G1 X102.449 Y97.067 E0.43536
G1 X102.288 Y97.468 E0.44398
G1 X102.072 Y97.772 E0.45142
G1 X101.77 Y98.054 E0.45967
G1 X101.393 Y98.245 E0.4681
G1 X100.997 Y98.34 E0.47623
G1 F1500 E-6.02377
G0 F6000 X100.997 Y98.652
G0 X101.626 Y98.778
G0 X107.263 Y103.211
G0 X107.244 Y104.65
G0 X107.325 Y105.31
G0 X107.561 Y105.931
G0 X107.938 Y106.477
G0 X108.435 Y106.917
G0 X108.911 Y107.168
G0 X110 Y107.536
G1 F1500 E0.47623
G1 F1200 X109.663 Y107.536 E0.48295
G1 X108.953 Y107.359 E0.49756
G1 X108.375 Y107.061 E0.51053
G1 X107.836 Y106.591 E0.5248
G1 X107.435 Y106.014 E0.53883
G1 X107.179 Y105.357 E0.5529
G1 X107.095 Y104.672 E0.56667
G1 X107.18 Y103.935 E0.58148
G1 X107.442 Y103.273 E0.59568
G1 X107.819 Y102.723 E0.60899
G1 X108.339 Y102.261 E0.62287
G1 X108.974 Y101.929 E0.63717
G1 X109.653 Y101.764 E0.65112
G1 X110.343 Y101.764 E0.66489
G1 X111.026 Y101.93 E0.67891
G1 X111.656 Y102.261 E0.69311
G1 X112.181 Y102.726 E0.70711
G1 X112.566 Y103.303 E0.72095
G1 X112.816 Y103.934 E0.7345
G1 X112.903 Y104.655 E0.74899
G1 X112.816 Y105.359 E0.76315
G1 X112.56 Y106.014 E0.77718
G1 X112.161 Y106.591 E0.79118
G1 X111.62 Y107.062 E0.80549
G1 X111.013 Y107.371 E0.81909
G1 X110.327 Y107.536 E0.83317
G1 X110 Y107.536 E0.83969
G0 F6000 X109.683 Y107.131
G1 F1200 X109.128 Y106.992 E0.85111
G1 X108.581 Y106.718 E0.86332
G1 X108.129 Y106.315 E0.8754
G1 X107.778 Y105.796 E0.88791
G1 X107.569 Y105.254 E0.8995
G1 X107.5 Y104.637 E0.91189
G1 X107.57 Y104.038 E0.92392
G1 X107.783 Y103.49 E0.93566
G1 X108.119 Y102.998 E0.94755
G1 X108.566 Y102.599 E0.9595
G1 X109.118 Y102.303 E0.972
G1 X109.712 Y102.166 E0.98417
G1 X110.306 Y102.168 E0.99602
G1 X110.874 Y102.306 E1.00769
G1 X111.424 Y102.589 E1.02003
G1 X111.876 Y102.99 E1.03209
G1 X112.212 Y103.489 E1.04409
G1 X112.419 Y104.03 E1.05565
G1 X112.501 Y104.65 E1.06813
G1 X112.427 Y105.256 E1.08032
G1 X112.218 Y105.796 E1.09187
G1 X111.875 Y106.308 E1.10417
G1 X111.42 Y106.709 E1.11627
G1 X110.882 Y106.99 E1.12839
G1 X110.313 Y107.13 E1.14008
G1 X109.683 Y107.131 E1.15265
G1 F1500 E-5.34735
G0 F6000 X109.609 Y107.433
G0 X110 Y107.716
G0 X110.029 Y111.871
G0 X111.819 Y113.165
G0 X112.396 Y113.676
G0 X112.836 Y114.312
G0 X113.109 Y115.034
G0 X113.203 Y115.8
G0 X113.109 Y116.566
G0 X112.836 Y117.288
G0 X112.396 Y117.924
G0 X111.929 Y118.338
G0 X110 Y119.525
G1 F1500 E1.15265
G1 F1200 X109.539 Y119.525 E1.16185
G1 X108.667 Y119.307 E1.17979
G1 X107.855 Y118.884 E1.19806
G1 X107.197 Y118.29 E1.21575
G1 X106.675 Y117.551 E1.23381
G1 X106.35 Y116.7 E1.25199
G1 X106.24 Y115.799 E1.2701
G1 X106.346 Y114.927 E1.28763
G1 X106.661 Y114.082 E1.30563
G1 X107.179 Y113.318 E1.32405
G1 X107.861 Y112.707 E1.34232
G1 X108.656 Y112.291 E1.36023
G1 X109.525 Y112.073 E1.3781
G1 X110.482 Y112.074 E1.3972
G1 X111.306 Y112.28 E1.41415
G1 X112.129 Y112.698 E1.43257
G1 X112.81 Y113.308 E1.45082
G1 X113.317 Y114.056 E1.46885
G1 X113.645 Y114.891 E1.48675
G1 X113.756 Y115.8 E1.50503
G1 X113.645 Y116.706 E1.52324
G1 X113.317 Y117.544 E1.5412
G1 X112.807 Y118.292 E1.55927
G1 X112.113 Y118.906 E1.57776
G1 X111.298 Y119.319 E1.59599
G1 X110.454 Y119.525 E1.61333
G1 X110 Y119.525 E1.62239
G0 F6000 X110 Y119.127
G1 F1200 X109.619 Y119.127 E1.63
G1 X108.82 Y118.937 E1.64638
G1 X108.108 Y118.569 E1.66238
G1 X107.496 Y118.024 E1.67873
G1 X107.033 Y117.357 E1.69494
G1 X106.745 Y116.601 E1.71108
G1 X106.643 Y115.8 E1.72719
G1 X106.745 Y114.994 E1.74341
G1 X107.033 Y114.243 E1.75946
G1 X107.48 Y113.59 E1.77525
G1 X108.095 Y113.034 E1.7918
G1 X108.804 Y112.665 E1.80775
G1 X109.602 Y112.471 E1.82414
G1 X110.398 Y112.471 E1.84002
G1 X111.172 Y112.658 E1.85591
G1 X111.906 Y113.036 E1.87239
G1 X112.509 Y113.575 E1.88853
G1 X112.963 Y114.243 E1.90464
G1 X113.251 Y114.994 E1.9207
G1 X113.348 Y115.801 E1.93692
G1 X113.255 Y116.603 E1.95303
G1 X112.963 Y117.357 E1.96916
G1 X112.501 Y118.023 E1.98534
G1 X111.897 Y118.566 E2.00155
G1 X111.185 Y118.93 E2.01751
G1 X110.402 Y119.128 E2.03362
G1 X110 Y119.127 E2.04165
G1 F1500 E-4.45835
G0 F6000 X110 Y119.44
G0 X110.046 Y119.707
G0 X110.044 Y133.767
G0 X110 Y133.948
G1 F1500 E2.04165
G1 F1200 X124.5 Y133.948 E2.33101
G1 X124.5 Y86.048 E3.28691
G1 X95.5 Y86.048 E3.86563
G1 X95.501 Y133.947 E4.82151
G1 X110 Y133.948 E5.11085
G0 F6000 X110 Y134.347
G1 F1200 X124.9 Y134.348 E5.4082
G1 X124.9 Y85.648 E6.38006
G1 X95.1 Y85.648 E6.97475
G1 X95.101 Y134.347 E7.94659
G1 X110 Y134.347 E8.24392
G1 F1500 E1.74392
G0 F6000 X110 Y134.04
G0 X118.952 Y133.767
G0 X118.941 Y98.921
G0 X118.955 Y98.74
G1 F1500 E8.24392
G1 F1200 X118.457 Y98.621 E8.25413
G1 X117.983 Y98.369 E8.26485
G1 X117.618 Y98.039 E8.27467
G1 X117.336 Y97.631 E8.28456
G1 X117.157 Y97.164 E8.29454
G1 X117.093 Y96.65 E8.30488
G1 X117.156 Y96.136 E8.31522
G1 X117.351 Y95.635 E8.32594
G1 X117.626 Y95.258 E8.33526
G1 X117.906 Y94.996 E8.34291
G1 X118.116 Y94.851 E8.348
G1 X118.453 Y94.684 E8.35551
G1 X118.945 Y94.556 E8.36565
G1 X119.444 Y94.556 E8.37561
G1 X119.936 Y94.674 E8.38571
G1 X120.278 Y94.848 E8.39336
G1 X120.501 Y95.003 E8.39878
G1 X120.775 Y95.255 E8.40621
G1 X120.99 Y95.56 E8.41366
G1 X121.11 Y95.788 E8.4188
G1 X121.242 Y96.144 E8.42638
G1 X121.305 Y96.647 E8.4365
G1 X121.241 Y97.154 E8.44669
G1 X121.11 Y97.508 E8.45423
G1 X120.99 Y97.736 E8.45937
G1 X120.775 Y98.041 E8.46681
G1 X120.501 Y98.293 E8.47424
G1 X120.278 Y98.448 E8.47966
G1 X119.932 Y98.624 E8.48741
G1 X119.448 Y98.734 E8.49732
G1 X118.955 Y98.74 E8.50715
G0 F6000 X118.985 Y98.34
G1 F1200 X118.611 Y98.243 E8.51486
G1 X118.243 Y98.056 E8.5231
G1 X117.924 Y97.778 E8.53155
G1 X117.682 Y97.429 E8.54002
G1 X117.542 Y97.025 E8.54855
G1 X117.495 Y96.652 E8.55606
G1 X117.546 Y96.236 E8.56442
G1 X117.691 Y95.859 E8.57248
G1 X117.926 Y95.523 E8.58066
G1 X118.227 Y95.244 E8.58885
G1 X118.595 Y95.058 E8.59708
G1 X118.96 Y94.964 E8.6046
G1 X119.393 Y94.955 E8.61325
G1 X119.794 Y95.051 E8.62148
G1 X120.17 Y95.243 E8.6299
G1 X120.475 Y95.523 E8.63816
G1 X120.708 Y95.854 E8.64624
G1 X120.853 Y96.245 E8.65456
G1 X120.896 Y96.648 E8.66265
G1 X120.852 Y97.054 E8.6708
G1 X120.708 Y97.443 E8.67908
G1 X120.475 Y97.773 E8.68714
G1 X120.17 Y98.053 E8.6954
G1 X119.792 Y98.246 E8.70387
G1 X119.402 Y98.336 E8.71186
G1 X118.985 Y98.34 E8.72018
G0 F6000 X119.053 Y97.94
;TYPE:WALL-OUTER
G1 F1200 X118.759 Y97.871 E8.72621
G1 X118.465 Y97.723 E8.73278
G1 X118.236 Y97.52 E8.73888
G1 X118.052 Y97.263 E8.74519
G1 X117.938 Y96.964 E8.75158
G1 X117.9 Y96.634 E8.75821
G1 X117.937 Y96.336 E8.7642
G1 X118.046 Y96.043 E8.77044
G1 X118.226 Y95.787 E8.77668
G1 X118.461 Y95.575 E8.783
G1 X118.737 Y95.432 E8.7892
G1 X119.029 Y95.358 E8.79521
G1 X119.366 Y95.358 E8.80194
G1 X119.679 Y95.441 E8.8084
G1 X119.94 Y95.574 E8.81425
G1 X120.156 Y95.772 E8.82009
G1 X120.351 Y96.041 E8.82672
G1 X120.463 Y96.359 E8.83345
G1 X120.496 Y96.648 E8.83926
G1 X120.462 Y96.947 E8.84526
G1 X120.336 Y97.276 E8.85229
G1 X120.156 Y97.524 E8.85841
G1 X119.939 Y97.723 E8.86428
G1 X119.637 Y97.871 E8.871
G1 X119.356 Y97.939 E8.87677
G1 X119.053 Y97.94 E8.88281
G1 F1500 E2.38281
G0 F6000 X119.053 Y98.252
G0 X117.874 Y98.514
G0 X112.293 Y102.584
G0 X109.739 Y106.735
G1 F1500 E8.88281
G1 F1200 X109.258 Y106.614 E8.89271
G1 X108.795 Y106.373 E8.90313
G1 X108.421 Y106.036 E8.91317
G1 X108.136 Y105.618 E8.92327
G1 X107.961 Y105.157 E8.93311
G1 X107.9 Y104.634 E8.94362
G1 X107.959 Y104.152 E8.95331
G1 X108.138 Y103.675 E8.96348
G1 X108.413 Y103.27 E8.97324
G1 X108.816 Y102.912 E8.984
G1 X109.244 Y102.688 E8.99364
G1 X109.749 Y102.564 E9.00402
G1 X110.254 Y102.565 E9.0141
G1 X110.74 Y102.683 E9.02408
G1 X111.18 Y102.912 E9.03398
G1 X111.56 Y103.244 E9.04405
G1 X111.858 Y103.675 E9.0545
G1 X112.039 Y104.163 E9.06489
G1 X112.096 Y104.634 E9.07436
G1 X112.035 Y105.157 E9.08487
G1 X111.86 Y105.618 E9.09471
G1 X111.575 Y106.035 E9.10479
G1 X111.191 Y106.381 E9.1151
G1 X110.752 Y106.608 E9.12496
G1 X110.257 Y106.734 E9.13516
G1 X109.739 Y106.735 E9.14549
G1 F1500 E2.64549
G0 F6000 X109.666 Y107.034
G0 X110 Y107.716
G0 X110.029 Y111.871
G0 X110 Y118.728
G1 F1500 E9.14549
G1 F1200 X109.651 Y118.728 E9.15246
G1 X108.945 Y118.553 E9.16697
G1 X108.32 Y118.225 E9.18106
G1 X107.794 Y117.758 E9.1951
G1 X107.387 Y117.17 E9.20937
G1 X107.133 Y116.505 E9.22357
G1 X107.049 Y115.825 E9.23725
G1 X107.133 Y115.091 E9.25199
G1 X107.387 Y114.43 E9.26612
G1 X107.789 Y113.844 E9.2803
G1 X108.336 Y113.36 E9.29488
G1 X108.948 Y113.042 E9.30864
G1 X109.646 Y112.869 E9.32299
G1 X110.354 Y112.869 E9.33712
G1 X111.048 Y113.042 E9.35139
G1 X111.673 Y113.366 E9.36544
G1 X112.198 Y113.834 E9.37948
G1 X112.609 Y114.43 E9.39393
G1 X112.863 Y115.091 E9.40806
G1 X112.947 Y115.825 E9.4228
G1 X112.863 Y116.505 E9.43647
G1 X112.609 Y117.17 E9.45068
G1 X112.202 Y117.757 E9.46494
G1 X111.666 Y118.234 E9.47925
G1 X111.043 Y118.556 E9.49325
G1 X110.349 Y118.728 E9.50752
G1 X110 Y118.728 E9.51448
G1 F1500 E3.01448
G0 F6000 X110 Y119.04
G0 X110.048 Y119.707
G0 X110.046 Y133.767
G0 X110 Y134.748
G1 F1500 E9.51448
G1 F1200 X125.3 Y134.748 E9.81981
G1 X125.3 Y85.248 E10.80764
G1 X94.7 Y85.248 E11.41829
G1 X94.701 Y134.747 E12.4061
G1 X110 Y134.748 E12.71141
G1 F1500 E6.21141
G0 F6000 X110 Y134.44
G0 X101.034 Y133.767
G0 X101.087 Y98.921
G0 X100.964 Y97.938
G1 F1500 E12.71141
G1 F1200 X100.64 Y97.939 E12.71787
G1 X100.359 Y97.871 E12.72364
G1 X100.061 Y97.722 E12.73029
G1 X99.812 Y97.492 E12.73706
G1 X99.636 Y97.23 E12.74335
G1 X99.533 Y96.937 E12.74955
G1 X99.501 Y96.673 E12.75486
G1 X99.544 Y96.314 E12.76207
G1 X99.66 Y96.02 E12.76838
G1 X99.812 Y95.804 E12.77365
G1 X100.061 Y95.574 E12.78042
G1 X100.359 Y95.425 E12.78707
G1 X100.63 Y95.358 E12.79264
G1 X100.967 Y95.358 E12.79936
G1 X101.259 Y95.432 E12.80537
G1 X101.541 Y95.574 E12.81167
G1 X101.784 Y95.804 E12.81835
G1 X101.95 Y96.043 E12.82416
G1 X102.06 Y96.341 E12.8305
G1 X102.096 Y96.634 E12.83639
G1 X102.058 Y96.964 E12.84302
G1 X101.953 Y97.246 E12.84902
G1 X101.783 Y97.494 E12.85502
G1 X101.535 Y97.723 E12.86176
G1 X101.237 Y97.871 E12.8684
G1 X100.964 Y97.938 E12.87401
G1 F1500 E6.37401
G0 F6000 X101.037 Y98.241
G0 X102.836 Y97.695
G0 X117.479 Y98.156
G0 X118.95 Y98.839
G0 X118.922 Y99.096
;TYPE:SKIN
G1 F1500 E12.87401
G1 F1200 X119.561 Y99.087 E12.88676
G1 X119.913 Y98.999 E12.894
G1 X120.188 Y98.895 E12.89987
G1 X120.44 Y98.766 E12.90552
G1 X120.744 Y98.556 E12.91289
G1 X121.032 Y98.292 E12.92069
G1 X121.298 Y97.917 E12.92986
G1 X121.438 Y97.649 E12.9359
G1 X121.594 Y97.231 E12.9448
G1 X121.663 Y96.673 E12.95602
G1 X121.611 Y96.214 E12.96524
G1 X121.543 Y95.925 E12.97117
G1 X121.448 Y95.666 E12.97667
G1 X121.298 Y95.375 E12.9832
G1 X121.132 Y95.136 E12.98901
G1 X120.952 Y94.925 E12.99455
G1 X120.746 Y94.738 E13.0001
G1 X120.463 Y94.539 E13.007
G1 X120.189 Y94.401 E13.01312
G1 X119.941 Y94.305 E13.01843
G1 X119.493 Y94.199 E13.02762
G1 X118.897 Y94.199 E13.03951
G1 X118.385 Y94.321 E13.05002
G1 X117.788 Y94.609 E13.06324
G1 X117.342 Y95.033 E13.07552
G1 X117.004 Y95.494 E13.08693
G1 X116.797 Y96.095 E13.09962
G1 X116.732 Y96.626 E13.11029
G1 X116.797 Y97.204 E13.1219
G1 X116.993 Y97.759 E13.13365
G1 X117.351 Y98.283 E13.14631
G1 X117.772 Y98.663 E13.15763
G1 X118.323 Y98.956 E13.17008
G1 X118.922 Y99.096 E13.18236
G1 F1500 E6.68236
G0 F6000 X118.95 Y98.839
G0 X118.397 Y98.794
G0 X118.394 Y133.767
G0 X109.999 Y133.847
G0 X110 Y133.586
G1 F1500 E13.18236
G1 F1200 X95.86 Y133.584 E13.46454
G1 X95.86 Y86.408 E14.40598
G1 X124.14 Y86.408 E14.97034
G1 X124.14 Y133.587 E15.91185
G1 X110 Y133.586 E16.19403
G1 F1500 E9.69403
G0 F6000 X109.999 Y133.847
G0 X110.045 Y119.707
G0 X110 Y119.885
G1 F1500 E16.19403
G1 F1200 X110.484 Y119.887 E16.20369
G1 X111.459 Y119.648 E16.22372
G1 X112.313 Y119.207 E16.2429
G1 X113.074 Y118.53 E16.26323
G1 X113.633 Y117.731 E16.28269
G1 X113.994 Y116.783 E16.30293
G1 X114.112 Y115.797 E16.32275
G1 X113.995 Y114.804 E16.3427
G1 X113.645 Y113.881 E16.3624
G1 X113.061 Y113.053 E16.38262
G1 X112.434 Y112.491 E16.39943
G1 X112.206 Y112.331 E16.40498
G1 X111.428 Y111.935 E16.42241
G1 X110.516 Y111.709 E16.44116
G1 X109.461 Y111.714 E16.46221
G1 X108.547 Y111.948 E16.48104
G1 X107.66 Y112.404 E16.50094
G1 X106.922 Y113.065 E16.52071
G1 X106.351 Y113.885 E16.54065
G1 X105.997 Y114.803 E16.56029
G1 X105.881 Y115.82 E16.58071
G1 X105.997 Y116.784 E16.60009
G1 X106.351 Y117.714 E16.61995
G1 X106.923 Y118.542 E16.64003
G1 X107.657 Y119.186 E16.65952
G1 X108.539 Y119.647 E16.67938
G1 X109.495 Y119.883 E16.69903
G1 X110 Y119.885 E16.70911
G1 F1500 E10.20911
G0 F6000 X110.001 Y119.627
G0 X108.722 Y119.171
G0 X107.953 Y118.767
G0 X107.302 Y118.191
G0 X106.807 Y117.475
G0 X106.5 Y116.662
G0 X106.394 Y115.8
G0 X106.5 Y114.938
G0 X106.807 Y114.125
G0 X107.302 Y113.409
G0 X107.953 Y112.833
G0 X108.722 Y112.429
G0 X109.7 Y112.221
G0 X109.685 Y111.873
G0 X109.685 Y107.716
G0 X109.631 Y107.896
G1 F1500 E16.70911
G1 F1200 X110.388 Y107.891 E16.72421
G1 X111.137 Y107.707 E16.73961
G1 X111.856 Y107.342 E16.7557
G1 X112.456 Y106.801 E16.77182
G1 X112.879 Y106.179 E16.78683
G1 X113.155 Y105.473 E16.80196
G1 X113.264 Y104.646 E16.8186
G1 X113.174 Y103.879 E16.83402
G1 X112.877 Y103.109 E16.85049
G1 X112.417 Y102.453 E16.86647
G1 X111.828 Y101.944 E16.88201
G1 X111.154 Y101.589 E16.89721
G1 X110.36 Y101.404 E16.91348
G1 X109.599 Y101.406 E16.92867
G1 X108.845 Y101.586 E16.94414
G1 X108.15 Y101.954 E16.95983
G1 X107.577 Y102.451 E16.97497
G1 X107.104 Y103.124 E16.99138
G1 X106.828 Y103.855 E17.00698
G1 X106.732 Y104.646 E17.02288
G1 X106.825 Y105.425 E17.03853
