;FLAVOR:Marlin
;TIME:11435
;Filament used: 5.81926m
;Layer height: 0.12
;MINX:57.335
;MINY:78.335
;MINZ:0.12
;MAXX:161.8
;MAXY:141.665
;MAXZ:3.96
;Generated with Cura_SteamEngine master
M140 S75
M105
M190 S75
M104 S205
M105
M109 S205
M82 ;absolute extrusion mode
; Ender 3 Custom Start G-code
G92 E0 ; Reset Extruder
G28 ; Home all axes
G1 Z2.0 F3000 ; Move Z Axis up little to prevent scratching of Heat Bed
G1 X0.1 Y20 Z0.3 F5000.0 ; Move to start position
G1 X0.1 Y200.0 Z0.3 F1500.0 E15 ; Draw the first line
G1 X0.4 Y200.0 Z0.3 F5000.0 ; Move to side a little
G1 X0.4 Y20 Z0.3 F1500.0 E30 ; Draw the second line
G92 E0 ; Reset Extruder
G1 Z2.0 F3000 ; Move Z Axis up little to prevent scratching of Heat Bed
G1 X5 Y20 Z0.3 F5000.0 ; Move over to prevent blob squish
G92 E0
G92 E0
G1 F1500 E-6.5
;LAYER_COUNT:33
;LAYER:0
M107
;MESH:RaspberryPi Platform_v1.stl
G0 F6000 X62.295 Y139.749 Z0.12
;TYPE:WALL-INNER
G1 F1500 E0
G1 F1200 X62.561 Y139.547 E0.00667
G1 X62.788 Y139.313 E0.01317
G1 X62.981 Y139.042 E0.01981
G1 X63.167 Y138.659 E0.02831
G1 X63.257 Y138.335 E0.03502
G1 X63.299 Y138.008 E0.0416
G1 X63.29 Y137.679 E0.04817
G1 X63.233 Y137.352 E0.05479
G1 X63.087 Y136.951 E0.06331
G1 X62.918 Y136.66 E0.07002
G1 X62.713 Y136.403 E0.07658
G1 X62.472 Y136.178 E0.08316
G1 X62.199 Y135.993 E0.08974
G1 X61.905 Y135.852 E0.09625
G1 X61.594 Y135.754 E0.10276
G1 X61.273 Y135.705 E0.10924
G1 X61.142 Y135.7 E0.11185
G1 X60.825 Y135.716 E0.11819
G1 X60.504 Y135.781 E0.12472
G1 X60.194 Y135.893 E0.1313
G1 X59.905 Y136.051 E0.13787
G1 X59.641 Y136.252 E0.1445
G1 X59.412 Y136.488 E0.15106
G1 X59.222 Y136.753 E0.15756
G1 X59.071 Y137.046 E0.16414
G1 X58.966 Y137.358 E0.17071
G1 X58.91 Y137.681 E0.17725
G1 X58.901 Y138.01 E0.18382
G1 X58.943 Y138.336 E0.19038
G1 X59.032 Y138.653 E0.19695
G1 X59.168 Y138.953 E0.20353
G1 X59.345 Y139.229 E0.21007
G1 X59.563 Y139.475 E0.21663
G1 X59.816 Y139.688 E0.22323
G1 X60.097 Y139.859 E0.22979
G1 X60.398 Y139.987 E0.23632
G1 X60.718 Y140.068 E0.24291
G1 X61.045 Y140.101 E0.24947
G1 X61.374 Y140.084 E0.25604
G1 X61.695 Y140.019 E0.26258
G1 X62.005 Y139.907 E0.26915
G1 X62.295 Y139.749 E0.27574
G0 F6000 X62.077 Y139.412
;TYPE:WALL-OUTER
G1 F1200 X62.295 Y139.247 E0.2812
G1 X62.48 Y139.056 E0.28651
G1 X62.636 Y138.837 E0.29187
G1 X62.791 Y138.517 E0.29897
G1 X62.864 Y138.256 E0.30438
G1 X62.898 Y137.988 E0.30977
G1 X62.891 Y137.719 E0.31514
G1 X62.845 Y137.456 E0.32047
G1 X62.723 Y137.121 E0.32758
G1 X62.587 Y136.886 E0.333
G1 X62.419 Y136.676 E0.33837
G1 X62.222 Y136.492 E0.34375
G1 X61.999 Y136.341 E0.34912
G1 X61.758 Y136.225 E0.35446
G1 X61.503 Y136.145 E0.35979
G1 X61.234 Y136.104 E0.36522
G1 X61.144 Y136.1 E0.36702
G1 X60.875 Y136.114 E0.37239
G1 X60.612 Y136.167 E0.37775
G1 X60.359 Y136.259 E0.38312
G1 X60.123 Y136.388 E0.38849
G1 X59.907 Y136.552 E0.3939
G1 X59.72 Y136.745 E0.39926
G1 X59.564 Y136.962 E0.4046
G1 X59.441 Y137.202 E0.40998
G1 X59.355 Y137.457 E0.41535
G1 X59.309 Y137.721 E0.4207
G1 X59.302 Y137.99 E0.42607
G1 X59.336 Y138.256 E0.43142
G1 X59.409 Y138.516 E0.43681
G1 X59.52 Y138.761 E0.44217
G1 X59.665 Y138.987 E0.44753
G1 X59.843 Y139.188 E0.45289
G1 X60.05 Y139.362 E0.45829
G1 X60.28 Y139.502 E0.46366
G1 X60.526 Y139.607 E0.469
G1 X60.787 Y139.673 E0.47437
G1 X61.055 Y139.7 E0.47975
G1 X61.324 Y139.686 E0.48512
G1 X61.587 Y139.633 E0.49048
G1 X61.84 Y139.541 E0.49585
G1 X62.077 Y139.412 E0.50123
G0 F6000 X62.315 Y139.781
G1 F1500 E-5.99877
G0 F6000 X81.28 Y139.79
G0 X80.949 Y137.599
G0 X81.28 Y137.337
;TYPE:WALL-INNER
G1 F1500 E0.50123
G1 F1200 X81.651 Y137.221 E0.50899
G1 X82.002 Y137.054 E0.51675
G1 X82.326 Y136.832 E0.52459
G1 X82.607 Y136.57 E0.53225
G1 X82.85 Y136.265 E0.54003
G1 X83.047 Y135.926 E0.54786
G1 X83.189 Y135.561 E0.55567
G1 X83.274 Y135.182 E0.56343
G1 X83.302 Y134.797 E0.57113
G1 X83.272 Y134.401 E0.57905
G1 X83.152 Y133.924 E0.58887
G1 X82.983 Y133.549 E0.59708
G1 X82.771 Y133.225 E0.60481
G1 X82.515 Y132.935 E0.61252
G1 X82.213 Y132.683 E0.62037
G1 X81.885 Y132.483 E0.62804
G1 X81.525 Y132.33 E0.63585
G1 X81.146 Y132.237 E0.64363
G1 X80.762 Y132.198 E0.65134
G1 X80.371 Y132.218 E0.65915
G1 X79.992 Y132.296 E0.66687
G1 X79.625 Y132.43 E0.67467
G1 X79.282 Y132.619 E0.68248
G1 X78.974 Y132.853 E0.6902
G1 X78.705 Y133.13 E0.69791
G1 X78.473 Y133.456 E0.70589
G1 X78.256 Y133.901 E0.71577
G1 X78.15 Y134.286 E0.72374
G1 X78.1 Y134.673 E0.73153
G1 X78.111 Y135.059 E0.73924
G1 X78.179 Y135.45 E0.74716
G1 X78.349 Y135.919 E0.75711
G1 X78.551 Y136.266 E0.76512
G1 X78.793 Y136.57 E0.77288
G1 X79.078 Y136.834 E0.78063
G1 X79.399 Y137.054 E0.7884
G1 X79.747 Y137.221 E0.7961
G1 X80.12 Y137.337 E0.80389
G1 X80.505 Y137.395 E0.81166
G1 X80.895 Y137.395 E0.81945
G1 X81.28 Y137.337 E0.82722
G0 F6000 X81.19 Y136.946
G1 F1200 X81.505 Y136.848 E0.8338
G1 X81.802 Y136.706 E0.84037
G1 X82.075 Y136.519 E0.84697
G1 X82.313 Y136.297 E0.85347
G1 X82.519 Y136.039 E0.86006
G1 X82.685 Y135.752 E0.86667
G1 X82.805 Y135.444 E0.87327
G1 X82.877 Y135.123 E0.87984
G1 X82.901 Y134.797 E0.88636
G1 X82.876 Y134.465 E0.893
G1 X82.773 Y134.056 E0.90142
G1 X82.631 Y133.742 E0.9083
G1 X82.452 Y133.468 E0.91483
G1 X82.235 Y133.222 E0.92137
G1 X81.98 Y133.009 E0.92801
G1 X81.702 Y132.84 E0.9345
G1 X81.398 Y132.711 E0.94109
G1 X81.078 Y132.632 E0.94767
G1 X80.752 Y132.599 E0.9542
G1 X80.422 Y132.616 E0.9608
G1 X80.101 Y132.682 E0.96734
G1 X79.791 Y132.795 E0.97392
G1 X79.501 Y132.955 E0.98053
G1 X79.24 Y133.153 E0.98707
G1 X79.013 Y133.387 E0.99358
G1 X78.818 Y133.661 E1.00029
G1 X78.632 Y134.043 E1.00877
G1 X78.543 Y134.365 E1.01543
G1 X78.501 Y134.693 E1.02203
G1 X78.51 Y135.019 E1.02854
G1 X78.567 Y135.347 E1.03518
G1 X78.713 Y135.749 E1.04372
G1 X78.882 Y136.04 E1.05043
G1 X79.087 Y136.297 E1.057
G1 X79.328 Y136.521 E1.06356
G1 X79.6 Y136.707 E1.07014
G1 X79.894 Y136.848 E1.07664
G1 X80.21 Y136.946 E1.08325
G1 X80.535 Y136.995 E1.08981
G1 X80.865 Y136.995 E1.09639
G1 X81.19 Y136.946 E1.10295
G0 F6000 X81.101 Y136.555
;TYPE:WALL-OUTER
G1 F1200 X81.359 Y136.475 E1.10834
G1 X81.601 Y136.359 E1.1137
G1 X81.824 Y136.206 E1.11909
G1 X82.019 Y136.024 E1.12442
G1 X82.188 Y135.813 E1.12981
G1 X82.323 Y135.579 E1.1352
G1 X82.421 Y135.327 E1.1406
G1 X82.48 Y135.064 E1.14598
G1 X82.5 Y134.797 E1.15132
G1 X82.48 Y134.529 E1.15668
G1 X82.394 Y134.189 E1.16368
G1 X82.279 Y133.935 E1.16925
G1 X82.133 Y133.711 E1.17458
G1 X81.955 Y133.51 E1.17994
G1 X81.746 Y133.335 E1.18538
G1 X81.519 Y133.197 E1.19068
G1 X81.271 Y133.092 E1.19606
G1 X81.009 Y133.027 E1.20144
G1 X80.742 Y133 E1.2068
G1 X80.473 Y133.014 E1.21217
G1 X80.21 Y133.068 E1.21753
G1 X79.957 Y133.16 E1.2229
G1 X79.72 Y133.291 E1.22831
G1 X79.506 Y133.453 E1.23366
G1 X79.321 Y133.644 E1.23897
G1 X79.163 Y133.866 E1.24441
G1 X79.008 Y134.185 E1.25149
G1 X78.936 Y134.444 E1.25685
G1 X78.902 Y134.713 E1.26226
G1 X78.909 Y134.979 E1.26757
G1 X78.955 Y135.244 E1.27294
G1 X79.077 Y135.579 E1.28005
G1 X79.213 Y135.814 E1.28547
G1 X79.381 Y136.024 E1.29084
G1 X79.578 Y136.208 E1.29622
G1 X79.8 Y136.359 E1.30158
G1 X80.041 Y136.475 E1.30691
G1 X80.299 Y136.555 E1.3123
G1 X80.565 Y136.595 E1.31767
G1 X80.835 Y136.595 E1.32306
G1 X81.101 Y136.555 E1.32843
G0 F6000 X81.199 Y136.983
G1 F1500 E-5.17157
G0 F6000 X79.731 Y136.48
G0 X79.278 Y136.119
G0 X78.95 Y135.637
G0 X78.77 Y134.992
G0 X78.796 Y134.475
G0 X79.546 Y132.256
G0 X80.305 Y133.952
G0 X60.981 Y82.955
G0 X61.756 Y84.665
G0 X61.303 Y84.605
;TYPE:WALL-INNER
G1 F1500 E1.32843
G1 F1200 X61.67 Y84.473 E1.33621
G1 X62.013 Y84.286 E1.34401
G1 X62.327 Y84.047 E1.35188
G1 X62.596 Y83.77 E1.35959
G1 X62.826 Y83.447 E1.3675
G1 X63.043 Y83.001 E1.3774
G1 X63.15 Y82.614 E1.38541
G1 X63.2 Y82.228 E1.39318
G1 X63.189 Y81.839 E1.40095
G1 X63.121 Y81.448 E1.40887
G1 X62.951 Y80.981 E1.41878
G1 X62.749 Y80.634 E1.4268
G1 X62.507 Y80.331 E1.43453
G1 X62.222 Y80.064 E1.44233
G1 X62.128 Y80 E1.4446
G1 X157.374 Y80 E3.34533
G1 X157.175 Y80.152 E3.35033
G1 X156.904 Y80.431 E3.35809
G1 X156.674 Y80.752 E3.36597
G1 X156.457 Y81.198 E3.37587
G1 X156.35 Y81.586 E3.3839
G1 X156.3 Y81.971 E3.39165
G1 X156.311 Y82.359 E3.3994
G1 X156.379 Y82.75 E3.40732
G1 X156.549 Y83.219 E3.41727
G1 X156.751 Y83.566 E3.42529
G1 X156.993 Y83.87 E3.43304
G1 X157.278 Y84.134 E3.44079
G1 X157.599 Y84.354 E3.44856
G1 X157.947 Y84.521 E3.45626
G1 X158.32 Y84.637 E3.46406
G1 X158.705 Y84.695 E3.47183
G1 X159.095 Y84.695 E3.47961
G1 X159.48 Y84.637 E3.48738
G1 X159.853 Y84.521 E3.49517
G1 X160.2 Y84.355 E3.50285
G1 X160.522 Y84.136 E3.51062
G1 X160.806 Y83.872 E3.51836
G1 X161 Y83.628 E3.52458
G1 X161 Y135.949 E4.5687
G1 X161 Y136.375 E4.5772
G1 X160.896 Y136.23
G1 X160.622 Y135.949 E4.58274
G1 X160.312 Y135.714 E4.5905
G1 X159.962 Y135.523 E4.59846
G1 X159.493 Y135.365 E4.60834
G1 X159.111 Y135.306 E4.61605
G1 X158.94 Y135.3 E4.61946
G1 X158.575 Y135.318 E4.62676
G1 X158.196 Y135.395 E4.63447
G1 X157.829 Y135.527 E4.64226
G1 X157.487 Y135.714 E4.65004
G1 X157.175 Y135.952 E4.65787
G1 X156.904 Y136.231 E4.66563
G1 X156.674 Y136.552 E4.67351
G1 X156.457 Y136.998 E4.68341
G1 X156.35 Y137.386 E4.69144
G1 X156.3 Y137.771 E4.69919
G1 X156.311 Y138.159 E4.70693
G1 X156.379 Y138.55 E4.71485
G1 X156.549 Y139.019 E4.72481
G1 X156.751 Y139.366 E4.73282
G1 X156.993 Y139.67 E4.74058
G1 X157.278 Y139.934 E4.74833
G1 X157.374 Y140 E4.75065
G1 X62.626 Y140 E6.64145
G1 X62.827 Y139.847 E6.64649
G1 X63.096 Y139.57 E6.6542
G1 X63.326 Y139.247 E6.66211
G1 X63.543 Y138.801 E6.67201
G1 X63.65 Y138.414 E6.68002
G1 X63.7 Y138.028 E6.68779
G1 X63.689 Y137.639 E6.69556
G1 X63.621 Y137.248 E6.70348
G1 X63.451 Y136.781 E6.71339
G1 X63.249 Y136.434 E6.72141
G1 X63.007 Y136.131 E6.72914
G1 X62.722 Y135.864 E6.73694
G1 X62.399 Y135.645 E6.74473
G1 X62.052 Y135.479 E6.7524
G1 X61.685 Y135.363 E6.76008
G1 X61.311 Y135.306 E6.76763
G1 X61.14 Y135.3 E6.77105
G1 X60.775 Y135.318 E6.77834
G1 X60.396 Y135.395 E6.78606
G1 X60.029 Y135.527 E6.79384
G1 X59.687 Y135.714 E6.80162
G1 X59.375 Y135.952 E6.80945
G1 X59.104 Y136.231 E6.81721
G1 X59 Y136.376 E6.82077
G1 X59 Y135.952 E6.82561
G1 X59 Y84.145 E7.85948
G1 X59.082 Y84.214 E7.86162
G1 X59.414 Y84.416 E7.86937
G1 X59.77 Y84.567 E7.87709
G1 X60.148 Y84.663 E7.88487
G1 X60.535 Y84.702 E7.89264
G1 X60.924 Y84.682 E7.90041
G1 X61.303 Y84.605 E7.90813
G0 F6000 X61.195 Y84.219
G1 F1200 X61.505 Y84.107 E7.9147
G1 X61.795 Y83.949 E7.92129
G1 X62.061 Y83.747 E7.92796
G1 X62.288 Y83.513 E7.93447
G1 X62.481 Y83.242 E7.94111
G1 X62.667 Y82.859 E7.9496
G1 X62.757 Y82.535 E7.95631
G1 X62.799 Y82.208 E7.96289
G1 X62.79 Y81.879 E7.96946
G1 X62.733 Y81.552 E7.97608
G1 X62.587 Y81.151 E7.9846
G1 X62.418 Y80.86 E7.99132
G1 X62.213 Y80.603 E7.99788
G1 X61.972 Y80.378 E8.00446
G1 X61.699 Y80.193 E8.01104
G1 X61.405 Y80.052 E8.01754
G1 X61.094 Y79.954 E8.02405
G1 X60.773 Y79.905 E8.03053
G1 X60.642 Y79.9 E8.03315
G1 X60.325 Y79.916 E8.03948
G1 X60.004 Y79.981 E8.04602
G1 X59.694 Y80.093 E8.0526
G1 X59.405 Y80.251 E8.05917
G1 X59.141 Y80.452 E8.06579
G1 X58.912 Y80.688 E8.07235
G1 X58.722 Y80.953 E8.07886
G1 X58.6 Y81.19 E8.08418
G1 X58.6 Y80.688 E8.08945
G1 X58.6 Y79.6 E8.11116
G1 X60.004 Y79.6 E8.13918
G1 X60.642 Y79.6 E8.1507
G1 X61.094 Y79.6 E8.15831
G1 X158.625 Y79.6 E10.10465
G1 X159.398 Y79.6 E10.12007
G1 X161.4 Y79.6 E10.16003
G1 X161.4 Y81.999 E10.2079
G1 X161.4 Y82.75 E10.22289
G1 X161.4 Y137.799 E11.32145
G1 X161.4 Y138.55 E11.33644
G1 X161.4 Y140.4 E11.37336
G1 X159.065 Y140.4 E11.41995
G1 X158.41 Y140.4 E11.43302
G1 X61.374 Y140.4 E13.36948
G1 X60.718 Y140.4 E13.38032
G1 X58.6 Y140.4 E13.42259
G1 X58.6 Y138.01 E13.47028
G1 X58.6 Y137.358 E13.481
G1 X58.6 Y83.429 E14.55721
G1 X58.6 Y83.003 E14.56571
G1 X58.668 Y83.153
G1 X58.845 Y83.429 E14.56873
G1 X59.063 Y83.675 E14.57529
G1 X59.316 Y83.888 E14.58189
G1 X59.597 Y84.059 E14.58845
G1 X59.898 Y84.187 E14.59498
G1 X60.218 Y84.268 E14.60157
G1 X60.545 Y84.301 E14.60813
G1 X60.874 Y84.284 E14.6147
G1 X61.195 Y84.219 E14.62124
G0 F6000 X61.087 Y83.833
;TYPE:WALL-OUTER
G1 F1200 X61.34 Y83.741 E14.62661
G1 X61.577 Y83.612 E14.63199
G1 X61.795 Y83.447 E14.63745
G1 X61.98 Y83.256 E14.64276
G1 X62.136 Y83.037 E14.64812
G1 X62.291 Y82.717 E14.65522
G1 X62.364 Y82.456 E14.66063
G1 X62.398 Y82.188 E14.66602
G1 X62.391 Y81.919 E14.67139
G1 X62.345 Y81.656 E14.67672
G1 X62.223 Y81.321 E14.68383
G1 X62.087 Y81.086 E14.68925
G1 X61.919 Y80.876 E14.69462
G1 X61.722 Y80.692 E14.69999
G1 X61.499 Y80.541 E14.70537
G1 X61.258 Y80.425 E14.71071
G1 X61.003 Y80.345 E14.71604
G1 X60.734 Y80.304 E14.72147
G1 X60.644 Y80.3 E14.72327
G1 X60.375 Y80.314 E14.72864
G1 X60.112 Y80.367 E14.734
G1 X59.859 Y80.459 E14.73937
G1 X59.623 Y80.588 E14.74474
G1 X59.407 Y80.752 E14.75015
G1 X59.22 Y80.945 E14.75551
G1 X59.064 Y81.162 E14.76085
G1 X58.941 Y81.402 E14.76623
G1 X58.855 Y81.657 E14.7716
G1 X58.809 Y81.921 E14.77695
G1 X58.802 Y82.19 E14.78232
G1 X58.836 Y82.456 E14.78767
G1 X58.909 Y82.716 E14.79306
G1 X59.02 Y82.961 E14.79842
G1 X59.165 Y83.187 E14.80378
G1 X59.343 Y83.388 E14.80914
G1 X59.55 Y83.562 E14.81454
G1 X59.78 Y83.702 E14.81991
G1 X60.026 Y83.807 E14.82525
G1 X60.287 Y83.873 E14.83062
G1 X60.555 Y83.9 E14.836
G1 X60.824 Y83.886 E14.84137
G1 X61.087 Y83.833 E14.84673
G0 F6000 X61.205 Y84.256
G1 F1500 E8.34673
G0 F6000 X62.758 Y83.905
G0 X61.353 Y82.655
G0 X79.782 Y85.377
G0 X77.994 Y85.899
G0 X81.28 Y87.737
;TYPE:WALL-INNER
G1 F1500 E14.84673
G1 F1200 X81.651 Y87.621 E14.85448
G1 X82.002 Y87.454 E14.86224
G1 X82.326 Y87.232 E14.87008
G1 X82.607 Y86.97 E14.87774
G1 X82.85 Y86.665 E14.88553
G1 X83.047 Y86.326 E14.89335
G1 X83.189 Y85.961 E14.90117
G1 X83.274 Y85.582 E14.90892
G1 X83.302 Y85.197 E14.91662
G1 X83.272 Y84.801 E14.92455
G1 X83.152 Y84.324 E14.93436
G1 X82.983 Y83.949 E14.94257
G1 X82.771 Y83.625 E14.9503
G1 X82.515 Y83.335 E14.95802
G1 X82.213 Y83.083 E14.96587
G1 X81.885 Y82.883 E14.97353
G1 X81.525 Y82.73 E14.98134
G1 X81.146 Y82.637 E14.98913
G1 X80.762 Y82.598 E14.99683
G1 X80.371 Y82.618 E15.00464
G1 X79.992 Y82.696 E15.01236
G1 X79.625 Y82.83 E15.02016
G1 X79.282 Y83.019 E15.02798
G1 X78.974 Y83.253 E15.0357
G1 X78.705 Y83.53 E15.0434
G1 X78.473 Y83.856 E15.05139
G1 X78.256 Y84.301 E15.06127
G1 X78.15 Y84.686 E15.06923
G1 X78.1 Y85.073 E15.07702
G1 X78.111 Y85.459 E15.08473
G1 X78.179 Y85.85 E15.09265
G1 X78.349 Y86.319 E15.1026
G1 X78.551 Y86.666 E15.11062
G1 X78.793 Y86.97 E15.11837
G1 X79.078 Y87.234 E15.12612
G1 X79.399 Y87.454 E15.13389
G1 X79.747 Y87.621 E15.14159
G1 X80.12 Y87.737 E15.14939
G1 X80.505 Y87.795 E15.15716
G1 X80.895 Y87.795 E15.16494
G1 X81.28 Y87.737 E15.17271
G0 F6000 X81.19 Y87.346
G1 F1200 X81.505 Y87.248 E15.17929
G1 X81.802 Y87.106 E15.18586
G1 X82.075 Y86.919 E15.19247
G1 X82.313 Y86.697 E15.19896
G1 X82.519 Y86.439 E15.20555
G1 X82.685 Y86.152 E15.21217
G1 X82.805 Y85.844 E15.21876
G1 X82.877 Y85.523 E15.22533
G1 X82.901 Y85.197 E15.23185
G1 X82.876 Y84.865 E15.23849
G1 X82.773 Y84.456 E15.24691
G1 X82.631 Y84.142 E15.25379
G1 X82.452 Y83.868 E15.26032
G1 X82.235 Y83.622 E15.26687
G1 X81.98 Y83.409 E15.2735
G1 X81.702 Y83.24 E15.27999
G1 X81.398 Y83.111 E15.28658
G1 X81.078 Y83.032 E15.29316
G1 X80.752 Y82.999 E15.2997
G1 X80.422 Y83.016 E15.30629
G1 X80.101 Y83.082 E15.31283
G1 X79.791 Y83.195 E15.31942
G1 X79.501 Y83.355 E15.32602
G1 X79.24 Y83.553 E15.33256
G1 X79.013 Y83.787 E15.33907
G1 X78.818 Y84.061 E15.34578
G1 X78.632 Y84.443 E15.35426
G1 X78.543 Y84.765 E15.36093
G1 X78.501 Y85.093 E15.36752
G1 X78.51 Y85.419 E15.37403
G1 X78.567 Y85.747 E15.38068
G1 X78.713 Y86.149 E15.38921
G1 X78.882 Y86.44 E15.39593
G1 X79.087 Y86.697 E15.40249
G1 X79.328 Y86.921 E15.40905
G1 X79.6 Y87.107 E15.41563
G1 X79.894 Y87.248 E15.42214
G1 X80.21 Y87.346 E15.42874
G1 X80.535 Y87.395 E15.4353
G1 X80.865 Y87.395 E15.44188
G1 X81.19 Y87.346 E15.44844
G0 F6000 X81.101 Y86.955
;TYPE:WALL-OUTER
G1 F1200 X81.359 Y86.875 E15.45383
G1 X81.601 Y86.759 E15.45919
G1 X81.824 Y86.606 E15.46459
G1 X82.019 Y86.424 E15.46991
G1 X82.188 Y86.213 E15.4753
G1 X82.323 Y85.979 E15.48069
G1 X82.421 Y85.727 E15.48609
G1 X82.48 Y85.464 E15.49147
G1 X82.5 Y85.197 E15.49681
G1 X82.48 Y84.929 E15.50218
