;FLAVOR:Marlin
;TIME:13267
;Filament used: 6.30568m
;Layer height: 0.12
;MINX:53.811
;MINY:39.588
;MINZ:0.12
;MAXX:159.141
;MAXY:163.564
;MAXZ:18.96
;Generated with Cura_SteamEngine master
M140 S60
M105
M190 S60
M104 S205
M105
M109 S205
M82 ;absolute extrusion mode
; Ender 3 Custom Start G-code
G92 E0 ; Reset Extruder
G28 ; Home all axes
G1 Z2.0 F3000 ; Move Z Axis up little to prevent scratching of Heat Bed
G1 X0.1 Y20 Z0.3 F5000.0 ; Move to start position
G1 X0.1 Y200.0 Z0.3 F1500.0 E15 ; Draw the first line
G1 X0.4 Y200.0 Z0.3 F5000.0 ; Move to side a little
G1 X0.4 Y20 Z0.3 F1500.0 E30 ; Draw the second line
G92 E0 ; Reset Extruder
G1 Z2.0 F3000 ; Move Z Axis up little to prevent scratching of Heat Bed
G1 X5 Y20 Z0.3 F5000.0 ; Move over to prevent blob squish
G92 E0
G92 E0
G1 F1500 E-6.5
;LAYER_COUNT:158
;LAYER:0
M107
G0 F6000 X113.817 Y153.523 Z0.12
;TYPE:SKIRT
G1 F1500 E0
G1 F1200 X113.521 Y153.747 E0.00741
G1 X113.307 Y153.937 E0.01312
G1 X113.029 Y154.224 E0.02109
G1 X112.879 Y154.403 E0.02575
G1 X112.656 Y154.713 E0.03337
G1 X112.502 Y154.965 E0.03927
G1 X112.316 Y155.334 E0.04751
G1 X112.234 Y155.532 E0.05179
G1 X112.118 Y155.876 E0.05904
G1 X112.046 Y156.155 E0.06479
G1 X111.973 Y156.579 E0.07337
G1 X111.951 Y156.809 E0.07798
G1 X111.943 Y157.193 E0.08565
G1 X111.959 Y157.466 E0.0911
G1 X112.002 Y157.812 E0.09806
G1 X112.06 Y158.1 E0.10392
G1 X112.175 Y158.499 E0.11221
G1 X112.255 Y158.718 E0.11686
G1 X112.408 Y159.055 E0.12425
G1 X112.541 Y159.301 E0.12983
G1 X112.746 Y159.618 E0.13736
G1 X112.915 Y159.838 E0.1429
G1 X113.156 Y160.113 E0.1502
G1 X113.364 Y160.312 E0.15594
G1 X113.678 Y160.575 E0.16412
G1 X113.862 Y160.706 E0.16862
G1 X114.192 Y160.907 E0.17633
G1 X114.451 Y161.038 E0.18213
G1 X114.78 Y161.175 E0.18924
G1 X115.04 Y161.263 E0.19472
G1 X115.408 Y161.357 E0.2023
G1 X115.686 Y161.404 E0.20792
G1 X116.052 Y161.441 E0.21526
G1 X116.338 Y161.446 E0.22097
G1 X116.761 Y161.424 E0.22943
G1 X116.939 Y161.4 E0.23301
G1 X117.35 Y161.318 E0.24137
G1 X117.594 Y161.248 E0.24644
G1 X117.963 Y161.113 E0.25428
G1 X118.212 Y160.999 E0.25974
G1 X118.515 Y160.835 E0.26662
G1 X118.757 Y160.681 E0.27234
G1 X119.064 Y160.449 E0.28002
G1 X119.277 Y160.259 E0.28572
G1 X119.555 Y159.973 E0.29368
G1 X119.71 Y159.787 E0.29851
G1 X119.951 Y159.449 E0.3068
G1 X120.07 Y159.254 E0.31135
G1 X120.244 Y158.915 E0.31896
G1 X120.358 Y158.64 E0.3249
G1 X120.482 Y158.26 E0.33288
G1 X120.538 Y158.039 E0.33743
G1 X120.61 Y157.621 E0.34589
G1 X120.632 Y157.391 E0.3505
G1 X120.64 Y157.005 E0.35821
G1 X120.623 Y156.721 E0.36388
G1 X120.576 Y156.36 E0.37115
G1 X120.521 Y156.09 E0.37665
G1 X120.423 Y155.742 E0.38386
G1 X120.324 Y155.472 E0.3896
G1 X120.172 Y155.137 E0.39694
G1 X120.035 Y154.885 E0.40267
G1 X119.833 Y154.574 E0.41007
G1 X119.669 Y154.362 E0.41542
G1 X119.443 Y154.103 E0.42228
G1 X119.24 Y153.902 E0.42798
G1 X118.963 Y153.667 E0.43523
G1 X118.724 Y153.494 E0.44111
G1 X118.388 Y153.289 E0.44897
G1 X118.141 Y153.166 E0.45447
G1 X117.826 Y153.032 E0.46131
G1 X117.561 Y152.94 E0.4669
G1 X117.176 Y152.84 E0.47484
G1 X116.924 Y152.796 E0.47995
G1 X116.525 Y152.756 E0.48795
G1 X116.241 Y152.751 E0.49362
G1 X115.822 Y152.773 E0.50199
G1 X115.639 Y152.798 E0.50568
G1 X115.252 Y152.876 E0.51355
G1 X114.975 Y152.954 E0.5193
G1 X114.583 Y153.099 E0.52764
G1 X114.383 Y153.192 E0.53204
G1 X113.997 Y153.404 E0.54083
G1 X113.817 Y153.523 E0.54513
G0 F6000 X114.059 Y153.842
G1 F1200 X113.763 Y154.066 E0.55254
G1 X113.594 Y154.216 E0.55705
G1 X113.325 Y154.493 E0.56476
G1 X113.203 Y154.637 E0.56852
G1 X112.98 Y154.947 E0.57614
G1 X112.859 Y155.145 E0.58078
G1 X112.681 Y155.499 E0.58868
G1 X112.613 Y155.659 E0.59215
G1 X112.497 Y156.003 E0.5994
G1 X112.44 Y156.224 E0.60395
G1 X112.37 Y156.632 E0.61221
G1 X112.351 Y156.817 E0.61592
G1 X112.343 Y157.201 E0.62359
G1 X112.356 Y157.416 E0.62789
G1 X112.399 Y157.762 E0.63484
G1 X112.445 Y157.99 E0.63949
G1 X112.556 Y158.376 E0.6475
G1 X112.619 Y158.552 E0.65123
G1 X112.772 Y158.889 E0.65862
G1 X112.877 Y159.084 E0.66304
G1 X113.082 Y159.401 E0.67057
G1 X113.216 Y159.574 E0.67494
G1 X113.457 Y159.849 E0.68224
G1 X113.621 Y160.006 E0.68677
G1 X113.922 Y160.258 E0.6946
G1 X114.07 Y160.364 E0.69823
G1 X114.4 Y160.565 E0.70594
G1 X114.605 Y160.669 E0.71053
G1 X114.985 Y160.826 E0.71874
G1 X115.139 Y160.876 E0.72197
G1 X115.507 Y160.97 E0.72955
G1 X115.726 Y161.006 E0.73398
G1 X116.092 Y161.043 E0.74132
G1 X116.318 Y161.047 E0.74583
G1 X116.733 Y161.025 E0.75412
G1 X116.861 Y161.008 E0.7567
G1 X117.272 Y160.926 E0.76506
G1 X117.496 Y160.859 E0.76973
G1 X117.825 Y160.738 E0.77672
G1 X118.022 Y160.647 E0.78105
G1 X118.379 Y160.452 E0.78917
G1 X118.516 Y160.362 E0.79244
G1 X118.823 Y160.13 E0.80012
G1 X118.991 Y159.98 E0.80462
G1 X119.236 Y159.729 E0.81162
G1 X119.385 Y159.555 E0.81619
G1 X119.617 Y159.229 E0.82417
G1 X119.714 Y159.072 E0.82786
G1 X119.888 Y158.733 E0.83546
G1 X119.978 Y158.515 E0.84017
G1 X120.098 Y158.147 E0.84789
G1 X120.144 Y157.97 E0.85154
G1 X120.213 Y157.568 E0.85968
G1 X120.232 Y157.383 E0.86339
G1 X120.24 Y156.997 E0.8711
G1 X120.227 Y156.773 E0.87557
G1 X120.18 Y156.412 E0.88284
G1 X120.136 Y156.198 E0.8872
G1 X120.038 Y155.85 E0.89441
G1 X119.96 Y155.637 E0.89894
G1 X119.808 Y155.302 E0.90628
G1 X119.7 Y155.103 E0.9108
G1 X119.498 Y154.792 E0.9182
G1 X119.367 Y154.625 E0.92244
G1 X119.141 Y154.366 E0.9293
G1 X118.981 Y154.207 E0.9338
G1 X118.704 Y153.972 E0.94105
G1 X118.516 Y153.835 E0.94569
G1 X118.18 Y153.63 E0.95354
G1 X117.984 Y153.534 E0.9579
G1 X117.619 Y153.38 E0.9658
G1 X117.46 Y153.327 E0.96915
G1 X117.075 Y153.227 E0.97709
G1 X116.846 Y153.19 E0.98172
G1 X116.486 Y153.154 E0.98894
G1 X116.261 Y153.15 E0.99343
G1 X115.849 Y153.172 E1.00166
G1 X115.718 Y153.19 E1.0043
G1 X115.331 Y153.268 E1.01218
G1 X115.113 Y153.33 E1.0167
G1 X114.738 Y153.468 E1.02467
G1 X114.575 Y153.542 E1.02825
G1 X114.206 Y153.746 E1.03666
G1 X114.059 Y153.842 E1.04016
G0 F6000 X114.3 Y154.161
G1 F1200 X114.004 Y154.385 E1.04757
G1 X113.881 Y154.495 E1.05087
G1 X113.621 Y154.762 E1.0583
G1 X113.528 Y154.871 E1.06116
G1 X113.282 Y155.214 E1.06959
G1 X113.216 Y155.326 E1.07218
G1 X113.045 Y155.665 E1.07976
G1 X112.992 Y155.787 E1.08241
G1 X112.876 Y156.131 E1.08966
G1 X112.834 Y156.293 E1.093
G1 X112.766 Y156.684 E1.10092
G1 X112.751 Y156.826 E1.10377
G1 X112.743 Y157.21 E1.11143
G1 X112.753 Y157.367 E1.11457
G1 X112.802 Y157.755 E1.12237
G1 X112.829 Y157.88 E1.12493
G1 X112.936 Y158.253 E1.13267
G1 X112.984 Y158.387 E1.13551
G1 X113.151 Y158.754 E1.14356
G1 X113.213 Y158.867 E1.14613
G1 X113.418 Y159.184 E1.15366
G1 X113.517 Y159.31 E1.15686
G1 X113.758 Y159.585 E1.16416
G1 X113.879 Y159.7 E1.16749
G1 X114.165 Y159.94 E1.17494
G1 X114.278 Y160.022 E1.17773
G1 X114.608 Y160.223 E1.18544
G1 X114.758 Y160.3 E1.1888
G1 X115.118 Y160.449 E1.19658
G1 X115.238 Y160.488 E1.19909
G1 X115.606 Y160.582 E1.20667
G1 X115.767 Y160.608 E1.20993
G1 X116.133 Y160.645 E1.21727
G1 X116.299 Y160.647 E1.22058
G1 X116.706 Y160.626 E1.22872
G1 X116.782 Y160.615 E1.23025
G1 X117.193 Y160.533 E1.23861
G1 X117.358 Y160.483 E1.24205
G1 X117.687 Y160.362 E1.24905
G1 X117.832 Y160.296 E1.25223
G1 X118.167 Y160.113 E1.25985
G1 X118.275 Y160.043 E1.26241
G1 X118.582 Y159.811 E1.27009
G1 X118.704 Y159.7 E1.27338
G1 X118.964 Y159.434 E1.28081
G1 X119.059 Y159.323 E1.28372
G1 X119.283 Y159.008 E1.29144
G1 X119.358 Y158.889 E1.29424
G1 X119.532 Y158.55 E1.30185
G1 X119.598 Y158.391 E1.30528
G1 X119.715 Y158.034 E1.31278
G1 X119.75 Y157.901 E1.31552
G1 X119.817 Y157.516 E1.32332
G1 X119.832 Y157.374 E1.32617
G1 X119.84 Y156.988 E1.33388
G1 X119.83 Y156.825 E1.33714
G1 X119.783 Y156.464 E1.3444
G1 X119.751 Y156.306 E1.34762
G1 X119.653 Y155.958 E1.35483
G1 X119.595 Y155.802 E1.35815
G1 X119.426 Y155.431 E1.36629
G1 X119.364 Y155.321 E1.36881
G1 X119.162 Y155.01 E1.37621
G1 X119.066 Y154.888 E1.37931
G1 X118.84 Y154.629 E1.38617
G1 X118.722 Y154.512 E1.38948
G1 X118.415 Y154.253 E1.3975
G1 X118.307 Y154.177 E1.40014
G1 X117.971 Y153.972 E1.40799
G1 X117.828 Y153.902 E1.41117
G1 X117.482 Y153.756 E1.41866
G1 X117.36 Y153.714 E1.42124
G1 X116.975 Y153.614 E1.42917
G1 X116.806 Y153.588 E1.43259
G1 X116.446 Y153.552 E1.43981
G1 X116.281 Y153.55 E1.4431
G1 X115.876 Y153.571 E1.45119
G1 X115.797 Y153.582 E1.45278
G1 X115.363 Y153.671 E1.46163
G1 X115.25 Y153.705 E1.46398
G1 X114.893 Y153.837 E1.47158
G1 X114.767 Y153.893 E1.47433
G1 X114.414 Y154.088 E1.48238
G1 X114.3 Y154.161 E1.48508
G0 F6000 X114.541 Y154.48
G1 F1200 X114.231 Y154.715 E1.49284
G1 X114.168 Y154.774 E1.49456
G1 X113.917 Y155.031 E1.50173
G1 X113.853 Y155.104 E1.50367
G1 X113.622 Y155.425 E1.51156
G1 X113.573 Y155.507 E1.51347
G1 X113.409 Y155.83 E1.5207
G1 X113.371 Y155.915 E1.52256
G1 X113.252 Y156.271 E1.53005
G1 X113.228 Y156.362 E1.53192
G1 X113.163 Y156.736 E1.5395
G1 X113.151 Y156.834 E1.54147
G1 X113.143 Y157.236 E1.54949
G1 X113.15 Y157.318 E1.55114
G1 X113.195 Y157.678 E1.55838
G1 X113.214 Y157.77 E1.56025
G1 X113.317 Y158.13 E1.56772
G1 X113.348 Y158.222 E1.56966
G1 X113.506 Y158.569 E1.57727
G1 X113.549 Y158.65 E1.5791
G1 X113.766 Y158.984 E1.58705
G1 X113.818 Y159.047 E1.58868
G1 X114.074 Y159.338 E1.59641
G1 X114.136 Y159.394 E1.59808
G1 X114.408 Y159.623 E1.60518
G1 X114.486 Y159.681 E1.60712
G1 X114.83 Y159.889 E1.61514
G1 X114.912 Y159.931 E1.61698
G1 X115.251 Y160.072 E1.6243
G1 X115.337 Y160.101 E1.62611
G1 X115.705 Y160.195 E1.63369
G1 X115.807 Y160.21 E1.63575
G1 X116.193 Y160.248 E1.64349
G1 X116.279 Y160.248 E1.64521
G1 X116.679 Y160.227 E1.6532
G1 X117.115 Y160.141 E1.66207
G1 X117.22 Y160.108 E1.66427
G1 X117.565 Y159.98 E1.67161
G1 X117.641 Y159.944 E1.67329
G1 X117.955 Y159.774 E1.68041
G1 X118.034 Y159.724 E1.68228
G1 X118.356 Y159.479 E1.69035
G1 X118.418 Y159.421 E1.69205
G1 X118.668 Y159.165 E1.69919
G1 X118.734 Y159.09 E1.70118
G1 X118.95 Y158.787 E1.70861
G1 X119.002 Y158.706 E1.71053
G1 X119.183 Y158.353 E1.71845
G1 X119.218 Y158.266 E1.72032
G1 X119.331 Y157.921 E1.72756
G1 X119.356 Y157.832 E1.72941
G1 X119.42 Y157.464 E1.73686
G1 X119.432 Y157.366 E1.73883
G1 X119.44 Y156.963 E1.74688
G1 X119.433 Y156.876 E1.74862
G1 X119.384 Y156.5 E1.75618
G1 X119.366 Y156.415 E1.75792
G1 X119.263 Y156.052 E1.76545
G1 X119.231 Y155.967 E1.76726
G1 X119.073 Y155.62 E1.77487
G1 X119.029 Y155.539 E1.77671
G1 X118.814 Y155.21 E1.78455
G1 X118.765 Y155.151 E1.78608
G1 X118.528 Y154.88 E1.79327
G1 X118.463 Y154.817 E1.79507
G1 X118.176 Y154.574 E1.80258
G1 X118.099 Y154.518 E1.80448
G1 X117.763 Y154.313 E1.81233
G1 X117.671 Y154.27 E1.81436
G1 X117.346 Y154.132 E1.82141
G1 X117.259 Y154.101 E1.82325
G1 X116.874 Y154.001 E1.83119
G1 X116.766 Y153.986 E1.83336
G1 X116.386 Y153.949 E1.84098
G1 X116.301 Y153.949 E1.84268
G1 X115.903 Y153.97 E1.85063
G1 X115.489 Y154.052 E1.85905
G1 X115.387 Y154.081 E1.86117
G1 X115.048 Y154.206 E1.86838
G1 X114.96 Y154.244 E1.87029
G1 X114.622 Y154.429 E1.87798
G1 X114.541 Y154.48 E1.87989
G0 F6000 X113.75 Y152.696
G1 F1200 X118.834 Y152.696 E1.98135
G1 X121.376 Y157.099 E2.08281
G1 X118.835 Y161.501 E2.18424
G1 X113.749 Y161.501 E2.28574
G1 X111.208 Y157.099 E2.38717
G1 X113.75 Y152.696 E2.48863
G0 F6000 X113.52 Y152.296
G1 F1200 X119.064 Y152.296 E2.59926
G1 X121.838 Y157.099 E2.70995
G1 X119.066 Y161.901 E2.8206
G1 X113.518 Y161.901 E2.93132
G1 X110.746 Y157.099 E3.04197
G1 X113.52 Y152.296 E3.15265
G0 F6000 X113.289 Y151.896
G1 F1200 X119.295 Y151.896 E3.27251
G1 X122.299 Y157.099 E3.3924
G1 X119.296 Y162.301 E3.51227
G1 X113.288 Y162.301 E3.63217
G1 X110.285 Y157.099 E3.75203
G1 X113.289 Y151.896 E3.87193
G0 F6000 X113.058 Y151.496
G1 F1200 X119.526 Y151.496 E4.00101
G1 X122.761 Y157.1 E4.13014
G1 X119.528 Y162.701 E4.25919
G1 X113.056 Y162.701 E4.38835
G1 X109.823 Y157.098 E4.51744
G1 X113.058 Y151.496 E4.64654
G1 F1500 E-1.85346
;MESH:RaspberryPi Platform_v2.stl
G0 F6000 X113.058 Y102.918
G0 X113.058 Y101.933
G0 X58.482 Y101.16
;TYPE:WALL-INNER
G1 F1500 E4.64654
G1 F1200 X58.772 Y101.002 E4.65313
G1 X59.034 Y100.802 E4.65971
G1 X59.262 Y100.568 E4.66623
G1 X59.452 Y100.306 E4.67268
G1 X59.604 Y100.008 E4.67936
G1 X59.71 Y99.697 E4.68592
G1 X59.766 Y99.371 E4.69252
G1 X59.776 Y99.047 E4.69899
G1 X59.734 Y98.715 E4.70566
G1 X59.645 Y98.401 E4.71218
G1 X59.511 Y98.102 E4.71872
G1 X59.333 Y97.826 E4.72527
G1 X59.113 Y97.576 E4.73192
G1 X58.861 Y97.366 E4.73846
G1 X58.58 Y97.194 E4.74504
G1 X58.278 Y97.066 E4.75158
G1 X57.957 Y96.985 E4.75819
G1 X57.63 Y96.952 E4.76475
G1 X57.3 Y96.969 E4.77134
G1 X56.98 Y97.035 E4.77786
G1 X56.67 Y97.146 E4.78443
G1 X56.381 Y97.304 E4.79101
G1 X56.124 Y97.499 E4.79744
G1 X55.889 Y97.74 E4.80416
G1 X55.698 Y98.006 E4.8107
G1 X55.548 Y98.297 E4.81723
G1 X55.443 Y98.61 E4.82382
G1 X55.386 Y98.934 E4.83038
G1 X55.377 Y99.263 E4.83695
G1 X55.419 Y99.59 E4.84353
G1 X55.508 Y99.905 E4.85006
G1 X55.643 Y100.205 E4.85663
G1 X55.822 Y100.482 E4.86321
G1 X56.039 Y100.728 E4.86976
G1 X56.291 Y100.94 E4.87633
G1 X56.574 Y101.112 E4.88294
G1 X56.875 Y101.24 E4.88946
G1 X57.195 Y101.321 E4.89605
G1 X57.522 Y101.353 E4.90261
G1 X57.848 Y101.338 E4.90912
G1 X58.173 Y101.272 E4.91574
G1 X58.482 Y101.16 E4.9223
G0 F6000 X58.317 Y100.794
;TYPE:WALL-OUTER
G1 F1200 X58.554 Y100.665 E4.92768
G1 X58.768 Y100.502 E4.93305
G1 X58.955 Y100.31 E4.9384
G1 X59.11 Y100.096 E4.94367
G1 X59.235 Y99.852 E4.94914
G1 X59.321 Y99.598 E4.9545
G1 X59.367 Y99.331 E4.9599
G1 X59.375 Y99.066 E4.96519
G1 X59.341 Y98.795 E4.97064
G1 X59.268 Y98.538 E4.97598
G1 X59.158 Y98.293 E4.98133
G1 X59.013 Y98.068 E4.98668
G1 X58.833 Y97.864 E4.99211
G1 X58.627 Y97.692 E4.99746
G1 X58.396 Y97.551 E5.00286
G1 X58.15 Y97.446 E5.0082
G1 X57.888 Y97.38 E5.01359
G1 X57.62 Y97.353 E5.01897
G1 X57.351 Y97.367 E5.02434
G1 X57.088 Y97.421 E5.0297
G1 X56.835 Y97.512 E5.03507
G1 X56.599 Y97.641 E5.04043
G1 X56.389 Y97.8 E5.04569
G1 X56.196 Y97.998 E5.05121
G1 X56.04 Y98.215 E5.05654
G1 X55.918 Y98.453 E5.06188
G1 X55.832 Y98.709 E5.06727
G1 X55.785 Y98.974 E5.07264
G1 X55.778 Y99.243 E5.07801
G1 X55.812 Y99.51 E5.08338
G1 X55.885 Y99.768 E5.08873
G1 X55.995 Y100.013 E5.09409
G1 X56.142 Y100.24 E5.09949
G1 X56.319 Y100.441 E5.10483
G1 X56.525 Y100.614 E5.1102
G1 X56.757 Y100.755 E5.11562
G1 X57.003 Y100.86 E5.12096
G1 X57.264 Y100.926 E5.12633
G1 X57.532 Y100.952 E5.1317
G1 X57.799 Y100.94 E5.13703
G1 X58.064 Y100.886 E5.14243
G1 X58.317 Y100.794 E5.1478
G0 F6000 X58.497 Y101.195
G1 F1500 E-1.3522
G0 F6000 X69.506 Y101.043
G0 X69.159 Y98.805
G0 X69.506 Y98.52
;TYPE:WALL-INNER
G1 F1500 E5.1478
G1 F1200 X69.864 Y98.367 E5.15557
G1 X70.197 Y98.164 E5.16336
G1 X70.494 Y97.917 E5.17107
G1 X70.754 Y97.621 E5.17893
G1 X70.964 Y97.295 E5.18667
G1 X71.122 Y96.942 E5.19438
G1 X71.227 Y96.569 E5.20212
G1 X71.276 Y96.181 E5.20992
G1 X71.265 Y95.796 E5.21761
G1 X71.197 Y95.404 E5.22555
G1 X71.072 Y95.036 E5.2333
G1 X70.891 Y94.687 E5.24115
G1 X70.667 Y94.378 E5.24876
G1 X70.399 Y94.101 E5.25646
G1 X70.076 Y93.858 E5.26452
G1 X69.64 Y93.635 E5.2743
G1 X69.255 Y93.516 E5.28234
G1 X68.894 Y93.462 E5.28962
G1 X68.719 Y93.451 E5.29312
G1 X68.347 Y93.471 E5.30056
G1 X67.968 Y93.549 E5.30828
G1 X67.601 Y93.683 E5.31607
G1 X67.26 Y93.872 E5.32385
G1 X66.951 Y94.104 E5.33157
G1 X66.682 Y94.382 E5.33929
G1 X66.455 Y94.701 E5.3471
G1 X66.277 Y95.044 E5.35481
G1 X66.154 Y95.413 E5.36257
G1 X66.087 Y95.792 E5.37025
G1 X66.076 Y96.183 E5.37806
G1 X66.126 Y96.57 E5.38585
G1 X66.231 Y96.942 E5.39356
G1 X66.391 Y97.297 E5.40133
G1 X66.602 Y97.624 E5.4091
G1 X66.859 Y97.915 E5.41684
G1 X67.157 Y98.166 E5.42462
G1 X67.491 Y98.369 E5.43242
G1 X67.847 Y98.52 E5.44014
G1 X68.236 Y98.618 E5.44814
G1 X68.726 Y98.654 E5.45795
G1 X69.126 Y98.616 E5.46597
G1 X69.506 Y98.52 E5.47379
G0 F6000 X69.378 Y98.14
G1 F1200 X69.68 Y98.011 E5.48034
G1 X69.963 Y97.838 E5.48696
G1 X70.214 Y97.629 E5.49348
G1 X70.434 Y97.379 E5.50012
G1 X70.611 Y97.104 E5.50665
G1 X70.745 Y96.805 E5.51319
G1 X70.834 Y96.489 E5.51974
G1 X70.875 Y96.162 E5.52632
G1 X70.866 Y95.836 E5.53282
G1 X70.808 Y95.503 E5.53957
G1 X70.703 Y95.193 E5.5461
G1 X70.55 Y94.898 E5.55273
G1 X70.36 Y94.636 E5.55919
