;FLAVOR:Marlin
;TIME:13471
;Filament used: 6.5341m
;Layer height: 0.12
;MINX:58.2
;MINY:71.885
;MINZ:0.12
;MAXX:161.8
;MAXY:160.939
;MAXZ:15.96
;Generated with Cura_SteamEngine master
M140 S75
M105
M190 S75
M104 S205
M105
M109 S205
M82 ;absolute extrusion mode
; Ender 3 Custom Start G-code
G92 E0 ; Reset Extruder
G28 ; Home all axes
G1 Z2.0 F3000 ; Move Z Axis up little to prevent scratching of Heat Bed
G1 X0.1 Y20 Z0.3 F5000.0 ; Move to start position
G1 X0.1 Y200.0 Z0.3 F1500.0 E15 ; Draw the first line
G1 X0.4 Y200.0 Z0.3 F5000.0 ; Move to side a little
G1 X0.4 Y20 Z0.3 F1500.0 E30 ; Draw the second line
G92 E0 ; Reset Extruder
G1 Z2.0 F3000 ; Move Z Axis up little to prevent scratching of Heat Bed
G1 X5 Y20 Z0.3 F5000.0 ; Move over to prevent blob squish
G92 E0
G92 E0
G1 F1500 E-6.5
;LAYER_COUNT:133
;LAYER:0
M107
G0 F6000 X110.425 Y150.243 Z0.12
;TYPE:SKIRT
G1 F1500 E0
G1 F1200 X112.492 Y150.243 E0.04125
G1 X113.481 Y151.956 E0.08072
G1 X113.256 Y151.682 E0.0878
G1 X112.877 Y151.303 E0.09849
G1 X112.544 Y151.036 E0.10701
G1 X112.081 Y150.746 E0.11791
G1 X111.702 Y150.561 E0.12633
G1 X111.175 Y150.376 E0.13748
G1 X110.911 Y150.307 E0.14292
G1 X110.759 Y150.281 E0.146
G1 X110.425 Y150.243 E0.15271
G0 F6000 X110.169 Y150.616
G1 F1200 X109.831 Y150.616 E0.15945
G1 X109.286 Y150.678 E0.1704
G1 X108.958 Y150.753 E0.17711
G1 X108.431 Y150.938 E0.18826
G1 X108.131 Y151.085 E0.19493
G1 X107.668 Y151.375 E0.20583
G1 X107.406 Y151.586 E0.21254
G1 X107.027 Y151.965 E0.22324
G1 X106.816 Y152.227 E0.22995
G1 X106.526 Y152.69 E0.24085
G1 X106.379 Y152.989 E0.2475
G1 X106.194 Y153.516 E0.25865
G1 X106.119 Y153.844 E0.26536
G1 X106.057 Y154.39 E0.27633
G1 X106.057 Y154.728 E0.28307
G1 X106.119 Y155.273 E0.29402
G1 X106.194 Y155.601 E0.30074
G1 X106.379 Y156.128 E0.31188
G1 X106.526 Y156.43 E0.31858
G1 X106.807 Y156.877 E0.32912
G1 X107.013 Y157.139 E0.33577
G1 X107.414 Y157.541 E0.3471
G1 X107.681 Y157.751 E0.35388
G1 X108.131 Y158.033 E0.36448
G1 X108.431 Y158.18 E0.37115
G1 X108.958 Y158.365 E0.38229
G1 X109.286 Y158.44 E0.38901
G1 X109.831 Y158.502 E0.39995
G1 X110.169 Y158.502 E0.4067
G1 X110.714 Y158.44 E0.41764
G1 X111.042 Y158.365 E0.42436
G1 X111.569 Y158.18 E0.43551
G1 X111.869 Y158.033 E0.44217
G1 X112.319 Y157.751 E0.45277
G1 X112.586 Y157.541 E0.45955
G1 X112.987 Y157.139 E0.47088
G1 X113.193 Y156.877 E0.47753
G1 X113.474 Y156.43 E0.48807
G1 X113.621 Y156.128 E0.49477
G1 X113.806 Y155.601 E0.50592
G1 X113.881 Y155.273 E0.51263
G1 X113.943 Y154.728 E0.52358
G1 X113.943 Y154.39 E0.53032
G1 X113.881 Y153.844 E0.54129
G1 X113.806 Y153.516 E0.548
G1 X113.621 Y152.989 E0.55915
G1 X113.474 Y152.69 E0.5658
G1 X113.184 Y152.227 E0.5767
G1 X112.973 Y151.965 E0.58341
G1 X112.594 Y151.586 E0.59411
G1 X112.332 Y151.375 E0.60082
G1 X111.869 Y151.085 E0.61173
G1 X111.569 Y150.938 E0.61839
G1 X111.042 Y150.753 E0.62954
G1 X110.714 Y150.678 E0.63625
G1 X110.169 Y150.616 E0.6472
G0 F6000 X110.124 Y151.014
G1 F1200 X109.876 Y151.014 E0.65215
G1 X109.331 Y151.076 E0.66309
G1 X109.09 Y151.131 E0.66803
G1 X108.563 Y151.316 E0.67917
G1 X108.344 Y151.424 E0.68405
G1 X107.881 Y151.714 E0.69495
G1 X107.689 Y151.869 E0.69987
G1 X107.31 Y152.248 E0.71057
G1 X107.155 Y152.44 E0.71549
G1 X106.865 Y152.903 E0.7264
G1 X106.757 Y153.121 E0.73125
G1 X106.572 Y153.648 E0.7424
G1 X106.517 Y153.889 E0.74733
G1 X106.455 Y154.435 E0.7583
G1 X106.455 Y154.683 E0.76325
G1 X106.517 Y155.228 E0.77419
G1 X106.572 Y155.469 E0.77913
G1 X106.757 Y155.996 E0.79027
G1 X106.865 Y156.217 E0.79518
G1 X107.146 Y156.664 E0.80572
G1 X107.296 Y156.857 E0.81059
G1 X107.697 Y157.259 E0.82193
G1 X107.893 Y157.412 E0.82689
G1 X108.343 Y157.694 E0.83749
G1 X108.563 Y157.802 E0.84238
G1 X109.09 Y157.987 E0.85352
G1 X109.331 Y158.042 E0.85846
G1 X109.876 Y158.104 E0.8694
G1 X110.124 Y158.104 E0.87435
G1 X110.669 Y158.042 E0.8853
G1 X110.91 Y157.987 E0.89023
G1 X111.437 Y157.802 E0.90138
G1 X111.657 Y157.694 E0.90627
G1 X112.107 Y157.412 E0.91686
G1 X112.303 Y157.259 E0.92183
G1 X112.704 Y156.857 E0.93316
G1 X112.854 Y156.664 E0.93804
G1 X113.135 Y156.217 E0.94857
G1 X113.243 Y155.996 E0.95348
G1 X113.428 Y155.469 E0.96463
G1 X113.483 Y155.228 E0.96956
G1 X113.545 Y154.683 E0.98051
G1 X113.545 Y154.435 E0.98546
G1 X113.483 Y153.889 E0.99642
G1 X113.428 Y153.648 E1.00135
G1 X113.243 Y153.121 E1.0125
G1 X113.135 Y152.903 E1.01736
G1 X112.845 Y152.44 E1.02826
G1 X112.69 Y152.248 E1.03318
G1 X112.311 Y151.869 E1.04388
G1 X112.119 Y151.714 E1.0488
G1 X111.656 Y151.424 E1.05971
G1 X111.437 Y151.316 E1.06458
G1 X110.91 Y151.131 E1.07572
G1 X110.669 Y151.076 E1.08066
G1 X110.124 Y151.014 E1.0916
G0 F6000 X110.079 Y151.411
G1 F1200 X109.921 Y151.411 E1.09476
G1 X109.376 Y151.473 E1.1057
G1 X109.223 Y151.508 E1.10884
G1 X108.696 Y151.693 E1.11998
G1 X108.556 Y151.763 E1.12311
G1 X108.093 Y152.053 E1.13401
G1 X107.972 Y152.152 E1.13713
G1 X107.58 Y152.545 E1.1482
G1 X107.494 Y152.652 E1.15094
G1 X107.194 Y153.131 E1.16222
G1 X107.134 Y153.254 E1.16495
G1 X106.949 Y153.781 E1.1761
G1 X106.914 Y153.934 E1.17923
G1 X106.852 Y154.48 E1.1902
G1 X106.852 Y154.638 E1.19335
G1 X106.914 Y155.183 E1.2043
G1 X106.949 Y155.336 E1.20743
G1 X107.134 Y155.863 E1.21858
G1 X107.204 Y156.004 E1.22172
G1 X107.495 Y156.466 E1.23261
G1 X107.579 Y156.574 E1.23534
G1 X108 Y156.994 E1.24721
G1 X108.106 Y157.073 E1.24985
G1 X108.573 Y157.365 E1.26084
G1 X108.696 Y157.425 E1.26357
G1 X109.223 Y157.61 E1.27472
G1 X109.376 Y157.645 E1.27785
G1 X109.921 Y157.707 E1.2888
G1 X110.079 Y157.707 E1.29195
G1 X110.624 Y157.645 E1.3029
G1 X110.777 Y157.61 E1.30603
G1 X111.304 Y157.425 E1.31717
G1 X111.444 Y157.355 E1.3203
G1 X111.91 Y157.063 E1.33127
G1 X112.02 Y156.976 E1.33407
G1 X112.421 Y156.574 E1.3454
G1 X112.515 Y156.451 E1.34849
G1 X112.806 Y155.987 E1.35942
G1 X112.866 Y155.863 E1.36217
G1 X113.051 Y155.336 E1.37332
G1 X113.086 Y155.183 E1.37645
G1 X113.148 Y154.638 E1.38739
G1 X113.148 Y154.48 E1.39055
G1 X113.086 Y153.934 E1.40151
G1 X113.051 Y153.781 E1.40465
G1 X112.866 Y153.254 E1.41579
G1 X112.796 Y153.115 E1.4189
G1 X112.506 Y152.652 E1.4298
G1 X112.407 Y152.531 E1.43292
G1 X112.014 Y152.139 E1.444
G1 X111.907 Y152.053 E1.44674
G1 X111.427 Y151.753 E1.45803
G1 X111.304 Y151.693 E1.46076
G1 X110.777 Y151.508 E1.47191
G1 X110.624 Y151.473 E1.47504
G1 X110.079 Y151.411 E1.48599
G0 F6000 X109.575 Y150.243
G1 F1200 X109.241 Y150.281 E1.4927
G1 X108.979 Y150.332 E1.49802
G1 X108.825 Y150.376 E1.50122
G1 X108.298 Y150.561 E1.51237
G1 X108.036 Y150.68 E1.51811
G1 X107.919 Y150.746 E1.52079
G1 X107.456 Y151.036 E1.53169
G1 X107.222 Y151.213 E1.53755
G1 X107.123 Y151.303 E1.54022
G1 X106.744 Y151.682 E1.55091
G1 X106.519 Y151.956 E1.55799
G1 X107.508 Y150.243 E1.59746
G1 X109.575 Y150.243 E1.63871
G0 F6000 X112.724 Y149.843
G1 F1200 X115.446 Y154.559 E1.74737
G1 X112.723 Y159.274 E1.85603
G1 X107.277 Y159.274 E1.96471
G1 X104.554 Y154.559 E2.07337
G1 X107.276 Y149.843 E2.18203
G1 X112.724 Y149.843 E2.29075
G0 F6000 X112.954 Y149.443
G1 F1200 X115.907 Y154.559 E2.40864
G1 X112.953 Y159.674 E2.52651
G1 X107.047 Y159.674 E2.64437
G1 X104.093 Y154.559 E2.76225
G1 X107.046 Y149.443 E2.88013
G1 X112.954 Y149.443 E2.99803
G0 F6000 X113.186 Y149.043
G1 F1200 X116.369 Y154.56 E3.12514
G1 X113.185 Y160.074 E3.2522
G1 X106.815 Y160.074 E3.37932
G1 X103.631 Y154.558 E3.50642
G1 X106.814 Y149.043 E3.6335
G1 X113.186 Y149.043 E3.76066
G0 F6000 X113.992 Y152.842
G1 F1200 X114.984 Y154.56 E3.80025
G1 X113.99 Y156.28 E3.83989
G1 X114.183 Y155.734 E3.85145
G1 X114.252 Y155.47 E3.85689
G1 X114.278 Y155.318 E3.85997
G1 X114.34 Y154.773 E3.87092
G1 X114.349 Y154.503 E3.87631
G1 X114.34 Y154.345 E3.87947
G1 X114.278 Y153.799 E3.89043
G1 X114.227 Y153.537 E3.89576
G1 X114.183 Y153.383 E3.89895
G1 X113.992 Y152.842 E3.9104
G0 F6000 X113.477 Y157.168
G1 F1200 X112.492 Y158.874 E3.94972
G1 X110.434 Y158.874 E3.99079
G1 X110.759 Y158.837 E3.99731
G1 X111.021 Y158.786 E4.00264
G1 X111.175 Y158.742 E4.00584
G1 X111.702 Y158.557 E4.01698
G1 X111.964 Y158.438 E4.02272
G1 X112.081 Y158.372 E4.02541
G1 X112.531 Y158.09 E4.036
G1 X112.869 Y157.824 E4.04459
G1 X113.27 Y157.422 E4.05592
G1 X113.46 Y157.193 E4.06186
G1 X113.477 Y157.168 E4.06246
G1 F1500 E-2.43754
G0 F6000 X110.304 Y157.351
G0 X106.523 Y157.168
G1 F1500 E4.06246
G1 F1200 X106.73 Y157.422 E4.069
G1 X107.131 Y157.824 E4.08033
G1 X107.36 Y158.015 E4.08628
G1 X107.469 Y158.09 E4.08892
G1 X107.919 Y158.372 E4.09952
G1 X108.298 Y158.557 E4.10793
G1 X108.825 Y158.742 E4.11908
G1 X109.089 Y158.811 E4.12453
G1 X109.241 Y158.837 E4.1276
G1 X109.566 Y158.874 E4.13413
G1 X107.508 Y158.874 E4.1752
G1 X106.523 Y157.168 E4.21451
G0 F6000 X106.008 Y152.842
G1 F1200 X105.817 Y153.383 E4.22596
G1 X105.748 Y153.647 E4.23141
G1 X105.722 Y153.799 E4.23449
G1 X105.66 Y154.345 E4.24545
G1 X105.651 Y154.615 E4.25084
G1 X105.66 Y154.773 E4.254
G1 X105.722 Y155.318 E4.26495
G1 X105.773 Y155.58 E4.27027
G1 X105.817 Y155.734 E4.27347
G1 X106.01 Y156.28 E4.28503
G1 X105.016 Y154.56 E4.32467
G1 X106.008 Y152.842 E4.36426
G1 F1500 E-2.13574
;MESH:RaspberryPi Platform_v1.stl
G0 F6000 X106.008 Y135.215
G0 X106.008 Y134.23
G0 X63.14 Y133.355
G0 X62.295 Y133.299
;TYPE:WALL-INNER
G1 F1500 E4.36426
G1 F1200 X62.561 Y133.097 E4.37093
G1 X62.788 Y132.863 E4.37743
G1 X62.981 Y132.592 E4.38407
G1 X63.167 Y132.209 E4.39257
G1 X63.257 Y131.885 E4.39928
G1 X63.299 Y131.558 E4.40586
G1 X63.29 Y131.229 E4.41243
G1 X63.233 Y130.902 E4.41905
G1 X63.087 Y130.501 E4.42757
G1 X62.918 Y130.21 E4.43428
G1 X62.713 Y129.953 E4.44084
G1 X62.472 Y129.728 E4.44742
G1 X62.199 Y129.543 E4.454
G1 X61.905 Y129.402 E4.46051
G1 X61.594 Y129.304 E4.46702
G1 X61.273 Y129.255 E4.4735
G1 X61.142 Y129.25 E4.47611
G1 X60.825 Y129.266 E4.48245
G1 X60.504 Y129.331 E4.48898
G1 X60.194 Y129.443 E4.49556
G1 X59.905 Y129.601 E4.50213
G1 X59.641 Y129.802 E4.50876
G1 X59.412 Y130.038 E4.51532
G1 X59.222 Y130.303 E4.52182
G1 X59.071 Y130.596 E4.5284
G1 X58.966 Y130.908 E4.53497
G1 X58.91 Y131.231 E4.54151
G1 X58.901 Y131.56 E4.54808
G1 X58.943 Y131.886 E4.55464
G1 X59.032 Y132.203 E4.56121
G1 X59.168 Y132.503 E4.56779
G1 X59.345 Y132.779 E4.57433
G1 X59.563 Y133.025 E4.58089
G1 X59.816 Y133.238 E4.58749
G1 X60.097 Y133.409 E4.59405
G1 X60.398 Y133.537 E4.60058
G1 X60.718 Y133.618 E4.60717
G1 X61.045 Y133.651 E4.61373
G1 X61.374 Y133.634 E4.6203
G1 X61.695 Y133.569 E4.62684
G1 X62.005 Y133.457 E4.63341
G1 X62.295 Y133.299 E4.64
G0 F6000 X62.077 Y132.962
;TYPE:WALL-OUTER
G1 F1200 X62.295 Y132.797 E4.64546
G1 X62.48 Y132.606 E4.65077
G1 X62.636 Y132.387 E4.65613
G1 X62.791 Y132.067 E4.66323
G1 X62.864 Y131.806 E4.66864
G1 X62.898 Y131.538 E4.67403
G1 X62.891 Y131.269 E4.6794
G1 X62.845 Y131.006 E4.68473
G1 X62.723 Y130.671 E4.69184
G1 X62.587 Y130.436 E4.69726
G1 X62.419 Y130.226 E4.70263
G1 X62.222 Y130.042 E4.70801
G1 X61.999 Y129.891 E4.71338
G1 X61.758 Y129.775 E4.71872
G1 X61.503 Y129.695 E4.72405
G1 X61.234 Y129.654 E4.72948
G1 X61.144 Y129.65 E4.73128
G1 X60.875 Y129.664 E4.73665
G1 X60.612 Y129.717 E4.74201
G1 X60.359 Y129.809 E4.74738
G1 X60.123 Y129.938 E4.75275
G1 X59.907 Y130.102 E4.75816
G1 X59.72 Y130.295 E4.76352
G1 X59.564 Y130.512 E4.76886
G1 X59.441 Y130.752 E4.77424
G1 X59.355 Y131.007 E4.77961
G1 X59.309 Y131.271 E4.78496
G1 X59.302 Y131.54 E4.79033
G1 X59.336 Y131.806 E4.79568
G1 X59.409 Y132.066 E4.80107
G1 X59.52 Y132.311 E4.80643
G1 X59.665 Y132.537 E4.81179
G1 X59.843 Y132.738 E4.81715
G1 X60.05 Y132.912 E4.82255
G1 X60.28 Y133.052 E4.82792
G1 X60.526 Y133.157 E4.83326
G1 X60.787 Y133.223 E4.83863
G1 X61.055 Y133.25 E4.84401
G1 X61.324 Y133.236 E4.84938
G1 X61.587 Y133.183 E4.85474
G1 X61.84 Y133.091 E4.86011
G1 X62.077 Y132.962 E4.86549
G0 F6000 X62.315 Y133.331
G1 F1500 E-1.63451
G0 F6000 X81.28 Y133.34
G0 X80.949 Y131.149
G0 X81.28 Y130.887
;TYPE:WALL-INNER
G1 F1500 E4.86549
G1 F1200 X81.651 Y130.771 E4.87325
G1 X82.002 Y130.604 E4.88101
G1 X82.326 Y130.382 E4.88885
G1 X82.607 Y130.12 E4.89651
G1 X82.85 Y129.815 E4.90429
G1 X83.047 Y129.476 E4.91212
G1 X83.189 Y129.111 E4.91993
G1 X83.274 Y128.732 E4.92769
G1 X83.302 Y128.347 E4.93539
G1 X83.272 Y127.951 E4.94331
G1 X83.152 Y127.474 E4.95313
G1 X82.983 Y127.099 E4.96134
G1 X82.771 Y126.775 E4.96907
G1 X82.515 Y126.485 E4.97678
G1 X82.213 Y126.233 E4.98463
G1 X81.885 Y126.033 E4.9923
G1 X81.525 Y125.88 E5.00011
G1 X81.146 Y125.787 E5.00789
G1 X80.762 Y125.748 E5.0156
G1 X80.371 Y125.768 E5.02341
G1 X79.992 Y125.846 E5.03113
G1 X79.625 Y125.98 E5.03893
G1 X79.282 Y126.169 E5.04674
G1 X78.974 Y126.403 E5.05446
G1 X78.705 Y126.68 E5.06217
G1 X78.473 Y127.006 E5.07015
G1 X78.256 Y127.451 E5.08003
G1 X78.15 Y127.836 E5.088
G1 X78.1 Y128.223 E5.09579
G1 X78.111 Y128.609 E5.1035
G1 X78.179 Y129 E5.11142
G1 X78.349 Y129.469 E5.12137
G1 X78.551 Y129.816 E5.12938
G1 X78.793 Y130.12 E5.13714
G1 X79.078 Y130.384 E5.14489
G1 X79.399 Y130.604 E5.15266
G1 X79.747 Y130.771 E5.16036
G1 X80.12 Y130.887 E5.16815
G1 X80.505 Y130.945 E5.17592
G1 X80.895 Y130.945 E5.18371
G1 X81.28 Y130.887 E5.19148
G0 F6000 X81.19 Y130.496
G1 F1200 X81.505 Y130.398 E5.19806
G1 X81.802 Y130.256 E5.20463
G1 X82.075 Y130.069 E5.21123
G1 X82.313 Y129.847 E5.21773
G1 X82.519 Y129.589 E5.22432
G1 X82.685 Y129.302 E5.23093
G1 X82.805 Y128.994 E5.23753
G1 X82.877 Y128.673 E5.2441
G1 X82.901 Y128.347 E5.25062
G1 X82.876 Y128.015 E5.25726
G1 X82.773 Y127.606 E5.26568
G1 X82.631 Y127.292 E5.27256
G1 X82.452 Y127.018 E5.27909
G1 X82.235 Y126.772 E5.28563
G1 X81.98 Y126.559 E5.29227
G1 X81.702 Y126.39 E5.29876
G1 X81.398 Y126.261 E5.30535
G1 X81.078 Y126.182 E5.31193
G1 X80.752 Y126.149 E5.31846
G1 X80.422 Y126.166 E5.32506
G1 X80.101 Y126.232 E5.3316
G1 X79.791 Y126.345 E5.33818
G1 X79.501 Y126.505 E5.34479
G1 X79.24 Y126.703 E5.35133
G1 X79.013 Y126.937 E5.35784
G1 X78.818 Y127.211 E5.36455
G1 X78.632 Y127.593 E5.37303
G1 X78.543 Y127.915 E5.37969
G1 X78.501 Y128.243 E5.38629
G1 X78.51 Y128.569 E5.3928
G1 X78.567 Y128.897 E5.39944
G1 X78.713 Y129.299 E5.40798
G1 X78.882 Y129.59 E5.41469
G1 X79.087 Y129.847 E5.42126
G1 X79.328 Y130.071 E5.42782
G1 X79.6 Y130.257 E5.4344
G1 X79.894 Y130.398 E5.4409
G1 X80.21 Y130.496 E5.44751
G1 X80.535 Y130.545 E5.45407
G1 X80.865 Y130.545 E5.46065
G1 X81.19 Y130.496 E5.46721
G0 F6000 X81.101 Y130.105
;TYPE:WALL-OUTER
G1 F1200 X81.359 Y130.025 E5.4726
G1 X81.601 Y129.909 E5.47796
G1 X81.824 Y129.756 E5.48335
G1 X82.019 Y129.574 E5.48868
G1 X82.188 Y129.363 E5.49407
G1 X82.323 Y129.129 E5.49946
G1 X82.421 Y128.877 E5.50486
G1 X82.48 Y128.614 E5.51024
G1 X82.5 Y128.347 E5.51558
G1 X82.48 Y128.079 E5.52094
G1 X82.394 Y127.739 E5.52794
G1 X82.279 Y127.485 E5.53351
G1 X82.133 Y127.261 E5.53884
G1 X81.955 Y127.06 E5.5442
G1 X81.746 Y126.885 E5.54964
G1 X81.519 Y126.747 E5.55494
G1 X81.271 Y126.642 E5.56032
G1 X81.009 Y126.577 E5.5657
G1 X80.742 Y126.55 E5.57106
G1 X80.473 Y126.564 E5.57643
G1 X80.21 Y126.618 E5.58179
G1 X79.957 Y126.71 E5.58716
G1 X79.72 Y126.841 E5.59257
G1 X79.506 Y127.003 E5.59792
G1 X79.321 Y127.194 E5.60323
G1 X79.163 Y127.416 E5.60867
G1 X79.008 Y127.735 E5.61575
G1 X78.936 Y127.994 E5.62111
G1 X78.902 Y128.263 E5.62652
G1 X78.909 Y128.529 E5.63183
G1 X78.955 Y128.794 E5.6372
G1 X79.077 Y129.129 E5.64431
G1 X79.213 Y129.364 E5.64973
G1 X79.381 Y129.574 E5.6551
G1 X79.578 Y129.758 E5.66048
G1 X79.8 Y129.909 E5.66584
G1 X80.041 Y130.025 E5.67117
G1 X80.299 Y130.105 E5.67656
G1 X80.565 Y130.145 E5.68193
G1 X80.835 Y130.145 E5.68732
G1 X81.101 Y130.105 E5.69269
G0 F6000 X81.199 Y130.533
G1 F1500 E-0.80731
G0 F6000 X79.731 Y130.03
G0 X79.278 Y129.669
G0 X78.95 Y129.187
G0 X78.77 Y128.542
G0 X78.796 Y128.025
G0 X79.546 Y125.806
G0 X80.322 Y127.496
G0 X60.978 Y76.504
G0 X61.756 Y78.215
G0 X61.303 Y78.155
;TYPE:WALL-INNER
G1 F1500 E5.69269
G1 F1200 X61.67 Y78.023 E5.70047
G1 X62.013 Y77.836 E5.70827
G1 X62.327 Y77.597 E5.71614
G1 X62.596 Y77.32 E5.72385
G1 X62.826 Y76.997 E5.73176
G1 X63.043 Y76.551 E5.74166
G1 X63.15 Y76.164 E5.74967
G1 X63.2 Y75.778 E5.75744
G1 X63.189 Y75.389 E5.76521
G1 X63.121 Y74.998 E5.77313
G1 X62.951 Y74.531 E5.78304
G1 X62.749 Y74.184 E5.79106
