;FLAVOR:Marlin
;TIME:2653
;Filament used: 1.02249m
;Layer height: 0.12
;MINX:101.95
;MINY:98.45
;MINZ:0.12
;MAXX:118.05
;MAXY:121.55
;MAXZ:20.04
;Generated with Cura_SteamEngine master
M140 S60
M105
M190 S60
M104 S205
M105
M109 S205
M82 ;absolute extrusion mode
; Ender 3 Custom Start G-code
G92 E0 ; Reset Extruder
G28 ; Home all axes
G1 Z2.0 F3000 ; Move Z Axis up little to prevent scratching of Heat Bed
G1 X0.1 Y20 Z0.3 F5000.0 ; Move to start position
G1 X0.1 Y200.0 Z0.3 F1500.0 E15 ; Draw the first line
G1 X0.4 Y200.0 Z0.3 F5000.0 ; Move to side a little
G1 X0.4 Y20 Z0.3 F1500.0 E30 ; Draw the second line
G92 E0 ; Reset Extruder
G1 Z2.0 F3000 ; Move Z Axis up little to prevent scratching of Heat Bed
G1 X5 Y20 Z0.3 F5000.0 ; Move over to prevent blob squish
G92 E0
G92 E0
G1 F1500 E-6.5
;LAYER_COUNT:167
;LAYER:0
M107
;MESH:SwitchHolder_v3.stl
G0 F6000 X117.65 Y121.15 Z0.12
;TYPE:WALL-INNER
G1 F1500 E0
G1 F1200 X102.35 Y121.15 E0.30533
G1 X102.35 Y114.35 E0.44103
G1 X103.15 Y114.35 E0.45699
G1 X103.15 Y120.35 E0.57673
G1 X116.85 Y120.35 E0.85013
G1 X116.85 Y99.65 E1.26322
G1 X103.15 Y99.65 E1.53662
G1 X103.15 Y102.65 E1.59649
G1 X102.35 Y102.65 E1.61245
G1 X102.35 Y98.85 E1.68828
G1 X117.65 Y98.85 E1.99361
G1 X117.65 Y121.15 E2.43863
G0 F6000 X118.05 Y121.55
;TYPE:WALL-OUTER
G1 F1200 X101.95 Y121.55 E2.75993
G1 X101.95 Y113.95 E2.91159
G1 X103.55 Y113.95 E2.94352
G1 X103.55 Y119.95 E3.06326
G1 X116.45 Y119.95 E3.32069
G1 X116.45 Y100.05 E3.71782
G1 X103.55 Y100.05 E3.97525
G1 X103.55 Y103.05 E4.03512
G1 X101.95 Y103.05 E4.06705
G1 X101.95 Y98.45 E4.15885
G1 X118.05 Y98.45 E4.48014
G1 X118.05 Y121.55 E4.94113
G0 F6000 X117.475 Y120.869
;TYPE:SKIN
G1 F1200 X117.024 Y120.418 E4.94749
G0 F6000 X117.071 Y120.748
G1 F1200 X116.789 Y120.748 E4.95391
G1 X103.495 Y120.748 E5.25663
G0 F6000 X103.437 Y120.973
G1 F1200 X102.987 Y120.524 E5.26298
G1 X102.975 Y120.511
G1 X102.524 Y120.061 E5.26933
G0 F6000 X102.524 Y120.343
G1 F1200 X103.154 Y120.973 E5.27822
G0 F6000 X102.698 Y120.799
G1 F1200 X102.556 Y120.941 E5.28222
G1 X102.749 Y119.72 E5.30683
G1 X102.749 Y114.912 E5.40255
G1 X102.951 Y114.547 E5.41086
G1 F1500 E-1.08914
G0 F6000 X102.927 Y114.524
G0 X103.322 Y120.178
G0 X116.678 Y120.178
G0 X116.678 Y99.822
G0 X103.322 Y99.822
G0 X102.757 Y102.474
G1 F1500 E5.41086
G1 F1200 X102.524 Y102.241 E5.41415
G0 F6000 X102.749 Y102.183
G1 F1200 X102.749 Y101.9 E5.42103
G1 X102.749 Y99.355 E5.48295
G0 F6000 X102.927 Y99.25
G1 F1200 X103.209 Y99.25 E5.48938
G1 X116.503 Y99.25 E5.79261
G0 F6000 X116.561 Y99.025
G1 F1200 X117.011 Y99.475 E5.79896
G1 X117.024 Y99.487
G1 X117.475 Y99.938 E5.80533
G0 F6000 X117.475 Y99.656
G1 F1200 X116.844 Y99.025 E5.81423
G0 F6000 X117.301 Y99.199
G1 F1200 X117.442 Y99.057 E5.81861
G1 X117.249 Y100.278 E5.84564
G1 X117.249 Y120.361 E6.28482
G0 F6000 X117.45 Y120.586
;MESH:NONMESH
G0 F300 X117.45 Y120.586 Z0.24
G0 F6000 X117.65 Y121.15
;TIME_ELAPSED:23.200476
;LAYER:1
M106 S85
;TYPE:WALL-INNER
;MESH:SwitchHolder_v3.stl
G1 F1500 X102.35 Y121.15 E6.59015
G1 X102.35 Y114.35 E6.72585
G1 X103.15 Y114.35 E6.74181
G1 X103.15 Y120.35 E6.86155
G1 X116.85 Y120.35 E7.13495
G1 X116.85 Y99.65 E7.54804
G1 X103.15 Y99.65 E7.82144
G1 X103.15 Y102.65 E7.8813
G1 X102.35 Y102.65 E7.89727
G1 X102.35 Y98.85 E7.9731
G1 X117.65 Y98.85 E8.27843
G1 X117.65 Y121.15 E8.72345
G0 F7500 X118.05 Y121.55
;TYPE:WALL-OUTER
G1 F1500 X101.95 Y121.55 E9.04474
G1 X101.95 Y113.95 E9.19641
G1 X103.55 Y113.95 E9.22834
G1 X103.55 Y119.95 E9.34808
G1 X116.45 Y119.95 E9.60551
G1 X116.45 Y100.05 E10.00264
G1 X103.55 Y100.05 E10.26007
G1 X103.55 Y103.05 E10.31994
G1 X101.95 Y103.05 E10.35187
G1 X101.95 Y98.45 E10.44367
G1 X118.05 Y98.45 E10.76496
G1 X118.05 Y121.55 E11.22594
G0 F7500 X117.78 Y121.28
G0 X117.474 Y120.679
;TYPE:SKIN
G1 F1500 X117.178 Y120.974 E11.23011
G0 F7500 X116.896 Y120.974
G1 F1500 X117.474 Y120.396 E11.23827
G0 F7500 X117.043 Y120.543
G1 F1500 X116.555 Y120.749 E11.25048
G1 X102.978 Y120.749 E11.56357
G1 X102.749 Y120.695 E11.569
G1 X102.749 Y114.756 E11.70595
G1 X102.611 Y114.611 E11.71057
G1 F1500 E5.21057
G0 F7500 X102.524 Y114.698
G0 X103.322 Y120.178
G0 X116.678 Y120.178
G0 X116.678 Y99.822
G0 X103.322 Y99.822
G0 X102.585 Y102.475
G0 X102.779 Y102.281
G1 F1500 E11.71057
G1 X102.92 Y102.422 E11.7151
G1 X102.748 Y101.746 E11.73097
G1 X102.748 Y100.049 E11.76958
G0 F7500 X102.524 Y99.991
G1 F1500 X102.973 Y99.541 E11.77592
G1 X103.04 Y99.475
G1 X103.49 Y99.024 E11.78228
G0 F7500 X103.207 Y99.024
G1 F1500 X102.524 Y99.708 E11.79192
G0 F7500 X102.724 Y99.224
G1 F1500 X102.583 Y99.083 E11.79626
G1 X103.83 Y99.249 E11.82363
G1 X117.124 Y99.249 E12.11289
G0 F7500 X117.249 Y99.407
G1 F1500 X117.249 Y99.69 E12.11939
G1 X117.249 Y120.054 E12.58751
G0 F7500 X117.45 Y119.83
;MESH:NONMESH
G0 F300 X117.45 Y119.83 Z0.36
G0 F7500 X117.65 Y121.15
;TIME_ELAPSED:38.906100
;LAYER:2
M106 S170
;TYPE:WALL-INNER
;MESH:SwitchHolder_v3.stl
G1 F1800 X102.35 Y121.15 E12.89284
G1 X102.35 Y114.35 E13.02854
G1 X103.15 Y114.35 E13.0445
G1 X103.15 Y120.35 E13.16424
G1 X116.85 Y120.35 E13.43764
G1 X116.85 Y99.65 E13.85073
G1 X103.15 Y99.65 E14.12413
G1 X103.15 Y102.65 E14.184
G1 X102.35 Y102.65 E14.19996
G1 X102.35 Y98.85 E14.27579
G1 X117.65 Y98.85 E14.58112
G1 X117.65 Y121.15 E15.02614
G0 F9000 X118.05 Y121.55
;TYPE:WALL-OUTER
G1 F1800 X101.95 Y121.55 E15.34744
G1 X101.95 Y113.95 E15.4991
G1 X103.55 Y113.95 E15.53103
G1 X103.55 Y119.95 E15.65077
G1 X116.45 Y119.95 E15.9082
G1 X116.45 Y100.05 E16.30533
G1 X103.55 Y100.05 E16.56276
G1 X103.55 Y103.05 E16.62263
G1 X101.95 Y103.05 E16.65456
G1 X101.95 Y98.45 E16.74636
G1 X118.05 Y98.45 E17.06765
G1 X118.05 Y121.55 E17.52864
G0 F9000 X117.475 Y120.869
;TYPE:SKIN
G1 F1800 X117.024 Y120.418 E17.535
G0 F9000 X117.071 Y120.748
G1 F1800 X116.789 Y120.748 E17.54142
G1 X103.495 Y120.748 E17.84414
G0 F9000 X103.437 Y120.973
G1 F1800 X102.987 Y120.524 E17.85049
G1 X102.975 Y120.511
G1 X102.524 Y120.061 E17.85684
G0 F9000 X102.524 Y120.343
G1 F1800 X103.154 Y120.973 E17.86573
G0 F9000 X102.698 Y120.799
G1 F1800 X102.556 Y120.941 E17.86973
G1 X102.749 Y119.72 E17.89434
G1 X102.749 Y114.912 E17.99006
G1 X102.951 Y114.547 E17.99837
G1 F1500 E11.49837
G0 F9000 X102.927 Y114.524
G0 X103.322 Y120.178
G0 X116.678 Y120.178
G0 X116.678 Y99.822
G0 X103.322 Y99.822
G0 X102.757 Y102.474
G1 F1500 E17.99837
G1 F1800 X102.524 Y102.241 E18.00166
G0 F9000 X102.749 Y102.183
G1 F1800 X102.749 Y101.9 E18.00854
G1 X102.749 Y99.355 E18.07046
G0 F9000 X102.927 Y99.25
G1 F1800 X103.209 Y99.25 E18.07689
G1 X116.503 Y99.25 E18.38012
G0 F9000 X116.561 Y99.025
G1 F1800 X117.011 Y99.475 E18.38647
G1 X117.024 Y99.487
G1 X117.475 Y99.938 E18.39284
G0 F9000 X117.475 Y99.656
G1 F1800 X116.844 Y99.025 E18.40174
G0 F9000 X117.301 Y99.199
G1 F1800 X117.442 Y99.057 E18.40612
G1 X117.249 Y100.278 E18.43315
G1 X117.249 Y120.361 E18.87233
G0 F9000 X117.45 Y120.586
;MESH:NONMESH
G0 F300 X117.45 Y120.586 Z0.48
G0 F9000 X117.65 Y121.15
;TIME_ELAPSED:52.988910
;LAYER:3
M106 S255
;TYPE:WALL-INNER
;MESH:SwitchHolder_v3.stl
G1 F1800 X102.35 Y121.15 E19.17766
G1 X102.35 Y114.35 E19.31336
G1 X103.15 Y114.35 E19.32932
G1 X103.15 Y120.35 E19.44906
G1 X116.85 Y120.35 E19.72246
G1 X116.85 Y99.65 E20.13555
G1 X103.15 Y99.65 E20.40895
G1 X103.15 Y102.65 E20.46881
G1 X102.35 Y102.65 E20.48478
G1 X102.35 Y98.85 E20.56061
G1 X117.65 Y98.85 E20.86594
G1 X117.65 Y121.15 E21.31096
G0 F9000 X118.05 Y121.55
;TYPE:WALL-OUTER
G1 F1800 X101.95 Y121.55 E21.63225
G1 X101.95 Y113.95 E21.78392
G1 X103.55 Y113.95 E21.81585
G1 X103.55 Y119.95 E21.93559
G1 X116.45 Y119.95 E22.19302
G1 X116.45 Y100.05 E22.59015
G1 X103.55 Y100.05 E22.84758
G1 X103.55 Y103.05 E22.90745
G1 X101.95 Y103.05 E22.93938
G1 X101.95 Y98.45 E23.03117
G1 X118.05 Y98.45 E23.35247
G1 X118.05 Y121.55 E23.81345
G0 F9000 X117.78 Y121.28
G0 X117.474 Y120.679
;TYPE:SKIN
G1 F1800 X117.178 Y120.974 E23.81762
G0 F9000 X116.896 Y120.974
G1 F1800 X117.474 Y120.396 E23.82578
G0 F9000 X117.043 Y120.543
G1 F1800 X116.555 Y120.749 E23.83799
G1 X102.978 Y120.749 E24.15108
G1 X102.749 Y120.695 E24.15651
G1 X102.749 Y114.756 E24.29346
G1 X102.611 Y114.611 E24.29808
G1 F1500 E17.79808
G0 F9000 X102.524 Y114.698
G0 X103.322 Y120.178
G0 X116.678 Y120.178
G0 X116.678 Y99.822
G0 X103.322 Y99.822
G0 X102.585 Y102.475
G0 X102.779 Y102.281
G1 F1500 E24.29808
G1 F1800 X102.92 Y102.422 E24.30261
G1 X102.748 Y101.746 E24.31848
G1 X102.748 Y100.049 E24.35709
G0 F9000 X102.524 Y99.991
G1 F1800 X102.973 Y99.541 E24.36343
G1 X103.04 Y99.475
G1 X103.49 Y99.024 E24.36979
G0 F9000 X103.207 Y99.024
G1 F1800 X102.524 Y99.708 E24.37943
G0 F9000 X102.724 Y99.224
G1 F1800 X102.583 Y99.083 E24.38377
G1 X103.83 Y99.249 E24.41114
G1 X117.124 Y99.249 E24.7004
G0 F9000 X117.249 Y99.407
G1 F1800 X117.249 Y99.69 E24.7069
G1 X117.249 Y120.054 E25.17502
G0 F9000 X117.45 Y119.83
;MESH:NONMESH
G0 F300 X117.45 Y119.83 Z0.6
G0 F9000 X117.65 Y121.15
;TIME_ELAPSED:66.918168
;LAYER:4
;TYPE:WALL-INNER
;MESH:SwitchHolder_v3.stl
G1 F1800 X102.35 Y121.15 E25.48035
G1 X102.35 Y114.35 E25.61605
G1 X103.15 Y114.35 E25.63201
G1 X103.15 Y120.35 E25.75175
G1 X116.85 Y120.35 E26.02515
G1 X116.85 Y99.65 E26.43824
G1 X103.15 Y99.65 E26.71164
G1 X103.15 Y102.65 E26.77151
G1 X102.35 Y102.65 E26.78747
G1 X102.35 Y98.85 E26.8633
G1 X117.65 Y98.85 E27.16863
G1 X117.65 Y121.15 E27.61365
G0 F9000 X118.05 Y121.55
;TYPE:WALL-OUTER
G1 F1800 X101.95 Y121.55 E27.93495
G1 X101.95 Y113.95 E28.08661
G1 X103.55 Y113.95 E28.11854
G1 X103.55 Y119.95 E28.23828
G1 X116.45 Y119.95 E28.49571
G1 X116.45 Y100.05 E28.89284
G1 X103.55 Y100.05 E29.15027
G1 X103.55 Y103.05 E29.21014
G1 X101.95 Y103.05 E29.24207
G1 X101.95 Y98.45 E29.33387
G1 X118.05 Y98.45 E29.65516
G1 X118.05 Y121.55 E30.11614
G0 F9000 X117.475 Y120.869
;TYPE:SKIN
G1 F1800 X117.024 Y120.418 E30.12251
G0 F9000 X117.071 Y120.748
G1 F1800 X116.789 Y120.748 E30.12893
G1 X103.495 Y120.748 E30.43165
G0 F9000 X103.437 Y120.973
G1 F1800 X102.987 Y120.524 E30.438
G1 X102.975 Y120.511
G1 X102.524 Y120.061 E30.44435
G0 F9000 X102.524 Y120.343
G1 F1800 X103.154 Y120.973 E30.45324
G0 F9000 X102.698 Y120.799
G1 F1800 X102.556 Y120.941 E30.45724
G1 X102.749 Y119.72 E30.48185
G1 X102.749 Y114.912 E30.57757
G1 X102.951 Y114.547 E30.58588
G1 F1500 E24.08588
G0 F9000 X102.927 Y114.524
G0 X103.322 Y120.178
G0 X116.678 Y120.178
G0 X116.678 Y99.822
G0 X103.322 Y99.822
G0 X102.757 Y102.474
G1 F1500 E30.58588
G1 F1800 X102.524 Y102.241 E30.58917
G0 F9000 X102.749 Y102.183
G1 F1800 X102.749 Y101.9 E30.59605
G1 X102.749 Y99.355 E30.65797
G0 F9000 X102.927 Y99.25
G1 F1800 X103.209 Y99.25 E30.6644
G1 X116.503 Y99.25 E30.96763
G0 F9000 X116.561 Y99.025
G1 F1800 X117.011 Y99.475 E30.97398
G1 X117.024 Y99.487
G1 X117.475 Y99.938 E30.98035
G0 F9000 X117.475 Y99.656
G1 F1800 X116.844 Y99.025 E30.98925
G0 F9000 X117.301 Y99.199
G1 F1800 X117.442 Y99.057 E30.99363
G1 X117.249 Y100.278 E31.02066
G1 X117.249 Y120.361 E31.45984
G0 F9000 X117.45 Y120.586
;MESH:NONMESH
G0 F300 X117.45 Y120.586 Z0.72
G0 F9000 X117.65 Y121.15
;TIME_ELAPSED:81.000977
;LAYER:5
;TYPE:WALL-INNER
;MESH:SwitchHolder_v3.stl
G1 F1800 X102.35 Y121.15 E31.76517
G1 X102.35 Y114.35 E31.90087
G1 X103.15 Y114.35 E31.91683
G1 X103.15 Y120.35 E32.03657
G1 X116.85 Y120.35 E32.30997
G1 X116.85 Y99.65 E32.72306
G1 X103.15 Y99.65 E32.99646
G1 X103.15 Y102.65 E33.05632
G1 X102.35 Y102.65 E33.07229
G1 X102.35 Y98.85 E33.14812
G1 X117.65 Y98.85 E33.45345
G1 X117.65 Y121.15 E33.89847
G0 F9000 X118.05 Y121.55
;TYPE:WALL-OUTER
G1 F1800 X101.95 Y121.55 E34.21976
G1 X101.95 Y113.95 E34.37143
G1 X103.55 Y113.95 E34.40336
G1 X103.55 Y119.95 E34.5231
G1 X116.45 Y119.95 E34.78053
G1 X116.45 Y100.05 E35.17766
G1 X103.55 Y100.05 E35.43509
G1 X103.55 Y103.05 E35.49496
G1 X101.95 Y103.05 E35.52689
G1 X101.95 Y98.45 E35.61868
G1 X118.05 Y98.45 E35.93998
G1 X118.05 Y121.55 E36.40096
G0 F9000 X117.78 Y121.28
G0 X117.474 Y120.679
;TYPE:SKIN
G1 F1800 X117.178 Y120.974 E36.40513
G0 F9000 X116.896 Y120.974
G1 F1800 X117.474 Y120.396 E36.41329
G0 F9000 X117.043 Y120.543
G1 F1800 X116.555 Y120.749 E36.4255
G1 X102.978 Y120.749 E36.73859
G1 X102.749 Y120.695 E36.74402
G1 X102.749 Y114.756 E36.88097
G1 X102.611 Y114.611 E36.88559
G1 F1500 E30.38559
G0 F9000 X102.524 Y114.698
G0 X103.322 Y120.178
G0 X116.678 Y120.178
G0 X116.678 Y99.822
G0 X103.322 Y99.822
G0 X102.585 Y102.475
G0 X102.779 Y102.281
G1 F1500 E36.88559
G1 F1800 X102.92 Y102.422 E36.89012
G1 X102.748 Y101.746 E36.90599
G1 X102.748 Y100.049 E36.9446
G0 F9000 X102.524 Y99.991
G1 F1800 X102.973 Y99.541 E36.95094
G1 X103.04 Y99.475
G1 X103.49 Y99.024 E36.9573
G0 F9000 X103.207 Y99.024
G1 F1800 X102.524 Y99.708 E36.96694
G0 F9000 X102.724 Y99.224
G1 F1800 X102.583 Y99.083 E36.97128
G1 X103.83 Y99.249 E36.99865
G1 X117.124 Y99.249 E37.28791
G0 F9000 X117.249 Y99.407
G1 F1800 X117.249 Y99.69 E37.29441
G1 X117.249 Y120.054 E37.76253
G0 F9000 X117.45 Y119.83
;MESH:NONMESH
G0 F300 X117.45 Y119.83 Z0.84
G0 F9000 X117.65 Y121.15
;TIME_ELAPSED:94.930235
;LAYER:6
;TYPE:WALL-INNER
;MESH:SwitchHolder_v3.stl
G1 F1800 X102.35 Y121.15 E38.06786
G1 X102.35 Y114.35 E38.20356
G1 X103.15 Y114.35 E38.21952
G1 X103.15 Y120.35 E38.33926
G1 X116.85 Y120.35 E38.61266
G1 X116.85 Y99.65 E39.02575
G1 X103.15 Y99.65 E39.29915
G1 X103.15 Y102.65 E39.35902
G1 X102.35 Y102.65 E39.37498
G1 X102.35 Y98.85 E39.45081
G1 X117.65 Y98.85 E39.75614
G1 X117.65 Y121.15 E40.20116
G0 F9000 X118.05 Y121.55
;TYPE:WALL-OUTER
G1 F1800 X101.95 Y121.55 E40.52245
G1 X101.95 Y113.95 E40.67412
G1 X103.55 Y113.95 E40.70605
G1 X103.55 Y119.95 E40.82579
G1 X116.45 Y119.95 E41.08322
G1 X116.45 Y100.05 E41.48035
G1 X103.55 Y100.05 E41.73778
G1 X103.55 Y103.05 E41.79765
G1 X101.95 Y103.05 E41.82958
G1 X101.95 Y98.45 E41.92138
G1 X118.05 Y98.45 E42.24267
G1 X118.05 Y121.55 E42.70365
G0 F9000 X117.475 Y120.869
;TYPE:SKIN
G1 F1800 X117.024 Y120.418 E42.71002
G0 F9000 X117.071 Y120.748
G1 F1800 X116.789 Y120.748 E42.71644
G1 X103.495 Y120.748 E43.01916
G0 F9000 X103.437 Y120.973
G1 F1800 X102.987 Y120.524 E43.02551
G1 X102.975 Y120.511
G1 X102.524 Y120.061 E43.03186
G0 F9000 X102.524 Y120.343
G1 F1800 X103.154 Y120.973 E43.04075
G0 F9000 X102.698 Y120.799
G1 F1800 X102.556 Y120.941 E43.04475
G1 X102.749 Y119.72 E43.06936
G1 X102.749 Y114.912 E43.16508
G1 X102.951 Y114.547 E43.17339
G1 F1500 E36.67339
G0 F9000 X102.927 Y114.524
G0 X103.322 Y120.178
G0 X116.678 Y120.178
G0 X116.678 Y99.822
G0 X103.322 Y99.822
G0 X102.757 Y102.474
G1 F1500 E43.17339
G1 F1800 X102.524 Y102.241 E43.17668
G0 F9000 X102.749 Y102.183
G1 F1800 X102.749 Y101.9 E43.18356
G1 X102.749 Y99.355 E43.24548
G0 F9000 X102.927 Y99.25
G1 F1800 X103.209 Y99.25 E43.25191
G1 X116.503 Y99.25 E43.55514
G0 F9000 X116.561 Y99.025
G1 F1800 X117.011 Y99.475 E43.56149
G1 X117.024 Y99.487
G1 X117.475 Y99.938 E43.56785
G0 F9000 X117.475 Y99.656
G1 F1800 X116.844 Y99.025 E43.57676
G0 F9000 X117.301 Y99.199
G1 F1800 X117.442 Y99.057 E43.58113
G1 X117.249 Y100.278 E43.60817
G1 X117.249 Y120.361 E44.04735
G0 F9000 X117.45 Y120.586
;MESH:NONMESH
G0 F300 X117.45 Y120.586 Z0.96
G0 F9000 X117.65 Y121.15
;TIME_ELAPSED:109.013045
;LAYER:7
;TYPE:WALL-INNER
;MESH:SwitchHolder_v3.stl
G1 F1800 X102.35 Y121.15 E44.35267
G1 X102.35 Y114.35 E44.48838
G1 X103.15 Y114.35 E44.50434
G1 X103.15 Y120.35 E44.62408
G1 X116.85 Y120.35 E44.89748
G1 X116.85 Y99.65 E45.31057
G1 X103.15 Y99.65 E45.58397
G1 X103.15 Y102.65 E45.64383
G1 X102.35 Y102.65 E45.6598
G1 X102.35 Y98.85 E45.73563
G1 X117.65 Y98.85 E46.04096
G1 X117.65 Y121.15 E46.48598
G0 F9000 X118.05 Y121.55
;TYPE:WALL-OUTER
G1 F1800 X101.95 Y121.55 E46.80727
G1 X101.95 Y113.95 E46.95894
G1 X103.55 Y113.95 E46.99087
G1 X103.55 Y119.95 E47.11061
G1 X116.45 Y119.95 E47.36804
G1 X116.45 Y100.05 E47.76516
G1 X103.55 Y100.05 E48.0226
G1 X103.55 Y103.05 E48.08247
G1 X101.95 Y103.05 E48.1144
G1 X101.95 Y98.45 E48.20619
G1 X118.05 Y98.45 E48.52749
G1 X118.05 Y121.55 E48.98847
G0 F9000 X117.78 Y121.28
G0 X117.474 Y120.679
;TYPE:SKIN
G1 F1800 X117.178 Y120.974 E48.99264
G0 F9000 X116.896 Y120.974
G1 F1800 X117.474 Y120.396 E49.0008
G0 F9000 X117.043 Y120.543
