;FLAVOR:Marlin
;TIME:2354
;Filament used: 0.743388m
;Layer height: 0.12
;MINX:103.7
;MINY:99.95
;MINZ:0.12
;MAXX:116.3
;MAXY:120.915
;MAXZ:20.04
;Generated with Cura_SteamEngine master
M140 S60
M105
M190 S60
M104 S205
M105
M109 S205
M82 ;absolute extrusion mode
; Ender 3 Custom Start G-code
G92 E0 ; Reset Extruder
G28 ; Home all axes
G1 Z2.0 F3000 ; Move Z Axis up little to prevent scratching of Heat Bed
G1 X0.1 Y20 Z0.3 F5000.0 ; Move to start position
G1 X0.1 Y200.0 Z0.3 F1500.0 E15 ; Draw the first line
G1 X0.4 Y200.0 Z0.3 F5000.0 ; Move to side a little
G1 X0.4 Y20 Z0.3 F1500.0 E30 ; Draw the second line
G92 E0 ; Reset Extruder
G1 Z2.0 F3000 ; Move Z Axis up little to prevent scratching of Heat Bed
G1 X5 Y20 Z0.3 F5000.0 ; Move over to prevent blob squish
G92 E0
G92 E0
G1 F1500 E-6.5
;LAYER_COUNT:167
;LAYER:0
M107
;MESH:SwitchHolder_v1.stl
G0 F6000 X115.9 Y119.65 Z0.12
;TYPE:WALL-INNER
G1 F1500 E0
G1 F1200 X104.1 Y119.65 E0.23548
G1 X104.1 Y115.85 E0.31131
G1 X104.9 Y115.85 E0.32728
G1 X104.9 Y118.85 E0.38715
G1 X115.1 Y118.85 E0.5907
G1 X115.1 Y101.15 E0.94392
G1 X104.1 Y101.15 E1.16344
G1 X104.1 Y100.35 E1.1794
G1 X115.9 Y100.35 E1.41489
G1 X115.9 Y119.65 E1.80004
G0 F6000 X116.3 Y120.05
;TYPE:WALL-OUTER
G1 F1200 X103.7 Y120.05 E2.05149
G1 X103.7 Y115.45 E2.14328
G1 X105.3 Y115.45 E2.17521
G1 X105.3 Y118.45 E2.23508
G1 X114.7 Y118.45 E2.42267
G1 X114.7 Y101.55 E2.75993
G1 X103.7 Y101.55 E2.97944
G1 X103.7 Y99.95 E3.01137
G1 X116.3 Y99.95 E3.26282
G1 X116.3 Y120.05 E3.66394
G0 F6000 X115.499 Y119.176
;TYPE:SKIN
G1 F1200 X115.289 Y119.249 E3.6691
G1 X105.107 Y119.249 E3.90573
G1 X104.661 Y119.086 E3.91677
G1 X104.499 Y118.359 E3.93408
G1 X104.499 Y116.379 E3.98009
G1 X104.576 Y116.172 E3.98523
G0 F6000 X104.427 Y116.024
G0 X104.274 Y118.982
G1 F1200 X104.766 Y119.474 E3.99217
G0 F6000 X104.483 Y119.474
G1 F1200 X104.274 Y119.265 E3.99512
G0 F6000 X115.274 Y118.668
G0 X115.499 Y118.893
G1 F1200 X115.499 Y118.61 E4.00157
G1 X115.499 Y101.356 E4.39493
G1 X115.337 Y100.912 E4.4057
G0 F6000 X115.232 Y100.525
G1 F1200 X115.725 Y101.017 E4.41265
G0 F6000 X115.62 Y100.629
G1 F1200 X114.891 Y100.749 E4.42845
G1 X104.709 Y100.749 E4.64614
G1 X104.321 Y100.927 E4.65527
G0 F6000 X104.3 Y100.88
;MESH:NONMESH
G0 F300 X104.3 Y100.88 Z0.24
G0 F6000 X114.928 Y101.322
G0 X115.9 Y119.65
;TIME_ELAPSED:17.821483
;LAYER:1
M106 S85
;TYPE:WALL-INNER
;MESH:SwitchHolder_v1.stl
G1 F1441.6 X104.1 Y119.65 E4.89075
G1 X104.1 Y115.85 E4.96658
G1 X104.9 Y115.85 E4.98255
G1 X104.9 Y118.85 E5.04241
G1 X115.1 Y118.85 E5.24597
G1 X115.1 Y101.15 E5.59919
G1 X104.1 Y101.15 E5.81871
G1 X104.1 Y100.35 E5.83467
G1 X115.9 Y100.35 E6.07015
G1 X115.9 Y119.65 E6.4553
G0 F7500 X116.3 Y120.05
;TYPE:WALL-OUTER
G1 F1441.6 X103.7 Y120.05 E6.70675
G1 X103.7 Y115.45 E6.79855
G1 X105.3 Y115.45 E6.83048
G1 X105.3 Y118.45 E6.89035
G1 X114.7 Y118.45 E7.07793
G1 X114.7 Y101.55 E7.41519
G1 X103.7 Y101.55 E7.63471
G1 X103.7 Y99.95 E7.66664
G1 X116.3 Y99.95 E7.91809
G1 X116.3 Y120.05 E8.3192
G0 F7500 X115.567 Y119.474
;TYPE:SKIN
G1 F1441.6 X115.724 Y119.317 E8.32142
G0 F7500 X115.724 Y119.035
G1 F1441.6 X115.284 Y119.474 E8.32762
G0 F7500 X115.362 Y119.113
G1 F1441.6 X115.499 Y118.693 E8.33749
G1 X114.943 Y119.249 E8.35506
G1 X104.761 Y119.249 E8.58257
G1 X104.499 Y119.228 E8.58844
G1 X104.499 Y116.4 E8.65163
G1 X104.292 Y116.041 E8.66089
G0 F7500 X104.31 Y116.024
G0 X105.072 Y118.678
G0 X114.928 Y118.678
G0 X115.275 Y116.089
G0 X115.499 Y115.864
G1 F1441.6 X115.499 Y115.582 E8.66744
G1 X115.499 Y100.875 E9.0089
G0 F7500 X115.341 Y100.749
G1 F1441.6 X115.059 Y100.749 E9.01534
G1 X104.593 Y100.749 E9.2543
G1 X104.405 Y100.655 E9.2591
G0 F7500 X104.274 Y100.786
G0 X114.928 Y101.322
G0 X115.724 Y115.923
G0 X115.499 Y116.147
G1 F1441.6 X115.499 Y116.43 E9.26681
G1 X115.499 Y118.41 E9.32077
G0 F7500 X115.3 Y118.635
;MESH:NONMESH
G0 F300 X115.3 Y118.635 Z0.36
G0 F7500 X115.9 Y119.65
;TIME_ELAPSED:29.507604
;LAYER:2
M106 S170
;TYPE:WALL-INNER
;MESH:SwitchHolder_v1.stl
G1 F1388 X104.1 Y119.65 E9.55625
G1 X104.1 Y115.85 E9.63208
G1 X104.9 Y115.85 E9.64805
G1 X104.9 Y118.85 E9.70791
G1 X115.1 Y118.85 E9.91147
G1 X115.1 Y101.15 E10.26469
G1 X104.1 Y101.15 E10.48421
G1 X104.1 Y100.35 E10.50017
G1 X115.9 Y100.35 E10.73565
G1 X115.9 Y119.65 E11.1208
G0 F9000 X116.3 Y120.05
;TYPE:WALL-OUTER
G1 F1388 X103.7 Y120.05 E11.37225
G1 X103.7 Y115.45 E11.46405
G1 X105.3 Y115.45 E11.49598
G1 X105.3 Y118.45 E11.55585
G1 X114.7 Y118.45 E11.74343
G1 X114.7 Y101.55 E12.08069
G1 X103.7 Y101.55 E12.30021
G1 X103.7 Y99.95 E12.33214
G1 X116.3 Y99.95 E12.58359
G1 X116.3 Y120.05 E12.9847
G0 F9000 X115.499 Y119.176
;TYPE:SKIN
G1 F1388 X115.289 Y119.249 E12.98987
G1 X105.107 Y119.249 E13.2265
G1 X104.661 Y119.086 E13.23753
G1 X104.499 Y118.359 E13.25484
G1 X104.499 Y116.379 E13.30086
G1 X104.576 Y116.172 E13.30599
G0 F9000 X104.427 Y116.024
G0 X104.274 Y118.982
G1 F1388 X104.766 Y119.474 E13.31293
G0 F9000 X104.483 Y119.474
G1 F1388 X104.274 Y119.265 E13.31588
G0 F9000 X115.274 Y118.668
G0 X115.499 Y118.893
G1 F1388 X115.499 Y118.61 E13.32234
G1 X115.499 Y101.356 E13.71569
G1 X115.337 Y100.912 E13.72647
G0 F9000 X115.232 Y100.525
G1 F1388 X115.725 Y101.017 E13.73342
G0 F9000 X115.62 Y100.629
G1 F1388 X114.891 Y100.749 E13.74922
G1 X104.709 Y100.749 E13.96691
G1 X104.321 Y100.927 E13.97603
G0 F9000 X104.3 Y100.88
;MESH:NONMESH
G0 F300 X104.3 Y100.88 Z0.48
G0 F9000 X114.928 Y101.322
G0 X115.9 Y119.65
;TIME_ELAPSED:41.400744
;LAYER:3
M106 S255
;TYPE:WALL-INNER
;MESH:SwitchHolder_v1.stl
G1 F1428.3 X104.1 Y119.65 E14.21151
G1 X104.1 Y115.85 E14.28735
G1 X104.9 Y115.85 E14.30331
G1 X104.9 Y118.85 E14.36318
G1 X115.1 Y118.85 E14.56673
G1 X115.1 Y101.15 E14.91995
G1 X104.1 Y101.15 E15.13947
G1 X104.1 Y100.35 E15.15544
G1 X115.9 Y100.35 E15.39092
G1 X115.9 Y119.65 E15.77607
G0 F9000 X116.3 Y120.05
;TYPE:WALL-OUTER
G1 F1428.3 X103.7 Y120.05 E16.02752
G1 X103.7 Y115.45 E16.11932
G1 X105.3 Y115.45 E16.15125
G1 X105.3 Y118.45 E16.21111
G1 X114.7 Y118.45 E16.3987
G1 X114.7 Y101.55 E16.73596
G1 X103.7 Y101.55 E16.95548
G1 X103.7 Y99.95 E16.9874
G1 X116.3 Y99.95 E17.23885
G1 X116.3 Y120.05 E17.63997
G0 F9000 X115.567 Y119.474
;TYPE:SKIN
G1 F1428.3 X115.724 Y119.317 E17.64218
G0 F9000 X115.724 Y119.035
G1 F1428.3 X115.284 Y119.474 E17.64839
G0 F9000 X115.362 Y119.113
G1 F1428.3 X115.499 Y118.693 E17.65826
G1 X114.943 Y119.249 E17.67583
G1 X104.761 Y119.249 E17.90333
G1 X104.499 Y119.228 E17.90921
G1 X104.499 Y116.4 E17.9724
G1 X104.292 Y116.041 E17.98166
G0 F9000 X104.31 Y116.024
G0 X105.072 Y118.678
G0 X114.928 Y118.678
G0 X115.275 Y116.089
G0 X115.499 Y115.864
G1 F1428.3 X115.499 Y115.582 E17.9882
G1 X115.499 Y100.875 E18.32967
G0 F9000 X115.341 Y100.749
G1 F1428.3 X115.059 Y100.749 E18.33611
G1 X104.593 Y100.749 E18.57507
G1 X104.405 Y100.655 E18.57987
G0 F9000 X104.274 Y100.786
G0 X114.928 Y101.322
G0 X115.724 Y115.923
G0 X115.499 Y116.147
G1 F1428.3 X115.499 Y116.43 E18.58758
G1 X115.499 Y118.41 E18.64153
G0 F9000 X115.3 Y118.635
;MESH:NONMESH
G0 F300 X115.3 Y118.635 Z0.6
G0 F9000 X115.9 Y119.65
;TIME_ELAPSED:53.174906
;LAYER:4
;TYPE:WALL-INNER
;MESH:SwitchHolder_v1.stl
G1 F1388 X104.1 Y119.65 E18.87701
G1 X104.1 Y115.85 E18.95285
G1 X104.9 Y115.85 E18.96881
G1 X104.9 Y118.85 E19.02868
G1 X115.1 Y118.85 E19.23223
G1 X115.1 Y101.15 E19.58545
G1 X104.1 Y101.15 E19.80497
G1 X104.1 Y100.35 E19.82094
G1 X115.9 Y100.35 E20.05642
G1 X115.9 Y119.65 E20.44157
G0 F9000 X116.3 Y120.05
;TYPE:WALL-OUTER
G1 F1388 X103.7 Y120.05 E20.69302
G1 X103.7 Y115.45 E20.78481
G1 X105.3 Y115.45 E20.81674
G1 X105.3 Y118.45 E20.87661
G1 X114.7 Y118.45 E21.0642
G1 X114.7 Y101.55 E21.40146
G1 X103.7 Y101.55 E21.62097
G1 X103.7 Y99.95 E21.6529
G1 X116.3 Y99.95 E21.90435
G1 X116.3 Y120.05 E22.30547
G0 F9000 X115.499 Y119.176
;TYPE:SKIN
G1 F1388 X115.289 Y119.249 E22.31063
G1 X105.107 Y119.249 E22.54726
G1 X104.661 Y119.086 E22.5583
G1 X104.499 Y118.359 E22.57561
G1 X104.499 Y116.379 E22.62163
G1 X104.576 Y116.172 E22.62676
G0 F9000 X104.427 Y116.024
G0 X104.274 Y118.982
G1 F1388 X104.766 Y119.474 E22.6337
G0 F9000 X104.483 Y119.474
G1 F1388 X104.274 Y119.265 E22.63665
G0 F9000 X115.274 Y118.668
G0 X115.499 Y118.893
G1 F1388 X115.499 Y118.61 E22.6431
G1 X115.499 Y101.356 E23.03646
G1 X115.337 Y100.912 E23.04724
G0 F9000 X115.232 Y100.525
G1 F1388 X115.725 Y101.017 E23.05419
G0 F9000 X115.62 Y100.629
G1 F1388 X114.891 Y100.749 E23.06998
G1 X104.709 Y100.749 E23.28767
G1 X104.321 Y100.927 E23.2968
G0 F9000 X104.3 Y100.88
;MESH:NONMESH
G0 F300 X104.3 Y100.88 Z0.72
G0 F9000 X114.928 Y101.322
G0 X115.9 Y119.65
;TIME_ELAPSED:65.068046
;LAYER:5
;TYPE:WALL-INNER
;MESH:SwitchHolder_v1.stl
G1 F1428.3 X104.1 Y119.65 E23.53228
G1 X104.1 Y115.85 E23.60811
G1 X104.9 Y115.85 E23.62408
G1 X104.9 Y118.85 E23.68395
G1 X115.1 Y118.85 E23.8875
G1 X115.1 Y101.15 E24.24072
G1 X104.1 Y101.15 E24.46024
G1 X104.1 Y100.35 E24.4762
G1 X115.9 Y100.35 E24.71168
G1 X115.9 Y119.65 E25.09684
G0 F9000 X116.3 Y120.05
;TYPE:WALL-OUTER
G1 F1428.3 X103.7 Y120.05 E25.34828
G1 X103.7 Y115.45 E25.44008
G1 X105.3 Y115.45 E25.47201
G1 X105.3 Y118.45 E25.53188
G1 X114.7 Y118.45 E25.71947
G1 X114.7 Y101.55 E26.05672
G1 X103.7 Y101.55 E26.27624
G1 X103.7 Y99.95 E26.30817
G1 X116.3 Y99.95 E26.55962
G1 X116.3 Y120.05 E26.96073
G0 F9000 X115.567 Y119.474
;TYPE:SKIN
G1 F1428.3 X115.724 Y119.317 E26.96295
G0 F9000 X115.724 Y119.035
G1 F1428.3 X115.284 Y119.474 E26.96915
G0 F9000 X115.362 Y119.113
G1 F1428.3 X115.499 Y118.693 E26.97902
G1 X114.943 Y119.249 E26.99659
G1 X104.761 Y119.249 E27.2241
G1 X104.499 Y119.228 E27.22997
G1 X104.499 Y116.4 E27.29316
G1 X104.292 Y116.041 E27.30242
G0 F9000 X104.31 Y116.024
G0 X105.072 Y118.678
G0 X114.928 Y118.678
G0 X115.275 Y116.089
G0 X115.499 Y115.864
G1 F1428.3 X115.499 Y115.582 E27.30897
G1 X115.499 Y100.875 E27.65044
G0 F9000 X115.341 Y100.749
G1 F1428.3 X115.059 Y100.749 E27.65687
G1 X104.593 Y100.749 E27.89583
G1 X104.405 Y100.655 E27.90063
G0 F9000 X104.274 Y100.786
G0 X114.928 Y101.322
G0 X115.724 Y115.923
G0 X115.499 Y116.147
G1 F1428.3 X115.499 Y116.43 E27.90835
G1 X115.499 Y118.41 E27.9623
G0 F9000 X115.3 Y118.635
;MESH:NONMESH
G0 F300 X115.3 Y118.635 Z0.84
G0 F9000 X115.9 Y119.65
;TIME_ELAPSED:76.842207
;LAYER:6
;TYPE:WALL-INNER
;MESH:SwitchHolder_v1.stl
G1 F1388 X104.1 Y119.65 E28.19778
G1 X104.1 Y115.85 E28.27361
G1 X104.9 Y115.85 E28.28958
G1 X104.9 Y118.85 E28.34945
G1 X115.1 Y118.85 E28.553
G1 X115.1 Y101.15 E28.90622
G1 X104.1 Y101.15 E29.12574
G1 X104.1 Y100.35 E29.1417
G1 X115.9 Y100.35 E29.37718
G1 X115.9 Y119.65 E29.76234
G0 F9000 X116.3 Y120.05
;TYPE:WALL-OUTER
G1 F1388 X103.7 Y120.05 E30.01378
G1 X103.7 Y115.45 E30.10558
G1 X105.3 Y115.45 E30.13751
G1 X105.3 Y118.45 E30.19738
G1 X114.7 Y118.45 E30.38497
G1 X114.7 Y101.55 E30.72222
G1 X103.7 Y101.55 E30.94174
G1 X103.7 Y99.95 E30.97367
G1 X116.3 Y99.95 E31.22512
G1 X116.3 Y120.05 E31.62623
G0 F9000 X115.499 Y119.176
;TYPE:SKIN
G1 F1388 X115.289 Y119.249 E31.6314
G1 X105.107 Y119.249 E31.86803
G1 X104.661 Y119.086 E31.87907
G1 X104.499 Y118.359 E31.89638
G1 X104.499 Y116.379 E31.94239
G1 X104.576 Y116.172 E31.94752
G0 F9000 X104.427 Y116.024
G0 X104.274 Y118.982
G1 F1388 X104.766 Y119.474 E31.95447
G0 F9000 X104.483 Y119.474
G1 F1388 X104.274 Y119.265 E31.95742
G0 F9000 X115.274 Y118.668
G0 X115.499 Y118.893
G1 F1388 X115.499 Y118.61 E31.96387
G1 X115.499 Y101.356 E32.35723
G1 X115.337 Y100.912 E32.368
G0 F9000 X115.232 Y100.525
G1 F1388 X115.725 Y101.017 E32.37495
G0 F9000 X115.62 Y100.629
G1 F1388 X114.891 Y100.749 E32.39075
G1 X104.709 Y100.749 E32.60844
G1 X104.321 Y100.927 E32.61756
G0 F9000 X104.3 Y100.88
;MESH:NONMESH
G0 F300 X104.3 Y100.88 Z0.96
G0 F9000 X114.928 Y101.322
G0 X115.9 Y119.65
;TIME_ELAPSED:88.735348
;LAYER:7
;TYPE:WALL-INNER
;MESH:SwitchHolder_v1.stl
G1 F1428.3 X104.1 Y119.65 E32.85305
G1 X104.1 Y115.85 E32.92888
G1 X104.9 Y115.85 E32.94484
G1 X104.9 Y118.85 E33.00471
G1 X115.1 Y118.85 E33.20826
G1 X115.1 Y101.15 E33.56149
G1 X104.1 Y101.15 E33.781
G1 X104.1 Y100.35 E33.79697
G1 X115.9 Y100.35 E34.03245
G1 X115.9 Y119.65 E34.4176
G0 F9000 X116.3 Y120.05
;TYPE:WALL-OUTER
G1 F1428.3 X103.7 Y120.05 E34.66905
G1 X103.7 Y115.45 E34.76085
G1 X105.3 Y115.45 E34.79278
G1 X105.3 Y118.45 E34.85264
G1 X114.7 Y118.45 E35.04023
G1 X114.7 Y101.55 E35.37749
G1 X103.7 Y101.55 E35.59701
G1 X103.7 Y99.95 E35.62894
G1 X116.3 Y99.95 E35.88038
G1 X116.3 Y120.05 E36.2815
G0 F9000 X115.567 Y119.474
;TYPE:SKIN
G1 F1428.3 X115.724 Y119.317 E36.28372
G0 F9000 X115.724 Y119.035
G1 F1428.3 X115.284 Y119.474 E36.28992
G0 F9000 X115.362 Y119.113
G1 F1428.3 X115.499 Y118.693 E36.29979
G1 X114.943 Y119.249 E36.31736
G1 X104.761 Y119.249 E36.54487
G1 X104.499 Y119.228 E36.55074
G1 X104.499 Y116.4 E36.61393
G1 X104.292 Y116.041 E36.62319
G0 F9000 X104.31 Y116.024
G0 X105.072 Y118.678
G0 X114.928 Y118.678
G0 X115.275 Y116.089
G0 X115.499 Y115.864
G1 F1428.3 X115.499 Y115.582 E36.62973
G1 X115.499 Y100.875 E36.9712
G0 F9000 X115.341 Y100.749
G1 F1428.3 X115.059 Y100.749 E36.97764
G1 X104.593 Y100.749 E37.2166
G1 X104.405 Y100.655 E37.2214
G0 F9000 X104.274 Y100.786
G0 X114.928 Y101.322
G0 X115.724 Y115.923
G0 X115.499 Y116.147
G1 F1428.3 X115.499 Y116.43 E37.22911
G1 X115.499 Y118.41 E37.28306
G0 F9000 X115.3 Y118.635
;MESH:NONMESH
G0 F300 X115.3 Y118.635 Z1.08
G0 F9000 X115.9 Y119.65
;TIME_ELAPSED:100.509509
;LAYER:8
;TYPE:WALL-INNER
;MESH:SwitchHolder_v1.stl
G1 F1388 X104.1 Y119.65 E37.51854
G1 X104.1 Y115.85 E37.59438
G1 X104.9 Y115.85 E37.61034
G1 X104.9 Y118.85 E37.67021
G1 X115.1 Y118.85 E37.87376
G1 X115.1 Y101.15 E38.22699
G1 X104.1 Y101.15 E38.4465
G1 X104.1 Y100.35 E38.46247
G1 X115.9 Y100.35 E38.69795
G1 X115.9 Y119.65 E39.0831
G0 F9000 X116.3 Y120.05
;TYPE:WALL-OUTER
G1 F1388 X103.7 Y120.05 E39.33455
G1 X103.7 Y115.45 E39.42635
G1 X105.3 Y115.45 E39.45828
G1 X105.3 Y118.45 E39.51814
G1 X114.7 Y118.45 E39.70573
G1 X114.7 Y101.55 E40.04299
G1 X103.7 Y101.55 E40.26251
G1 X103.7 Y99.95 E40.29444
G1 X116.3 Y99.95 E40.54588
G1 X116.3 Y120.05 E40.947
G0 F9000 X115.499 Y119.176
;TYPE:SKIN
G1 F1388 X115.289 Y119.249 E40.95217
G1 X105.107 Y119.249 E41.1888
G1 X104.661 Y119.086 E41.19983
G1 X104.499 Y118.359 E41.21714
G1 X104.499 Y116.379 E41.26316
G1 X104.576 Y116.172 E41.26829
G0 F9000 X104.427 Y116.024
G0 X104.274 Y118.982
G1 F1388 X104.766 Y119.474 E41.27523
G0 F9000 X104.483 Y119.474
G1 F1388 X104.274 Y119.265 E41.27818
G0 F9000 X115.274 Y118.668
G0 X115.499 Y118.893
G1 F1388 X115.499 Y118.61 E41.28463
G1 X115.499 Y101.356 E41.67799
G1 X115.337 Y100.912 E41.68877
G0 F9000 X115.232 Y100.525
G1 F1388 X115.725 Y101.017 E41.69572
G0 F9000 X115.62 Y100.629
G1 F1388 X114.891 Y100.749 E41.71151
G1 X104.709 Y100.749 E41.9292
G1 X104.321 Y100.927 E41.93833
G0 F9000 X104.3 Y100.88
;MESH:NONMESH
G0 F300 X104.3 Y100.88 Z1.2
G0 F9000 X114.928 Y101.322
G0 X115.9 Y119.65
;TIME_ELAPSED:112.402650
;LAYER:9
;TYPE:WALL-INNER
;MESH:SwitchHolder_v1.stl
G1 F1428.3 X104.1 Y119.65 E42.17381
G1 X104.1 Y115.85 E42.24964
G1 X104.9 Y115.85 E42.26561
G1 X104.9 Y118.85 E42.32548
G1 X115.1 Y118.85 E42.52903
G1 X115.1 Y101.15 E42.88225
G1 X104.1 Y101.15 E43.10177
G1 X104.1 Y100.35 E43.11773
G1 X115.9 Y100.35 E43.35322
G1 X115.9 Y119.65 E43.73837
G0 F9000 X116.3 Y120.05
;TYPE:WALL-OUTER
G1 F1428.3 X103.7 Y120.05 E43.98981
G1 X103.7 Y115.45 E44.08161
G1 X105.3 Y115.45 E44.11354
G1 X105.3 Y118.45 E44.17341
G1 X114.7 Y118.45 E44.361
G1 X114.7 Y101.55 E44.69826
G1 X103.7 Y101.55 E44.91777
G1 X103.7 Y99.95 E44.9497
G1 X116.3 Y99.95 E45.20115
G1 X116.3 Y120.05 E45.60227
G0 F9000 X115.567 Y119.474
;TYPE:SKIN
G1 F1428.3 X115.724 Y119.317 E45.60448
G0 F9000 X115.724 Y119.035
G1 F1428.3 X115.284 Y119.474 E45.61068
G0 F9000 X115.362 Y119.113
G1 F1428.3 X115.499 Y118.693 E45.62055
G1 X114.943 Y119.249 E45.63812
G1 X104.761 Y119.249 E45.86563
G1 X104.499 Y119.228 E45.8715
G1 X104.499 Y116.4 E45.93469
G1 X104.292 Y116.041 E45.94395
G0 F9000 X104.31 Y116.024
G0 X105.072 Y118.678
G0 X114.928 Y118.678
G0 X115.275 Y116.089
G0 X115.499 Y115.864
G1 F1428.3 X115.499 Y115.582 E45.9505
G1 X115.499 Y100.875 E46.29197
