;FLAVOR:Marlin
;TIME:2461
;Filament used: 0.95373m
;Layer height: 0.12
;MINX:101.7
;MINY:97.95
;MINZ:0.12
;MAXX:118.3
;MAXY:122.05
;MAXZ:20.04
;Generated with Cura_SteamEngine master
M140 S60
M105
M190 S60
M104 S205
M105
M109 S205
M82 ;absolute extrusion mode
; Ender 3 Custom Start G-code
G92 E0 ; Reset Extruder
G28 ; Home all axes
G1 Z2.0 F3000 ; Move Z Axis up little to prevent scratching of Heat Bed
G1 X0.1 Y20 Z0.3 F5000.0 ; Move to start position
G1 X0.1 Y200.0 Z0.3 F1500.0 E15 ; Draw the first line
G1 X0.4 Y200.0 Z0.3 F5000.0 ; Move to side a little
G1 X0.4 Y20 Z0.3 F1500.0 E30 ; Draw the second line
G92 E0 ; Reset Extruder
G1 Z2.0 F3000 ; Move Z Axis up little to prevent scratching of Heat Bed
G1 X5 Y20 Z0.3 F5000.0 ; Move over to prevent blob squish
G92 E0
G92 E0
G1 F1500 E-6.5
;LAYER_COUNT:167
;LAYER:0
M107
;MESH:SwitchHolder_v2.stl
G0 F6000 X117.9 Y121.65 Z0.12
;TYPE:WALL-INNER
G1 F1500 E0
G1 F1200 X102.1 Y121.65 E0.31531
G1 X102.1 Y117.85 E0.39114
G1 X102.9 Y117.85 E0.4071
G1 X102.9 Y120.85 E0.46697
G1 X117.1 Y120.85 E0.75035
G1 X117.1 Y99.15 E1.1834
G1 X102.1 Y99.15 E1.48274
G1 X102.1 Y98.35 E1.4987
G1 X117.9 Y98.35 E1.81401
G1 X117.9 Y121.65 E2.27898
G0 F6000 X118.3 Y122.05
;TYPE:WALL-OUTER
G1 F1200 X101.7 Y122.05 E2.61026
G1 X101.7 Y117.45 E2.70205
G1 X103.3 Y117.45 E2.73398
G1 X103.3 Y120.45 E2.79385
G1 X116.7 Y120.45 E3.06126
G1 X116.7 Y99.55 E3.47834
G1 X101.7 Y99.55 E3.77769
G1 X101.7 Y97.95 E3.80962
G1 X118.3 Y97.95 E4.14089
G1 X118.3 Y122.05 E4.62183
G0 F6000 X117.499 Y121.176
;TYPE:SKIN
G1 F1200 X117.289 Y121.248 E4.62692
G1 X103.146 Y121.248 E4.95146
G1 X102.682 Y121.066 E4.96289
G1 X102.499 Y120.319 E4.98054
G1 X102.499 Y118.339 E5.02597
G1 X102.595 Y118.152 E5.0308
G0 F6000 X102.467 Y118.023
G0 X102.275 Y120.942
G1 F1200 X102.806 Y121.473 E5.03829
G0 F6000 X102.523 Y121.473
G1 F1200 X102.275 Y121.225 E5.04179
G0 F6000 X117.274 Y120.668
G0 X117.499 Y120.893
G1 F1200 X117.499 Y120.61 E5.04821
G1 X117.499 Y99.397 E5.52973
G1 X117.317 Y98.932 E5.54106
G0 F6000 X117.193 Y98.525
G1 F1200 X117.724 Y99.057 E5.54856
G0 F6000 X117.599 Y98.649
G1 F1200 X116.851 Y98.749 E5.56487
G1 X102.709 Y98.749 E5.87059
G1 X102.321 Y98.927 E5.87982
G0 F6000 X102.3 Y98.88
G1 F1500 E-0.62018
;MESH:NONMESH
G0 F300 X102.3 Y98.88 Z0.24
G0 F6000 X116.928 Y99.322
G0 X117.9 Y121.65
;TIME_ELAPSED:21.270953
;LAYER:1
M106 S85
;TYPE:WALL-INNER
;MESH:SwitchHolder_v2.stl
G1 F1500 E5.87982
G1 X102.1 Y121.65 E6.19512
G1 X102.1 Y117.85 E6.27096
G1 X102.9 Y117.85 E6.28692
G1 X102.9 Y120.85 E6.34679
G1 X117.1 Y120.85 E6.63017
G1 X117.1 Y99.15 E7.06321
G1 X102.1 Y99.15 E7.36255
G1 X102.1 Y98.35 E7.37852
G1 X117.9 Y98.35 E7.69383
G1 X117.9 Y121.65 E8.1588
G0 F7500 X118.3 Y122.05
;TYPE:WALL-OUTER
G1 F1500 X101.7 Y122.05 E8.49007
G1 X101.7 Y117.45 E8.58187
G1 X103.3 Y117.45 E8.6138
G1 X103.3 Y120.45 E8.67367
G1 X116.7 Y120.45 E8.94108
G1 X116.7 Y99.55 E9.35816
G1 X101.7 Y99.55 E9.6575
G1 X101.7 Y97.95 E9.68943
G1 X118.3 Y97.95 E10.0207
G1 X118.3 Y122.05 E10.50165
G0 F7500 X117.724 Y121.278
;TYPE:SKIN
G1 F1500 X117.527 Y121.474 E10.50442
G0 F7500 X117.244 Y121.474
G1 F1500 X117.724 Y120.995 E10.51119
G0 F7500 X117.342 Y121.093
G1 F1500 X116.903 Y121.249 E10.52164
G1 X117.499 Y120.653 E10.54055
G1 X117.499 Y98.874 E11.02915
G0 F7500 X117.341 Y98.749
G1 F1500 X117.058 Y98.749 E11.0356
G1 X102.633 Y98.749 E11.3641
G1 X102.425 Y98.675 E11.36912
G1 F1500 E4.86912
G0 F7500 X102.274 Y98.826
G0 X116.928 Y99.322
G0 X116.928 Y120.678
G0 X103.072 Y120.678
G0 X102.31 Y118.023
G0 X102.292 Y118.041
G1 F1500 E11.36912
G1 X102.434 Y118.182 E11.37364
G1 X102.499 Y118.965 E11.39136
G1 X102.499 Y121.228 E11.44242
G1 X105.59 Y121.249 E11.51216
G1 X116.621 Y121.249 E11.76103
G0 F7500 X116.396 Y121.45
;MESH:NONMESH
G0 F300 X116.396 Y121.45 Z0.36
G0 F7500 X117.9 Y121.65
;TIME_ELAPSED:35.942530
;LAYER:2
M106 S170
;TYPE:WALL-INNER
;MESH:SwitchHolder_v2.stl
G1 F1758.4 X102.1 Y121.65 E12.07633
G1 X102.1 Y117.85 E12.15217
G1 X102.9 Y117.85 E12.16813
G1 X102.9 Y120.85 E12.228
G1 X117.1 Y120.85 E12.51138
G1 X117.1 Y99.15 E12.94442
G1 X102.1 Y99.15 E13.24377
G1 X102.1 Y98.35 E13.25973
G1 X117.9 Y98.35 E13.57504
G1 X117.9 Y121.65 E14.04001
G0 F9000 X118.3 Y122.05
;TYPE:WALL-OUTER
G1 F1758.4 X101.7 Y122.05 E14.37128
G1 X101.7 Y117.45 E14.46308
G1 X103.3 Y117.45 E14.49501
G1 X103.3 Y120.45 E14.55488
G1 X116.7 Y120.45 E14.82229
G1 X116.7 Y99.55 E15.23937
G1 X101.7 Y99.55 E15.53871
G1 X101.7 Y97.95 E15.57064
G1 X118.3 Y97.95 E15.90192
G1 X118.3 Y122.05 E16.38286
G0 F9000 X117.499 Y121.176
;TYPE:SKIN
G1 F1758.4 X117.289 Y121.248 E16.38795
G1 X103.146 Y121.248 E16.71248
G1 X102.682 Y121.066 E16.72392
G1 X102.499 Y120.319 E16.74157
G1 X102.499 Y118.339 E16.787
G1 X102.595 Y118.152 E16.79183
G0 F9000 X102.467 Y118.023
G0 X102.275 Y120.942
G1 F1758.4 X102.806 Y121.473 E16.79932
G0 F9000 X102.523 Y121.473
G1 F1758.4 X102.275 Y121.225 E16.80282
G0 F9000 X117.274 Y120.668
G0 X117.499 Y120.893
G1 F1758.4 X117.499 Y120.61 E16.80924
G1 X117.499 Y99.397 E17.29075
G1 X117.317 Y98.932 E17.30209
G0 F9000 X117.193 Y98.525
G1 F1758.4 X117.724 Y99.057 E17.30959
G0 F9000 X117.599 Y98.649
G1 F1758.4 X116.851 Y98.749 E17.3259
G1 X102.709 Y98.749 E17.63162
G1 X102.321 Y98.927 E17.64085
G0 F9000 X102.3 Y98.88
G1 F1500 E11.14085
;MESH:NONMESH
G0 F300 X102.3 Y98.88 Z0.48
G0 F9000 X116.928 Y99.322
G0 X117.9 Y121.65
;TIME_ELAPSED:48.521675
;LAYER:3
M106 S255
;TYPE:WALL-INNER
;MESH:SwitchHolder_v2.stl
G1 F1500 E17.64085
G1 F1800 X102.1 Y121.65 E17.95615
G1 X102.1 Y117.85 E18.03199
G1 X102.9 Y117.85 E18.04795
G1 X102.9 Y120.85 E18.10782
G1 X117.1 Y120.85 E18.3912
G1 X117.1 Y99.15 E18.82424
G1 X102.1 Y99.15 E19.12358
G1 X102.1 Y98.35 E19.13955
G1 X117.9 Y98.35 E19.45485
G1 X117.9 Y121.65 E19.91983
G0 F9000 X118.3 Y122.05
;TYPE:WALL-OUTER
G1 F1800 X101.7 Y122.05 E20.2511
G1 X101.7 Y117.45 E20.3429
G1 X103.3 Y117.45 E20.37483
G1 X103.3 Y120.45 E20.4347
G1 X116.7 Y120.45 E20.70211
G1 X116.7 Y99.55 E21.11919
G1 X101.7 Y99.55 E21.41853
G1 X101.7 Y97.95 E21.45046
G1 X118.3 Y97.95 E21.78173
G1 X118.3 Y122.05 E22.26268
G0 F9000 X117.724 Y121.278
;TYPE:SKIN
G1 F1800 X117.527 Y121.474 E22.26545
G0 F9000 X117.244 Y121.474
G1 F1800 X117.724 Y120.995 E22.27221
G0 F9000 X117.342 Y121.093
G1 F1800 X116.903 Y121.249 E22.28267
G1 X117.499 Y120.653 E22.30158
G1 X117.499 Y98.874 E22.79018
G0 F9000 X117.341 Y98.749
G1 F1800 X117.058 Y98.749 E22.79663
G1 X102.633 Y98.749 E23.12513
G1 X102.425 Y98.675 E23.13015
G1 F1500 E16.63015
G0 F9000 X102.274 Y98.826
G0 X116.928 Y99.322
G0 X116.928 Y120.678
G0 X103.072 Y120.678
G0 X102.31 Y118.023
G0 X102.292 Y118.041
G1 F1500 E23.13015
G1 F1800 X102.434 Y118.182 E23.13467
G1 X102.499 Y118.965 E23.15239
G1 X102.499 Y121.228 E23.20345
G1 X105.59 Y121.249 E23.27319
G1 X116.621 Y121.249 E23.52206
G0 F9000 X116.396 Y121.45
;MESH:NONMESH
G0 F300 X116.396 Y121.45 Z0.6
G0 F9000 X117.9 Y121.65
;TIME_ELAPSED:61.499489
;LAYER:4
;TYPE:WALL-INNER
;MESH:SwitchHolder_v2.stl
G1 F1758.4 X102.1 Y121.65 E23.83736
G1 X102.1 Y117.85 E23.9132
G1 X102.9 Y117.85 E23.92916
G1 X102.9 Y120.85 E23.98903
G1 X117.1 Y120.85 E24.27241
G1 X117.1 Y99.15 E24.70545
G1 X102.1 Y99.15 E25.00479
G1 X102.1 Y98.35 E25.02076
G1 X117.9 Y98.35 E25.33607
G1 X117.9 Y121.65 E25.80104
G0 F9000 X118.3 Y122.05
;TYPE:WALL-OUTER
G1 F1758.4 X101.7 Y122.05 E26.13231
G1 X101.7 Y117.45 E26.22411
G1 X103.3 Y117.45 E26.25604
G1 X103.3 Y120.45 E26.31591
G1 X116.7 Y120.45 E26.58332
G1 X116.7 Y99.55 E27.0004
G1 X101.7 Y99.55 E27.29974
G1 X101.7 Y97.95 E27.33167
G1 X118.3 Y97.95 E27.66294
G1 X118.3 Y122.05 E28.14389
G0 F9000 X117.499 Y121.176
;TYPE:SKIN
G1 F1758.4 X117.289 Y121.248 E28.14898
G1 X103.146 Y121.248 E28.47351
G1 X102.682 Y121.066 E28.48495
G1 X102.499 Y120.319 E28.5026
G1 X102.499 Y118.339 E28.54803
G1 X102.595 Y118.152 E28.55286
G0 F9000 X102.467 Y118.023
G0 X102.275 Y120.942
G1 F1758.4 X102.806 Y121.473 E28.56035
G0 F9000 X102.523 Y121.473
G1 F1758.4 X102.275 Y121.225 E28.56385
G0 F9000 X117.274 Y120.668
G0 X117.499 Y120.893
G1 F1758.4 X117.499 Y120.61 E28.57027
G1 X117.499 Y99.397 E29.05178
G1 X117.317 Y98.932 E29.06312
G0 F9000 X117.193 Y98.525
G1 F1758.4 X117.724 Y99.057 E29.07062
G0 F9000 X117.599 Y98.649
G1 F1758.4 X116.851 Y98.749 E29.08693
G1 X102.709 Y98.749 E29.39265
G1 X102.321 Y98.927 E29.40188
G0 F9000 X102.3 Y98.88
G1 F1500 E22.90188
;MESH:NONMESH
G0 F300 X102.3 Y98.88 Z0.72
G0 F9000 X116.928 Y99.322
G0 X117.9 Y121.65
;TIME_ELAPSED:74.078635
;LAYER:5
;TYPE:WALL-INNER
;MESH:SwitchHolder_v2.stl
G1 F1500 E29.40188
G1 F1800 X102.1 Y121.65 E29.71718
G1 X102.1 Y117.85 E29.79301
G1 X102.9 Y117.85 E29.80898
G1 X102.9 Y120.85 E29.86885
G1 X117.1 Y120.85 E30.15222
G1 X117.1 Y99.15 E30.58527
G1 X102.1 Y99.15 E30.88461
G1 X102.1 Y98.35 E30.90058
G1 X117.9 Y98.35 E31.21588
G1 X117.9 Y121.65 E31.68086
G0 F9000 X118.3 Y122.05
;TYPE:WALL-OUTER
G1 F1800 X101.7 Y122.05 E32.01213
G1 X101.7 Y117.45 E32.10393
G1 X103.3 Y117.45 E32.13586
G1 X103.3 Y120.45 E32.19573
G1 X116.7 Y120.45 E32.46314
G1 X116.7 Y99.55 E32.88022
G1 X101.7 Y99.55 E33.17956
G1 X101.7 Y97.95 E33.21149
G1 X118.3 Y97.95 E33.54276
G1 X118.3 Y122.05 E34.0237
G0 F9000 X117.724 Y121.278
;TYPE:SKIN
G1 F1800 X117.527 Y121.474 E34.02648
G0 F9000 X117.244 Y121.474
G1 F1800 X117.724 Y120.995 E34.03324
G0 F9000 X117.342 Y121.093
G1 F1800 X116.903 Y121.249 E34.0437
G1 X117.499 Y120.653 E34.0626
G1 X117.499 Y98.874 E34.55121
G0 F9000 X117.341 Y98.749
G1 F1800 X117.058 Y98.749 E34.55766
G1 X102.633 Y98.749 E34.88615
G1 X102.425 Y98.675 E34.89118
G1 F1500 E28.39118
G0 F9000 X102.274 Y98.826
G0 X116.928 Y99.322
G0 X116.928 Y120.678
G0 X103.072 Y120.678
G0 X102.31 Y118.023
G0 X102.292 Y118.041
G1 F1500 E34.89118
G1 F1800 X102.434 Y118.182 E34.8957
G1 X102.499 Y118.965 E34.91342
G1 X102.499 Y121.228 E34.96448
G1 X105.59 Y121.249 E35.03422
G1 X116.621 Y121.249 E35.28309
G0 F9000 X116.396 Y121.45
;MESH:NONMESH
G0 F300 X116.396 Y121.45 Z0.84
G0 F9000 X117.9 Y121.65
;TIME_ELAPSED:87.056448
;LAYER:6
;TYPE:WALL-INNER
;MESH:SwitchHolder_v2.stl
G1 F1758.4 X102.1 Y121.65 E35.59839
G1 X102.1 Y117.85 E35.67423
G1 X102.9 Y117.85 E35.69019
G1 X102.9 Y120.85 E35.75006
G1 X117.1 Y120.85 E36.03343
G1 X117.1 Y99.15 E36.46648
G1 X102.1 Y99.15 E36.76582
G1 X102.1 Y98.35 E36.78179
G1 X117.9 Y98.35 E37.09709
G1 X117.9 Y121.65 E37.56207
G0 F9000 X118.3 Y122.05
;TYPE:WALL-OUTER
G1 F1758.4 X101.7 Y122.05 E37.89334
G1 X101.7 Y117.45 E37.98514
G1 X103.3 Y117.45 E38.01707
G1 X103.3 Y120.45 E38.07694
G1 X116.7 Y120.45 E38.34435
G1 X116.7 Y99.55 E38.76143
G1 X101.7 Y99.55 E39.06077
G1 X101.7 Y97.95 E39.0927
G1 X118.3 Y97.95 E39.42397
G1 X118.3 Y122.05 E39.90491
G0 F9000 X117.499 Y121.176
;TYPE:SKIN
G1 F1758.4 X117.289 Y121.248 E39.91001
G1 X103.146 Y121.248 E40.23454
G1 X102.682 Y121.066 E40.24598
G1 X102.499 Y120.319 E40.26363
G1 X102.499 Y118.339 E40.30906
G1 X102.595 Y118.152 E40.31388
G0 F9000 X102.467 Y118.023
G0 X102.275 Y120.942
G1 F1758.4 X102.806 Y121.473 E40.32138
G0 F9000 X102.523 Y121.473
G1 F1758.4 X102.275 Y121.225 E40.32488
G0 F9000 X117.274 Y120.668
G0 X117.499 Y120.893
G1 F1758.4 X117.499 Y120.61 E40.3313
G1 X117.499 Y99.397 E40.81281
G1 X117.317 Y98.932 E40.82415
G0 F9000 X117.193 Y98.525
G1 F1758.4 X117.724 Y99.057 E40.83165
G0 F9000 X117.599 Y98.649
G1 F1758.4 X116.851 Y98.749 E40.84796
G1 X102.709 Y98.749 E41.15368
G1 X102.321 Y98.927 E41.1629
G0 F9000 X102.3 Y98.88
G1 F1500 E34.6629
;MESH:NONMESH
G0 F300 X102.3 Y98.88 Z0.96
G0 F9000 X116.928 Y99.322
G0 X117.9 Y121.65
;TIME_ELAPSED:99.635594
;LAYER:7
;TYPE:WALL-INNER
;MESH:SwitchHolder_v2.stl
G1 F1500 E41.1629
G1 F1800 X102.1 Y121.65 E41.47821
G1 X102.1 Y117.85 E41.55404
G1 X102.9 Y117.85 E41.57001
G1 X102.9 Y120.85 E41.62988
G1 X117.1 Y120.85 E41.91325
G1 X117.1 Y99.15 E42.3463
G1 X102.1 Y99.15 E42.64564
G1 X102.1 Y98.35 E42.66161
G1 X117.9 Y98.35 E42.97691
G1 X117.9 Y121.65 E43.44189
G0 F9000 X118.3 Y122.05
;TYPE:WALL-OUTER
G1 F1800 X101.7 Y122.05 E43.77316
G1 X101.7 Y117.45 E43.86496
G1 X103.3 Y117.45 E43.89689
G1 X103.3 Y120.45 E43.95676
G1 X116.7 Y120.45 E44.22417
G1 X116.7 Y99.55 E44.64125
G1 X101.7 Y99.55 E44.94059
G1 X101.7 Y97.95 E44.97252
G1 X118.3 Y97.95 E45.30379
G1 X118.3 Y122.05 E45.78473
G0 F9000 X117.724 Y121.278
;TYPE:SKIN
G1 F1800 X117.527 Y121.474 E45.78751
G0 F9000 X117.244 Y121.474
G1 F1800 X117.724 Y120.995 E45.79427
G0 F9000 X117.342 Y121.093
G1 F1800 X116.903 Y121.249 E45.80472
G1 X117.499 Y120.653 E45.82363
G1 X117.499 Y98.874 E46.31224
G0 F9000 X117.341 Y98.749
G1 F1800 X117.058 Y98.749 E46.31868
G1 X102.633 Y98.749 E46.64718
G1 X102.425 Y98.675 E46.65221
G1 F1500 E40.15221
G0 F9000 X102.274 Y98.826
G0 X116.928 Y99.322
G0 X116.928 Y120.678
G0 X103.072 Y120.678
G0 X102.31 Y118.023
G0 X102.292 Y118.041
G1 F1500 E46.65221
G1 F1800 X102.434 Y118.182 E46.65672
G1 X102.499 Y118.965 E46.67445
G1 X102.499 Y121.228 E46.72551
G1 X105.59 Y121.249 E46.79524
G1 X116.621 Y121.249 E47.04411
G0 F9000 X116.396 Y121.45
;MESH:NONMESH
G0 F300 X116.396 Y121.45 Z1.08
G0 F9000 X117.9 Y121.65
;TIME_ELAPSED:112.613408
;LAYER:8
;TYPE:WALL-INNER
;MESH:SwitchHolder_v2.stl
G1 F1758.4 X102.1 Y121.65 E47.35942
G1 X102.1 Y117.85 E47.43525
G1 X102.9 Y117.85 E47.45122
G1 X102.9 Y120.85 E47.51109
G1 X117.1 Y120.85 E47.79446
G1 X117.1 Y99.15 E48.22751
G1 X102.1 Y99.15 E48.52685
G1 X102.1 Y98.35 E48.54282
G1 X117.9 Y98.35 E48.85812
G1 X117.9 Y121.65 E49.3231
G0 F9000 X118.3 Y122.05
;TYPE:WALL-OUTER
G1 F1758.4 X101.7 Y122.05 E49.65437
G1 X101.7 Y117.45 E49.74617
G1 X103.3 Y117.45 E49.7781
G1 X103.3 Y120.45 E49.83797
G1 X116.7 Y120.45 E50.10538
G1 X116.7 Y99.55 E50.52246
G1 X101.7 Y99.55 E50.8218
G1 X101.7 Y97.95 E50.85373
G1 X118.3 Y97.95 E51.185
G1 X118.3 Y122.05 E51.66594
G0 F9000 X117.499 Y121.176
;TYPE:SKIN
G1 F1758.4 X117.289 Y121.248 E51.67104
G1 X103.146 Y121.248 E51.99557
G1 X102.682 Y121.066 E52.00701
G1 X102.499 Y120.319 E52.02466
G1 X102.499 Y118.339 E52.07009
G1 X102.595 Y118.152 E52.07491
G0 F9000 X102.467 Y118.023
G0 X102.275 Y120.942
G1 F1758.4 X102.806 Y121.473 E52.08241
G0 F9000 X102.523 Y121.473
G1 F1758.4 X102.275 Y121.225 E52.08591
G0 F9000 X117.274 Y120.668
G0 X117.499 Y120.893
G1 F1758.4 X117.499 Y120.61 E52.09233
G1 X117.499 Y99.397 E52.57384
G1 X117.317 Y98.932 E52.58518
G0 F9000 X117.193 Y98.525
G1 F1758.4 X117.724 Y99.057 E52.59268
G0 F9000 X117.599 Y98.649
G1 F1758.4 X116.851 Y98.749 E52.60899
G1 X102.709 Y98.749 E52.9147
G1 X102.321 Y98.927 E52.92393
G0 F9000 X102.3 Y98.88
G1 F1500 E46.42393
;MESH:NONMESH
G0 F300 X102.3 Y98.88 Z1.2
G0 F9000 X116.928 Y99.322
G0 X117.9 Y121.65
;TIME_ELAPSED:125.192553
;LAYER:9
;TYPE:WALL-INNER
;MESH:SwitchHolder_v2.stl
G1 F1500 E52.92393
G1 F1800 X102.1 Y121.65 E53.23924
G1 X102.1 Y117.85 E53.31507
G1 X102.9 Y117.85 E53.33104
G1 X102.9 Y120.85 E53.39091
G1 X117.1 Y120.85 E53.67428
G1 X117.1 Y99.15 E54.10733
G1 X102.1 Y99.15 E54.40667
G1 X102.1 Y98.35 E54.42263
G1 X117.9 Y98.35 E54.73794
G1 X117.9 Y121.65 E55.20292
G0 F9000 X118.3 Y122.05
;TYPE:WALL-OUTER
G1 F1800 X101.7 Y122.05 E55.53419
G1 X101.7 Y117.45 E55.62599
G1 X103.3 Y117.45 E55.65792
G1 X103.3 Y120.45 E55.71778
G1 X116.7 Y120.45 E55.9852
G1 X116.7 Y99.55 E56.40228
G1 X101.7 Y99.55 E56.70162
G1 X101.7 Y97.95 E56.73355
G1 X118.3 Y97.95 E57.06482
G1 X118.3 Y122.05 E57.54576
G0 F9000 X117.724 Y121.278
;TYPE:SKIN
G1 F1800 X117.527 Y121.474 E57.54853
G0 F9000 X117.244 Y121.474
G1 F1800 X117.724 Y120.995 E57.5553
G0 F9000 X117.342 Y121.093
G1 F1800 X116.903 Y121.249 E57.56575
G1 X117.499 Y120.653 E57.58466
G1 X117.499 Y98.874 E58.07327
G0 F9000 X117.341 Y98.749
G1 F1800 X117.058 Y98.749 E58.07971
G1 X102.633 Y98.749 E58.40821
G1 X102.425 Y98.675 E58.41324
G1 F1500 E51.91324
G0 F9000 X102.274 Y98.826
G0 X116.928 Y99.322
G0 X116.928 Y120.678
G0 X103.072 Y120.678
G0 X102.31 Y118.023
G0 X102.292 Y118.041
G1 F1500 E58.41324
G1 F1800 X102.434 Y118.182 E58.41775
G1 X102.499 Y118.965 E58.43548
G1 X102.499 Y121.228 E58.48654
G1 X105.59 Y121.249 E58.55627
G1 X116.621 Y121.249 E58.80514
G0 F9000 X116.396 Y121.45
;MESH:NONMESH
G0 F300 X116.396 Y121.45 Z1.32
G0 F9000 X117.9 Y121.65
;TIME_ELAPSED:138.170367
;LAYER:10
;TYPE:WALL-INNER
