;FLAVOR:Marlin
;TIME:2959
;Filament used: 1.06417m
;Layer height: 0.12
;MINX:88.217
;MINY:96.915
;MINZ:0.12
;MAXX:114.414
;MAXY:114.788
;MAXZ:18.96
;Generated with Cura_SteamEngine master
M140 S60
M105
M190 S60
M104 S205
M105
M109 S205
M82 ;absolute extrusion mode
; Ender 3 Custom Start G-code
G92 E0 ; Reset Extruder
G28 ; Home all axes
G1 Z2.0 F3000 ; Move Z Axis up little to prevent scratching of Heat Bed
G1 X0.1 Y20 Z0.3 F5000.0 ; Move to start position
G1 X0.1 Y200.0 Z0.3 F1500.0 E15 ; Draw the first line
G1 X0.4 Y200.0 Z0.3 F5000.0 ; Move to side a little
G1 X0.4 Y20 Z0.3 F1500.0 E30 ; Draw the second line
G92 E0 ; Reset Extruder
G1 Z2.0 F3000 ; Move Z Axis up little to prevent scratching of Heat Bed
G1 X5 Y20 Z0.3 F5000.0 ; Move over to prevent blob squish
G92 E0
G92 E0
G1 F1500 E-6.5
;LAYER_COUNT:158
;LAYER:0
M107
G0 F6000 X103.898 Y100.423 Z0.12
;TYPE:SKIRT
G1 F1500 E0
G1 F1200 X103.709 Y100.634 E0.00565
G1 X103.614 Y100.762 E0.00883
G1 X103.303 Y101.236 E0.02015
G1 X103.172 Y101.476 E0.0256
G1 X103.107 Y101.626 E0.02887
G1 X102.909 Y102.167 E0.04036
G1 X102.83 Y102.469 E0.04659
G1 X102.808 Y102.602 E0.04928
G1 X102.743 Y103.16 E0.06049
G1 X102.734 Y103.438 E0.06604
G1 X102.743 Y103.6 E0.06928
G1 X102.808 Y104.158 E0.08049
G1 X102.855 Y104.407 E0.08555
G1 X102.909 Y104.593 E0.08941
G1 X103.107 Y105.134 E0.10091
G1 X103.224 Y105.387 E0.10647
G1 X103.303 Y105.524 E0.10963
G1 X103.614 Y105.998 E0.12094
G1 X103.784 Y106.216 E0.12646
G1 X103.898 Y106.337 E0.12978
G1 X104.302 Y106.719 E0.14087
G1 X104.663 Y106.991 E0.14989
G1 X105.172 Y107.282 E0.16159
G1 X105.442 Y107.406 E0.16752
G1 X105.572 Y107.452 E0.17028
G1 X106.112 Y107.614 E0.18153
G1 X106.389 Y107.672 E0.18717
G1 X106.547 Y107.691 E0.19035
G1 X107.109 Y107.724 E0.20158
G1 X107.367 Y107.72 E0.20673
G1 X107.551 Y107.7 E0.21043
G1 X108.116 Y107.6 E0.22188
G1 X108.388 Y107.528 E0.22749
G1 X108.541 Y107.472 E0.23074
G1 X109.054 Y107.25 E0.2419
G1 X109.431 Y107.036 E0.25055
G1 X109.907 Y106.684 E0.26236
G1 X110.155 Y106.457 E0.26907
G1 X110.233 Y106.371 E0.27139
G1 X110.581 Y105.955 E0.28221
G1 X110.826 Y105.586 E0.29105
G1 X111.082 Y105.073 E0.30249
G1 X111.232 Y104.666 E0.31115
G1 X111.365 Y104.109 E0.32258
G1 X111.406 Y103.848 E0.32785
G1 X111.418 Y103.668 E0.33145
G1 X111.418 Y103.092 E0.34295
G1 X111.391 Y102.796 E0.34888
G1 X111.365 Y102.651 E0.35182
G1 X111.232 Y102.094 E0.36325
G1 X111.136 Y101.811 E0.36921
G1 X111.081 Y101.686 E0.37193
G1 X110.826 Y101.176 E0.38331
G1 X110.664 Y100.916 E0.38943
G1 X110.585 Y100.811 E0.39205
G1 X110.23 Y100.385 E0.40311
G1 X110.028 Y100.181 E0.40884
G1 X109.904 Y100.077 E0.41207
G1 X109.449 Y99.738 E0.4234
G1 X109.233 Y99.601 E0.4285
G1 X109.069 Y99.516 E0.43219
G1 X108.542 Y99.288 E0.44365
G1 X108.287 Y99.201 E0.44902
G1 X108.114 Y99.159 E0.45258
G1 X107.554 Y99.061 E0.46392
G1 X107.259 Y99.036 E0.46983
G1 X107.119 Y99.037 E0.47262
G1 X106.551 Y99.069 E0.48398
G1 X106.276 Y99.107 E0.48952
G1 X106.112 Y99.146 E0.49288
G1 X105.572 Y99.308 E0.50413
G1 X105.335 Y99.398 E0.50919
G1 X105.172 Y99.478 E0.51281
G1 X104.663 Y99.769 E0.52451
G1 X104.398 Y99.958 E0.53101
G1 X104.302 Y100.041 E0.53354
G1 X103.898 Y100.423 E0.54464
G0 F6000 X104.173 Y100.713
G1 F1200 X103.949 Y100.981 E0.55161
G1 X103.638 Y101.455 E0.56292
G1 X103.483 Y101.763 E0.5698
G1 X103.285 Y102.304 E0.5813
G1 X103.221 Y102.553 E0.58643
G1 X103.206 Y102.648 E0.58835
G1 X103.141 Y103.206 E0.59956
G1 X103.141 Y103.554 E0.6065
G1 X103.206 Y104.112 E0.61772
G1 X103.285 Y104.456 E0.62476
G1 X103.483 Y104.997 E0.63626
G1 X103.638 Y105.305 E0.64314
G1 X103.949 Y105.779 E0.65445
G1 X104.173 Y106.047 E0.66142
G1 X104.577 Y106.429 E0.67252
G1 X104.862 Y106.644 E0.67964
G1 X105.371 Y106.935 E0.69134
G1 X105.687 Y107.069 E0.69819
G1 X106.227 Y107.231 E0.70944
G1 X106.57 Y107.291 E0.71639
G1 X107.132 Y107.324 E0.72762
G1 X107.481 Y107.306 E0.7346
G1 X108.046 Y107.206 E0.74605
G1 X108.382 Y107.105 E0.75305
G1 X108.895 Y106.883 E0.76421
G1 X109.194 Y106.714 E0.77106
G1 X109.67 Y106.362 E0.78287
G1 X109.87 Y106.176 E0.78832
G1 X109.926 Y106.115 E0.78998
G1 X110.274 Y105.699 E0.8008
G1 X110.468 Y105.408 E0.80778
G1 X110.724 Y104.895 E0.81922
G1 X110.843 Y104.573 E0.82607
G1 X110.976 Y104.016 E0.8375
G1 X111.018 Y103.668 E0.8445
G1 X111.018 Y103.092 E0.85599
G1 X110.976 Y102.744 E0.86298
G1 X110.843 Y102.187 E0.87441
G1 X110.723 Y101.865 E0.88127
G1 X110.468 Y101.355 E0.89265
G1 X110.334 Y101.142 E0.89767
G1 X110.277 Y101.067 E0.89955
G1 X109.922 Y100.641 E0.91062
G1 X109.665 Y100.398 E0.91768
G1 X109.21 Y100.059 E0.929
G1 X108.91 Y99.883 E0.93594
G1 X108.383 Y99.655 E0.9474
G1 X108.045 Y99.553 E0.95444
G1 X107.485 Y99.455 E0.96579
G1 X107.142 Y99.437 E0.97264
G1 X106.574 Y99.469 E0.984
G1 X106.227 Y99.529 E0.99102
G1 X105.687 Y99.691 E1.00228
G1 X105.371 Y99.825 E1.00912
G1 X104.862 Y100.116 E1.02083
G1 X104.645 Y100.272 E1.02616
G1 X104.577 Y100.331 E1.02796
G1 X104.173 Y100.713 E1.03905
G0 F6000 X104.448 Y101.004
G1 F1200 X104.283 Y101.201 E1.04418
G1 X103.972 Y101.675 E1.05549
G1 X103.859 Y101.901 E1.06053
G1 X103.661 Y102.442 E1.07203
G1 X103.603 Y102.695 E1.07721
G1 X103.538 Y103.253 E1.08842
G1 X103.538 Y103.507 E1.09349
G1 X103.603 Y104.065 E1.1047
G1 X103.661 Y104.318 E1.10988
G1 X103.859 Y104.859 E1.12138
G1 X103.972 Y105.085 E1.12642
G1 X104.283 Y105.559 E1.13773
G1 X104.448 Y105.756 E1.14286
G1 X104.852 Y106.138 E1.15396
G1 X105.06 Y106.297 E1.15918
G1 X105.569 Y106.588 E1.17088
G1 X105.802 Y106.686 E1.17593
G1 X106.342 Y106.848 E1.18718
G1 X106.594 Y106.892 E1.19228
G1 X107.156 Y106.925 E1.20352
G1 X107.412 Y106.912 E1.20863
G1 X107.977 Y106.812 E1.22008
G1 X108.223 Y106.738 E1.22521
G1 X108.736 Y106.516 E1.23637
G1 X108.956 Y106.392 E1.2414
G1 X109.432 Y106.04 E1.25322
G1 X109.619 Y105.858 E1.25843
G1 X109.967 Y105.442 E1.26925
G1 X110.11 Y105.229 E1.27437
G1 X110.366 Y104.716 E1.28581
G1 X110.454 Y104.48 E1.29084
G1 X110.587 Y103.923 E1.30227
G1 X110.618 Y103.668 E1.30739
G1 X110.618 Y103.092 E1.31889
G1 X110.587 Y102.837 E1.32401
G1 X110.454 Y102.28 E1.33544
G1 X110.366 Y102.044 E1.34047
G1 X110.111 Y101.534 E1.35185
G1 X109.97 Y101.323 E1.35691
G1 X109.615 Y100.897 E1.36798
G1 X109.426 Y100.719 E1.37316
G1 X108.971 Y100.38 E1.38448
G1 X108.751 Y100.25 E1.38958
G1 X108.224 Y100.022 E1.40104
G1 X107.976 Y99.947 E1.40621
G1 X107.416 Y99.849 E1.41756
G1 X107.164 Y99.836 E1.42259
G1 X106.596 Y99.868 E1.43394
G1 X106.342 Y99.912 E1.43909
G1 X105.802 Y100.074 E1.45034
G1 X105.569 Y100.172 E1.45538
G1 X105.06 Y100.463 E1.46708
G1 X104.852 Y100.622 E1.47231
G1 X104.448 Y101.004 E1.4834
G0 F6000 X104.706 Y101.312
G1 F1200 X104.618 Y101.42 E1.48618
G1 X104.295 Y101.914 E1.49796
G1 X104.234 Y102.038 E1.50072
G1 X104.036 Y102.579 E1.51222
G1 X104 Y102.741 E1.51553
G1 X103.935 Y103.299 E1.52674
G1 X103.935 Y103.461 E1.52997
G1 X104.003 Y104.038 E1.54157
G1 X104.036 Y104.181 E1.5445
G1 X104.243 Y104.743 E1.55645
G1 X104.307 Y104.866 E1.55921
G1 X104.631 Y105.358 E1.57097
G1 X104.723 Y105.465 E1.57379
G1 X105.14 Y105.859 E1.58524
G1 X105.259 Y105.95 E1.58822
G1 X105.768 Y106.241 E1.59993
G1 X105.917 Y106.303 E1.60315
G1 X106.457 Y106.465 E1.6144
G1 X106.617 Y106.493 E1.61764
G1 X107.2 Y106.526 E1.62929
G1 X107.342 Y106.518 E1.63213
G1 X107.93 Y106.413 E1.64405
G1 X108.064 Y106.371 E1.64685
G1 X108.594 Y106.141 E1.65838
G1 X108.718 Y106.071 E1.66122
G1 X109.194 Y105.719 E1.67304
G1 X109.312 Y105.601 E1.67637
G1 X109.672 Y105.17 E1.68757
G1 X109.752 Y105.05 E1.69045
G1 X110.016 Y104.52 E1.70227
G1 X110.065 Y104.387 E1.7051
G1 X110.198 Y103.83 E1.71653
G1 X110.218 Y103.668 E1.71978
G1 X110.218 Y103.092 E1.73128
G1 X110.198 Y102.93 E1.73453
G1 X110.065 Y102.373 E1.74596
G1 X110.008 Y102.223 E1.74917
G1 X109.753 Y101.713 E1.76054
G1 X109.663 Y101.579 E1.76377
G1 X109.308 Y101.153 E1.77483
G1 X109.187 Y101.04 E1.77814
G1 X108.716 Y100.69 E1.78985
G1 X108.592 Y100.617 E1.79272
G1 X108.065 Y100.389 E1.80418
G1 X107.907 Y100.341 E1.80747
G1 X107.322 Y100.24 E1.81932
G1 X107.207 Y100.235 E1.82162
G1 X106.619 Y100.267 E1.83337
G1 X106.457 Y100.295 E1.83665
G1 X105.898 Y100.464 E1.8483
G1 X105.768 Y100.519 E1.85112
G1 X105.259 Y100.81 E1.86282
G1 X105.127 Y100.913 E1.86616
G1 X104.706 Y101.312 E1.87774
G0 F6000 X104.539 Y98.978
G1 F1200 X109.625 Y98.978 E1.97923
G1 X112.166 Y103.38 E2.08066
G1 X109.625 Y107.782 E2.1821
G1 X104.539 Y107.782 E2.28359
G1 X101.998 Y103.38 E2.38502
G1 X104.539 Y98.978 E2.48646
G0 F6000 X104.308 Y98.578
G1 F1200 X109.856 Y98.578 E2.59717
G1 X112.628 Y103.38 E2.70782
G1 X109.856 Y108.182 E2.81847
G1 X104.308 Y108.182 E2.92919
G1 X101.536 Y103.38 E3.03984
G1 X104.308 Y98.578 E3.15049
G0 F6000 X104.078 Y98.178
G1 F1200 X110.086 Y98.178 E3.27038
G1 X113.089 Y103.38 E3.39025
G1 X110.086 Y108.582 E3.51012
G1 X104.078 Y108.582 E3.63001
G1 X101.075 Y103.38 E3.74988
G1 X104.078 Y98.178 E3.86975
G0 F6000 X103.846 Y97.778
G1 F1200 X110.318 Y97.778 E3.9989
G1 X113.551 Y103.381 E4.128
G1 X110.318 Y108.982 E4.25706
G1 X103.846 Y108.982 E4.38621
G1 X100.613 Y103.379 E4.5153
G1 X103.846 Y97.778 E4.64436
G0 F6000 X98.783 Y103.384
G1 F1200 X102.018 Y108.988 E4.77349
G1 X98.785 Y114.589 E4.90255
G1 X92.313 Y114.589 E5.03171
G1 X89.08 Y108.986 E5.1608
G1 X92.315 Y103.384 E5.28989
G1 X98.783 Y103.384 E5.41897
G0 F6000 X98.552 Y103.784
G1 F1200 X101.556 Y108.987 E5.53886
G1 X98.553 Y114.189 E5.65873
G1 X92.545 Y114.189 E5.77863
G1 X89.542 Y108.987 E5.8985
G1 X92.546 Y103.784 E6.01839
G1 X98.552 Y103.784 E6.13825
G0 F6000 X98.321 Y104.184
G1 F1200 X101.095 Y108.987 E6.24893
G1 X98.323 Y113.789 E6.35958
G1 X92.775 Y113.789 E6.4703
G1 X90.003 Y108.987 E6.58095
G1 X92.777 Y104.184 E6.69164
G1 X98.321 Y104.184 E6.80227
G0 F6000 X98.091 Y104.584
G1 F1200 X100.633 Y108.987 E6.90373
G1 X98.092 Y113.389 E7.00516
G1 X93.006 Y113.389 E7.10666
G1 X90.465 Y108.987 E7.20809
G1 X93.007 Y104.584 E7.30955
G1 X98.091 Y104.584 E7.41101
G0 F6000 X98.732 Y106.029
G1 F1200 X98.303 Y105.625 E7.42277
G1 X98.039 Y105.424 E7.42939
G1 X97.95 Y105.368 E7.43149
G1 X97.47 Y105.09 E7.44256
G1 X97.209 Y104.967 E7.44831
G1 X97.065 Y104.915 E7.45137
G1 X96.523 Y104.752 E7.46266
G1 X96.245 Y104.694 E7.46833
G1 X96.087 Y104.675 E7.47151
G1 X95.523 Y104.642 E7.48278
G1 X95.381 Y104.641 E7.48562
G1 X95.078 Y104.667 E7.49168
G1 X94.512 Y104.768 E7.50316
G1 X94.239 Y104.84 E7.50879
G1 X94.09 Y104.895 E7.51196
G1 X93.563 Y105.123 E7.52342
G1 X93.303 Y105.264 E7.52932
G1 X93.188 Y105.341 E7.53209
G1 X92.736 Y105.675 E7.5433
G1 X92.517 Y105.868 E7.54913
G1 X92.412 Y105.98 E7.55219
G1 X92.045 Y106.416 E7.56356
G1 X91.876 Y106.657 E7.56944
G1 X91.8 Y106.79 E7.57249
G1 X91.546 Y107.297 E7.58381
G1 X91.444 Y107.551 E7.58927
G1 X91.396 Y107.711 E7.59261
G1 X91.266 Y108.261 E7.60388
G1 X91.225 Y108.517 E7.60906
G1 X91.213 Y108.698 E7.61268
G1 X91.213 Y109.275 E7.62419
G1 X91.24 Y109.571 E7.63012
G1 X91.266 Y109.712 E7.63299
G1 X91.396 Y110.262 E7.64426
G1 X91.485 Y110.534 E7.64998
G1 X91.544 Y110.671 E7.65295
G1 X91.798 Y111.182 E7.66434
G1 X91.947 Y111.426 E7.67005
G1 X92.046 Y111.559 E7.67335
G1 X92.406 Y111.987 E7.68451
G1 X92.602 Y112.185 E7.69007
G1 X92.724 Y112.287 E7.69325
G1 X93.181 Y112.628 E7.70463
G1 X93.395 Y112.765 E7.7097
G1 X93.566 Y112.853 E7.71354
G1 X94.089 Y113.078 E7.7249
G1 X94.339 Y113.164 E7.73017
G1 X94.506 Y113.204 E7.7336
G1 X95.071 Y113.305 E7.74505
G1 X95.374 Y113.331 E7.75112
G1 X95.513 Y113.33 E7.7539
G1 X96.08 Y113.298 E7.76523
G1 X96.355 Y113.26 E7.77077
G1 X96.519 Y113.221 E7.77413
G1 X97.059 Y113.059 E7.78539
G1 X97.293 Y112.971 E7.79037
G1 X97.463 Y112.887 E7.79416
G1 X97.96 Y112.601 E7.8056
G1 X98.214 Y112.421 E7.81181
G1 X98.31 Y112.339 E7.81433
G1 X98.718 Y111.957 E7.82549
G1 X99.012 Y111.614 E7.8345
G1 X99.334 Y111.123 E7.84622
G1 X99.475 Y110.858 E7.85221
G1 X99.528 Y110.73 E7.85498
G1 X99.721 Y110.2 E7.86623
G1 X99.797 Y109.918 E7.87206
G1 X99.823 Y109.768 E7.8751
G1 X99.888 Y109.206 E7.88639
G1 X99.897 Y108.929 E7.89192
G1 X99.888 Y108.767 E7.89516
G1 X99.823 Y108.209 E7.90637
G1 X99.776 Y107.96 E7.91142
G1 X99.721 Y107.773 E7.91531
G1 X99.517 Y107.217 E7.92713
G1 X99.375 Y106.924 E7.93363
G1 X99.32 Y106.834 E7.93574
G1 X99.019 Y106.373 E7.94672
G1 X98.848 Y106.152 E7.9523
G1 X98.732 Y106.029 E7.95567
G0 F6000 X98.458 Y106.32
G1 F1200 X98.029 Y105.916 E7.96743
G1 X97.813 Y105.754 E7.97282
G1 X97.749 Y105.714 E7.97433
G1 X97.269 Y105.436 E7.9854
G1 X96.95 Y105.298 E7.99233
G1 X96.408 Y105.135 E8.00363
G1 X96.063 Y105.075 E8.01062
G1 X95.499 Y105.042 E8.02189
G1 X95.398 Y105.041 E8.02391
G1 X95.148 Y105.061 E8.02891
G1 X94.582 Y105.162 E8.04038
G1 X94.249 Y105.262 E8.04732
G1 X93.722 Y105.49 E8.05878
G1 X93.426 Y105.663 E8.06562
G1 X92.974 Y105.997 E8.07684
G1 X92.718 Y106.238 E8.08386
G1 X92.351 Y106.674 E8.09523
G1 X92.158 Y106.969 E8.10226
G1 X91.904 Y107.476 E8.11358
G1 X91.785 Y107.803 E8.12052
G1 X91.655 Y108.353 E8.1318
G1 X91.613 Y108.698 E8.13874
G1 X91.613 Y109.275 E8.15025
G1 X91.655 Y109.62 E8.15719
G1 X91.785 Y110.17 E8.16847
G1 X91.903 Y110.493 E8.17533
G1 X92.157 Y111.004 E8.18672
G1 X92.352 Y111.302 E8.19382
G1 X92.712 Y111.73 E8.20498
G1 X92.963 Y111.966 E8.21186
G1 X93.42 Y112.307 E8.22324
G1 X93.724 Y112.486 E8.23028
G1 X94.247 Y112.711 E8.24164
G1 X94.576 Y112.81 E8.2485
G1 X95.141 Y112.911 E8.25995
G1 X95.391 Y112.931 E8.26496
G1 X95.49 Y112.93 E8.26693
G1 X96.057 Y112.898 E8.27827
G1 X96.404 Y112.838 E8.28529
G1 X96.944 Y112.676 E8.29654
G1 X97.264 Y112.541 E8.30347
G1 X97.761 Y112.255 E8.31492
G1 X97.968 Y112.105 E8.32002
G1 X98.036 Y112.047 E8.3218
G1 X98.444 Y111.665 E8.33296
G1 X98.677 Y111.394 E8.34009
G1 X98.999 Y110.903 E8.35181
G1 X99.153 Y110.593 E8.35871
G1 X99.346 Y110.063 E8.36997
G1 X99.425 Y109.722 E8.37696
G1 X99.49 Y109.16 E8.38825
G1 X99.49 Y108.813 E8.39517
G1 X99.425 Y108.255 E8.40638
G1 X99.346 Y107.911 E8.41342
G1 X99.142 Y107.355 E8.42524
G1 X99.024 Y107.117 E8.43054
G1 X98.985 Y107.052 E8.43206
G1 X98.684 Y106.591 E8.44304
G1 X98.458 Y106.32 E8.45009
G0 F6000 X98.183 Y106.611
G1 F1200 X97.754 Y106.207 E8.46185
G1 X97.549 Y106.06 E8.46688
G1 X97.069 Y105.782 E8.47795
G1 X96.835 Y105.681 E8.48304
G1 X96.293 Y105.518 E8.49433
G1 X96.04 Y105.474 E8.49946
G1 X95.476 Y105.441 E8.51073
G1 X95.219 Y105.454 E8.51587
G1 X94.653 Y105.555 E8.52734
G1 X94.408 Y105.629 E8.53245
G1 X93.881 Y105.857 E8.54391
G1 X93.663 Y105.984 E8.54894
G1 X93.211 Y106.318 E8.56016
G1 X93.024 Y106.496 E8.56531
G1 X92.657 Y106.932 E8.57668
G1 X92.516 Y107.148 E8.58183
G1 X92.262 Y107.655 E8.59314
G1 X92.174 Y107.895 E8.59825
G1 X92.044 Y108.445 E8.60952
G1 X92.013 Y108.698 E8.61461
G1 X92.013 Y109.275 E8.62613
G1 X92.044 Y109.528 E8.63121
G1 X92.174 Y110.078 E8.64249
G1 X92.261 Y110.315 E8.64753
G1 X92.515 Y110.826 E8.65892
G1 X92.658 Y111.044 E8.66412
G1 X93.018 Y111.472 E8.67528
G1 X93.202 Y111.646 E8.68033
G1 X93.659 Y111.987 E8.69171
G1 X93.882 Y112.118 E8.69687
G1 X94.405 Y112.343 E8.70824
G1 X94.646 Y112.417 E8.71327
G1 X95.211 Y112.518 E8.72472
G1 X95.468 Y112.531 E8.72986
G1 X96.035 Y112.499 E8.74119
G1 X96.289 Y112.455 E8.74633
G1 X96.829 Y112.293 E8.75758
G1 X97.064 Y112.194 E8.76267
G1 X97.561 Y111.908 E8.77412
G1 X97.763 Y111.755 E8.77917
G1 X98.171 Y111.373 E8.79033
G1 X98.343 Y111.175 E8.79556
G1 X98.665 Y110.684 E8.80728
G1 X98.777 Y110.456 E8.81235
G1 X98.97 Y109.926 E8.8236
G1 X99.028 Y109.676 E8.82873
G1 X99.093 Y109.114 E8.84002
G1 X99.093 Y108.86 E8.84508
G1 X99.028 Y108.302 E8.8563
G1 X98.97 Y108.048 E8.86149
G1 X98.766 Y107.492 E8.87331
G1 X98.65 Y107.271 E8.87829
G1 X98.349 Y106.81 E8.88928
G1 X98.183 Y106.611 E8.89445
G0 F6000 X97.909 Y106.902
G1 F1200 X97.48 Y106.498 E8.90621
G1 X97.348 Y106.406 E8.90942
G1 X96.868 Y106.128 E8.92049
G1 X96.72 Y106.064 E8.92371
G1 X96.178 Y105.901 E8.93501
G1 X96.017 Y105.873 E8.93827
G1 X95.453 Y105.84 E8.94954
G1 X95.289 Y105.848 E8.95282
G1 X94.723 Y105.949 E8.96429
G1 X94.567 Y105.996 E8.96754
G1 X94.04 Y106.224 E8.979
G1 X93.901 Y106.306 E8.98222
G1 X93.449 Y106.64 E8.99344
G1 X93.33 Y106.753 E8.99671
G1 X92.948 Y107.209 E9.00858
G1 X92.873 Y107.327 E9.01137
G1 X92.61 Y107.855 E9.02315
