;FLAVOR:Marlin
;TIME:2168
;Filament used: 0.71829m
;Layer height: 0.12
;MINX:102.718
;MINY:103.576
;MINZ:0.12
;MAXX:117.282
;MAXY:116.424
;MAXZ:18
;Generated with Cura_SteamEngine master
M140 S75
M105
M190 S75
M104 S205
M105
M109 S205
M82 ;absolute extrusion mode
; Ender 3 Custom Start G-code
G92 E0 ; Reset Extruder
G28 ; Home all axes
G1 Z2.0 F3000 ; Move Z Axis up little to prevent scratching of Heat Bed
G1 X0.1 Y20 Z0.3 F5000.0 ; Move to start position
G1 X0.1 Y200.0 Z0.3 F1500.0 E15 ; Draw the first line
G1 X0.4 Y200.0 Z0.3 F5000.0 ; Move to side a little
G1 X0.4 Y20 Z0.3 F1500.0 E30 ; Draw the second line
G92 E0 ; Reset Extruder
G1 Z2.0 F3000 ; Move Z Axis up little to prevent scratching of Heat Bed
G1 X5 Y20 Z0.3 F5000.0 ; Move over to prevent blob squish
G92 E0
G92 E0
G1 F1500 E-6.5
;LAYER_COUNT:150
;LAYER:0
M107
G0 F6000 X106.868 Y107.062 Z0.12
;TYPE:SKIRT
G1 F1500 E0
G1 F1200 X106.577 Y107.403 E0.00895
G1 X106.26 Y107.885 E0.02046
G1 X106.114 Y108.163 E0.02673
G1 X106.064 Y108.282 E0.0293
G1 X105.876 Y108.8 E0.0403
G1 X105.802 Y109.077 E0.04602
G1 X105.775 Y109.229 E0.0491
G1 X105.711 Y109.779 E0.06015
G1 X105.702 Y110.059 E0.06574
G1 X105.711 Y110.221 E0.06898
G1 X105.775 Y110.771 E0.08003
G1 X105.828 Y111.036 E0.08542
G1 X105.876 Y111.2 E0.08883
G1 X106.064 Y111.718 E0.09983
G1 X106.26 Y112.115 E0.10866
G1 X106.577 Y112.597 E0.12018
G1 X106.779 Y112.846 E0.12658
G1 X106.868 Y112.938 E0.12913
G1 X107.272 Y113.317 E0.14018
G1 X107.506 Y113.5 E0.14611
G1 X107.619 Y113.573 E0.1488
G1 X108.093 Y113.848 E0.15973
G1 X108.355 Y113.971 E0.16551
G1 X108.501 Y114.024 E0.16861
G1 X109.037 Y114.185 E0.17978
G1 X109.315 Y114.243 E0.18544
G1 X109.474 Y114.262 E0.18864
G1 X110.024 Y114.294 E0.19963
G1 X110.281 Y114.29 E0.20476
G1 X110.462 Y114.27 E0.2084
G1 X111.017 Y114.173 E0.21964
G1 X111.31 Y114.093 E0.2257
G1 X111.436 Y114.046 E0.22839
G1 X111.953 Y113.825 E0.23961
G1 X112.224 Y113.679 E0.24575
G1 X112.343 Y113.599 E0.24861
G1 X112.774 Y113.277 E0.25935
G1 X113.092 Y112.982 E0.268
G1 X113.462 Y112.543 E0.27946
G1 X113.631 Y112.304 E0.2853
G1 X113.71 Y112.166 E0.28848
G1 X113.954 Y111.677 E0.29938
G1 X114.052 Y111.435 E0.30459
G1 X114.103 Y111.269 E0.30806
G1 X114.233 Y110.722 E0.31928
G1 X114.274 Y110.464 E0.32449
G1 X114.286 Y110.283 E0.32811
G1 X114.286 Y109.722 E0.33931
G1 X114.259 Y109.425 E0.34526
G1 X114.234 Y109.289 E0.34802
G1 X114.106 Y108.743 E0.35921
G1 X114.017 Y108.472 E0.3649
G1 X113.957 Y108.331 E0.36796
G1 X113.711 Y107.836 E0.37899
G1 X113.566 Y107.596 E0.38459
G1 X113.462 Y107.457 E0.38805
G1 X113.092 Y107.018 E0.39951
G1 X112.856 Y106.79 E0.40606
G1 X112.773 Y106.723 E0.40818
G1 X112.343 Y106.402 E0.41889
G1 X112.129 Y106.265 E0.42396
G1 X111.958 Y106.177 E0.4278
G1 X111.444 Y105.956 E0.43897
G1 X111.205 Y105.873 E0.44402
G1 X111.023 Y105.828 E0.44776
G1 X110.464 Y105.73 E0.45908
G1 X110.166 Y105.705 E0.46505
G1 X110.025 Y105.706 E0.46786
G1 X109.474 Y105.738 E0.47888
G1 X109.2 Y105.777 E0.4844
G1 X109.037 Y105.815 E0.48774
G1 X108.501 Y105.976 E0.49891
G1 X108.247 Y106.075 E0.50435
G1 X108.093 Y106.152 E0.50779
G1 X107.619 Y106.427 E0.51872
G1 X107.272 Y106.683 E0.52733
G1 X106.868 Y107.062 E0.53838
G0 F6000 X107.142 Y107.354
G1 F1200 X106.911 Y107.623 E0.54546
G1 X106.594 Y108.105 E0.55697
G1 X106.476 Y108.333 E0.56209
G1 X106.44 Y108.419 E0.56395
G1 X106.252 Y108.937 E0.57495
G1 X106.173 Y109.275 E0.58188
G1 X106.109 Y109.825 E0.59293
G1 X106.109 Y110.175 E0.59991
G1 X106.173 Y110.725 E0.61096
G1 X106.252 Y111.063 E0.61789
G1 X106.44 Y111.581 E0.62889
G1 X106.594 Y111.895 E0.63587
G1 X106.911 Y112.377 E0.64738
G1 X107.078 Y112.581 E0.65264
G1 X107.142 Y112.646 E0.65446
G1 X107.546 Y113.025 E0.66552
G1 X107.82 Y113.227 E0.67231
G1 X108.294 Y113.502 E0.68324
G1 X108.616 Y113.641 E0.69024
G1 X109.152 Y113.802 E0.70141
G1 X109.497 Y113.862 E0.7084
G1 X110.047 Y113.894 E0.71939
G1 X110.393 Y113.876 E0.72631
G1 X110.948 Y113.779 E0.73755
G1 X111.189 Y113.712 E0.74254
G1 X111.279 Y113.679 E0.74446
G1 X111.796 Y113.458 E0.75568
G1 X112.018 Y113.335 E0.76074
G1 X112.104 Y113.278 E0.7628
G1 X112.535 Y112.956 E0.77354
G1 X112.787 Y112.724 E0.78037
G1 X113.157 Y112.285 E0.79183
G1 X113.352 Y111.987 E0.79894
G1 X113.596 Y111.498 E0.80984
G1 X113.714 Y111.176 E0.81669
G1 X113.844 Y110.629 E0.82791
G1 X113.886 Y110.283 E0.83486
G1 X113.886 Y109.722 E0.84606
G1 X113.845 Y109.381 E0.85291
G1 X113.717 Y108.835 E0.8641
G1 X113.599 Y108.509 E0.87102
G1 X113.353 Y108.014 E0.88205
G1 X113.157 Y107.715 E0.88919
G1 X112.787 Y107.276 E0.90065
G1 X112.593 Y107.091 E0.90599
G1 X112.534 Y107.044 E0.9075
G1 X112.104 Y106.723 E0.91821
G1 X111.8 Y106.544 E0.92525
G1 X111.286 Y106.323 E0.93641
G1 X110.954 Y106.222 E0.94334
G1 X110.395 Y106.124 E0.95466
G1 X110.048 Y106.106 E0.9616
G1 X109.497 Y106.138 E0.97261
G1 X109.152 Y106.198 E0.9796
G1 X108.616 Y106.359 E0.99077
G1 X108.294 Y106.498 E0.99777
G1 X107.82 Y106.773 E1.0087
G1 X107.546 Y106.975 E1.0155
G1 X107.142 Y107.354 E1.02655
G0 F6000 X107.415 Y107.645
G1 F1200 X107.246 Y107.842 E1.03173
G1 X106.929 Y108.324 E1.04325
G1 X106.816 Y108.555 E1.04838
G1 X106.628 Y109.073 E1.05937
G1 X106.57 Y109.322 E1.06448
G1 X106.506 Y109.872 E1.07553
G1 X106.506 Y110.128 E1.08063
G1 X106.57 Y110.678 E1.09168
G1 X106.628 Y110.927 E1.09679
G1 X106.816 Y111.445 E1.10778
G1 X106.929 Y111.676 E1.11292
G1 X107.246 Y112.158 E1.12443
G1 X107.415 Y112.355 E1.12961
G1 X107.819 Y112.734 E1.14066
G1 X108.021 Y112.881 E1.14565
G1 X108.495 Y113.156 E1.15658
G1 X108.731 Y113.258 E1.16171
G1 X109.267 Y113.419 E1.17288
G1 X109.52 Y113.463 E1.17801
G1 X110.07 Y113.495 E1.189
G1 X110.324 Y113.482 E1.19408
G1 X110.879 Y113.385 E1.20532
G1 X111.122 Y113.311 E1.21039
G1 X111.639 Y113.09 E1.22161
G1 X111.864 Y112.958 E1.22682
G1 X112.295 Y112.636 E1.23755
G1 X112.481 Y112.467 E1.24257
G1 X112.851 Y112.028 E1.25403
G1 X112.994 Y111.809 E1.25925
G1 X113.238 Y111.32 E1.27015
G1 X113.325 Y111.084 E1.27517
G1 X113.455 Y110.537 E1.28639
G1 X113.486 Y110.283 E1.2915
G1 X113.486 Y109.722 E1.30269
G1 X113.455 Y109.472 E1.30772
G1 X113.327 Y108.926 E1.31891
G1 X113.24 Y108.687 E1.32399
G1 X112.994 Y108.192 E1.33502
G1 X112.851 Y107.972 E1.34025
G1 X112.481 Y107.533 E1.35171
G1 X112.295 Y107.364 E1.35673
G1 X111.865 Y107.043 E1.36743
G1 X111.642 Y106.912 E1.3726
G1 X111.128 Y106.691 E1.38376
G1 X110.885 Y106.616 E1.38884
G1 X110.326 Y106.518 E1.40016
G1 X110.071 Y106.505 E1.40526
G1 X109.52 Y106.537 E1.41627
G1 X109.267 Y106.581 E1.4214
G1 X108.731 Y106.742 E1.43257
G1 X108.495 Y106.844 E1.4377
G1 X108.021 Y107.119 E1.44863
G1 X107.819 Y107.266 E1.45362
G1 X107.415 Y107.645 E1.46467
G0 F6000 X107.676 Y107.95
G1 F1200 X107.58 Y108.062 E1.46762
G1 X107.263 Y108.544 E1.47913
G1 X107.192 Y108.692 E1.4824
G1 X106.997 Y109.233 E1.49388
G1 X106.967 Y109.368 E1.49664
G1 X106.903 Y109.918 E1.50769
G1 X106.903 Y110.082 E1.51096
G1 X106.971 Y110.654 E1.52246
G1 X107.004 Y110.79 E1.52525
G1 X107.199 Y111.325 E1.53661
G1 X107.263 Y111.456 E1.53952
G1 X107.58 Y111.938 E1.55104
G1 X107.689 Y112.063 E1.55435
G1 X108.113 Y112.459 E1.56592
G1 X108.222 Y112.535 E1.56858
G1 X108.696 Y112.81 E1.57951
G1 X108.846 Y112.875 E1.58277
G1 X109.382 Y113.036 E1.59394
G1 X109.543 Y113.064 E1.5972
G1 X110.114 Y113.096 E1.60862
G1 X110.255 Y113.088 E1.61144
G1 X110.837 Y112.985 E1.62323
G1 X110.965 Y112.943 E1.62592
G1 X111.482 Y112.722 E1.63714
G1 X111.625 Y112.637 E1.64046
G1 X112.067 Y112.306 E1.65148
G1 X112.175 Y112.209 E1.65438
G1 X112.56 Y111.75 E1.66633
G1 X112.636 Y111.63 E1.66917
G1 X112.888 Y111.122 E1.68048
G1 X112.936 Y110.991 E1.68327
G1 X113.066 Y110.444 E1.69449
G1 X113.086 Y110.283 E1.69772
G1 X113.086 Y109.722 E1.70892
G1 X113.066 Y109.563 E1.71212
G1 X112.938 Y109.017 E1.72331
G1 X112.882 Y108.865 E1.72654
G1 X112.625 Y108.35 E1.73803
G1 X112.545 Y108.23 E1.74091
G1 X112.175 Y107.791 E1.75236
G1 X112.056 Y107.685 E1.75554
G1 X111.609 Y107.353 E1.76665
G1 X111.484 Y107.279 E1.76955
G1 X110.952 Y107.051 E1.7811
G1 X110.816 Y107.01 E1.78394
G1 X110.257 Y106.912 E1.79526
G1 X110.115 Y106.904 E1.7981
G1 X109.543 Y106.936 E1.80954
G1 X109.382 Y106.964 E1.8128
G1 X108.846 Y107.125 E1.82396
G1 X108.696 Y107.19 E1.82723
G1 X108.205 Y107.475 E1.83856
G1 X108.093 Y107.558 E1.84134
G1 X107.676 Y107.95 E1.85276
G0 F6000 X107.482 Y105.641
G1 F1200 X112.518 Y105.641 E1.95326
G1 X115.034 Y109.999 E2.05368
G1 X112.517 Y114.359 E2.15415
G1 X107.483 Y114.359 E2.25461
G1 X104.966 Y109.999 E2.35507
G1 X107.482 Y105.641 E2.45549
G0 F6000 X107.251 Y105.241
G1 F1200 X112.749 Y105.241 E2.56521
G1 X115.496 Y110 E2.67487
G1 X112.749 Y114.759 E2.78453
G1 X107.251 Y114.759 E2.89424
G1 X104.504 Y110 E3.0039
G1 X107.251 Y105.241 E3.11356
G0 F6000 X107.021 Y104.841
G1 F1200 X112.979 Y104.841 E3.23246
G1 X115.957 Y110 E3.35133
G1 X112.979 Y115.159 E3.47021
G1 X107.021 Y115.159 E3.58911
G1 X104.043 Y110 E3.70798
G1 X107.021 Y104.841 E3.82685
G0 F6000 X106.789 Y104.441
G1 F1200 X113.211 Y104.441 E3.95501
G1 X116.419 Y109.998 E4.08306
G1 X113.211 Y115.559 E4.21118
G1 X106.789 Y115.559 E4.33934
G1 X103.581 Y110.001 E4.4674
G1 X106.789 Y104.441 E4.5955
G1 F1500 E-1.9045
;MESH:WheelAdapter_v2.stl
G0 F6000 X108.625 Y107.619
G0 X109.161 Y108.539
G0 X109.176 Y109.589
G0 X109.078 Y110
G0 X109.176 Y110.411
G0 X109.401 Y110.678
G0 X110.062 Y111.091
;TYPE:WALL-INNER
G1 F1500 E4.5955
G1 F1200 X109.812 Y111.077 E4.6005
G1 X109.568 Y111.004 E4.60558
G1 X109.35 Y110.877 E4.61062
G1 X109.159 Y110.698 E4.61584
G1 X109.023 Y110.491 E4.62078
G1 X108.936 Y110.251 E4.62588
G1 X108.906 Y110 E4.63092
G1 X108.936 Y109.749 E4.63597
G1 X109.023 Y109.509 E4.64106
G1 X109.159 Y109.302 E4.646
G1 X109.35 Y109.123 E4.65123
G1 X109.568 Y108.996 E4.65626
G1 X109.812 Y108.923 E4.66134
G1 X110.062 Y108.909 E4.66634
G1 X110.315 Y108.953 E4.67147
G1 X110.547 Y109.053 E4.67651
G1 X110.749 Y109.204 E4.68154
G1 X110.912 Y109.398 E4.6866
G1 X111.027 Y109.628 E4.69173
G1 X111.086 Y109.877 E4.69684
G1 X111.086 Y110.125 E4.70178
G1 X111.027 Y110.373 E4.70687
G1 X110.912 Y110.602 E4.71199
G1 X110.748 Y110.797 E4.71707
G1 X110.55 Y110.946 E4.72202
G1 X110.309 Y111.048 E4.72724
G1 X110.062 Y111.091 E4.73224
G0 F6000 X110.087 Y111.493
G1 F1200 X109.741 Y111.473 E4.73916
G1 X109.407 Y111.373 E4.74612
G1 X109.109 Y111.2 E4.75299
G1 X108.852 Y110.959 E4.76002
G1 X108.663 Y110.672 E4.76688
G1 X108.544 Y110.344 E4.77384
G1 X108.504 Y110 E4.78075
G1 X108.544 Y109.656 E4.78767
G1 X108.663 Y109.328 E4.79463
G1 X108.852 Y109.041 E4.80149
G1 X109.109 Y108.8 E4.80852
G1 X109.407 Y108.627 E4.81539
G1 X109.741 Y108.527 E4.82235
G1 X110.087 Y108.507 E4.82927
G1 X110.43 Y108.567 E4.83622
G1 X110.749 Y108.705 E4.84315
G1 X111.023 Y108.909 E4.84997
G1 X111.25 Y109.179 E4.85701
G1 X111.405 Y109.489 E4.86393
G1 X111.486 Y109.832 E4.87096
G1 X111.486 Y110.172 E4.87774
G1 X111.405 Y110.512 E4.88472
G1 X111.25 Y110.821 E4.89162
G1 X111.025 Y111.089 E4.8986
G1 X110.748 Y111.296 E4.9055
G1 X110.424 Y111.434 E4.91253
G1 X110.087 Y111.493 E4.91936
G0 F6000 X110.111 Y111.895
;TYPE:WALL-OUTER
G1 F1200 X109.67 Y111.869 E4.92817
G1 X109.246 Y111.742 E4.93701
G1 X108.868 Y111.523 E4.94572
G1 X108.545 Y111.22 E4.95456
G1 X108.303 Y110.852 E4.96335
G1 X108.153 Y110.439 E4.97212
G1 X108.102 Y110 E4.98094
G1 X108.153 Y109.561 E4.98976
G1 X108.303 Y109.148 E4.99853
G1 X108.545 Y108.78 E5.00732
G1 X108.868 Y108.477 E5.01616
G1 X109.246 Y108.258 E5.02487
G1 X109.67 Y108.131 E5.03371
G1 X110.112 Y108.105 E5.04254
G1 X110.543 Y108.181 E5.05128
G1 X110.95 Y108.356 E5.06012
G1 X111.302 Y108.619 E5.06889
G1 X111.587 Y108.957 E5.07771
G1 X111.783 Y109.349 E5.08646
G1 X111.886 Y109.788 E5.09545
G1 X111.886 Y110.219 E5.10405
G1 X111.783 Y110.651 E5.11292
G1 X111.587 Y111.043 E5.12166
G1 X111.302 Y111.381 E5.13049
G1 X110.949 Y111.645 E5.13928
G1 X110.539 Y111.82 E5.14818
G1 X110.111 Y111.895 E5.15685
G0 F6000 X110.086 Y111.456
G0 X110.198 Y110.672
;TYPE:SKIN
G1 F1200 X109.878 Y110.689 E5.16325
G1 X109.583 Y110.561 E5.16966
G1 X109.375 Y110.317 E5.17606
G1 X109.3 Y110 E5.18256
G1 X109.375 Y109.683 E5.18906
G1 X109.583 Y109.439 E5.19546
G1 X109.878 Y109.311 E5.20188
G1 X110.043 Y109.301 E5.20518
G1 X110.353 Y109.395 E5.21164
G1 X110.583 Y109.612 E5.21795
G1 X110.696 Y109.925 E5.22459
G1 X110.657 Y110.239 E5.23091
G1 X110.479 Y110.511 E5.23739
G1 X110.198 Y110.672 E5.24386
G0 F6000 X109.957 Y110.522
G1 F1200 X109.474 Y110.039 E5.25749
G0 F6000 X109.629 Y109.629
G1 F1200 X110.375 Y110.375 E5.27854
G0 F6000 X110.529 Y109.964
G1 F1200 X110.03 Y109.464 E5.29264
G0 F6000 X110.159 Y108.733
G1 F1500 E-1.20736
;MESH:NONMESH
G0 F300 X110.159 Y108.733 Z0.24
G0 F6000 X109.161 Y108.539
G0 X108.625 Y107.619
G0 X106.789 Y104.441
;TIME_ELAPSED:20.444063
;LAYER:1
M140 S65
M106 S85
;TYPE:SUPPORT
G1 F1500 E5.29264
G1 F1069.4 X113.211 Y104.441 E5.4208
G1 X116.419 Y109.998 E5.54885
G1 X113.211 Y115.559 E5.67696
G1 X106.789 Y115.559 E5.80512
G1 X103.581 Y110.001 E5.93319
G1 X106.789 Y104.441 E6.06129
G0 F7500 X107.682 Y107.943
G1 F1069.4 X107.588 Y108.05 E6.06413
G1 X107.255 Y108.556 E6.07622
G1 X107.195 Y108.683 E6.07902
G1 X107 Y109.221 E6.09044
G1 X106.969 Y109.357 E6.09322
G1 X106.902 Y109.929 E6.10472
G1 X106.902 Y110.071 E6.10755
G1 X106.969 Y110.643 E6.11904
G1 X107 Y110.779 E6.12183
G1 X107.195 Y111.317 E6.13325
G1 X107.255 Y111.444 E6.13605
G1 X107.588 Y111.95 E6.14814
G1 X107.682 Y112.057 E6.15098
G1 X108.103 Y112.451 E6.16249
G1 X108.213 Y112.53 E6.16519
G1 X108.706 Y112.816 E6.17656
G1 X108.836 Y112.871 E6.17938
G1 X109.394 Y113.039 E6.19101
G1 X109.532 Y113.063 E6.19381
G1 X110.11 Y113.096 E6.20536
G1 X110.244 Y113.09 E6.20804
G1 X110.802 Y112.994 E6.21933
G1 X110.961 Y112.946 E6.22265
G1 X111.497 Y112.715 E6.2343
G1 X111.616 Y112.643 E6.23707
G1 X112.062 Y112.311 E6.24817
G1 X112.165 Y112.221 E6.2509
G1 X112.553 Y111.76 E6.26292
G1 X112.631 Y111.64 E6.26578
G1 X112.885 Y111.132 E6.27711
G1 X112.933 Y111.003 E6.27986
G1 X113.068 Y110.434 E6.29153
G1 X113.086 Y110.296 E6.29431
G1 X113.086 Y109.704 E6.30612
G1 X113.068 Y109.566 E6.3089
G1 X112.933 Y108.997 E6.32057
G1 X112.885 Y108.868 E6.32331
G1 X112.631 Y108.36 E6.33465
G1 X112.553 Y108.24 E6.33751
G1 X112.165 Y107.779 E6.34953
G1 X112.062 Y107.689 E6.35226
G1 X111.618 Y107.358 E6.36331
G1 X111.497 Y107.285 E6.36613
G1 X110.961 Y107.054 E6.37778
G1 X110.829 Y107.012 E6.38054
G1 X110.244 Y106.91 E6.39239
G1 X110.105 Y106.904 E6.39517
G1 X109.532 Y106.937 E6.40662
G1 X109.394 Y106.961 E6.40942
G1 X108.836 Y107.129 E6.42105
G1 X108.706 Y107.184 E6.42387
G1 X108.213 Y107.47 E6.43524
G1 X108.103 Y107.549 E6.43794
G1 X107.682 Y107.943 E6.44945
G0 F7500 X110.103 Y106.504
G1 F1069.4 X110.287 Y106.512 E6.45312
G1 X110.925 Y106.622 E6.46604
G1 X111.101 Y106.678 E6.46973
G1 X111.681 Y106.929 E6.48234
G1 X111.842 Y107.026 E6.48609
G1 X112 Y107.143 E6.49002
G1 X112 Y104.841 E6.53595
G1 X112.981 Y104.841 E6.55553
G1 X114 Y106.607 E6.59622
G1 X114 Y113.392 E6.73162
G1 X115.957 Y109.998 E6.80981
G1 X114 Y106.607 E6.88794
G0 F7500 X112 Y107.143
G1 F1069.4 X112.314 Y107.377 E6.89575
G1 X112.451 Y107.498 E6.8994
G1 X112.875 Y108.001 E6.91253
G1 X112.979 Y108.16 E6.91632
G1 X113.253 Y108.708 E6.92855
G1 X113.317 Y108.881 E6.93223
G1 X113.462 Y109.494 E6.9448
G1 X113.486 Y109.678 E6.9485
G1 X113.486 Y110.322 E6.96135
G1 X113.462 Y110.506 E6.96506
G1 X113.317 Y111.119 E6.97763
G1 X113.253 Y111.292 E6.98131
G1 X112.979 Y111.84 E6.99353
G1 X112.875 Y111.999 E6.99733
G1 X112.451 Y112.502 E7.01045
G1 X112.314 Y112.623 E7.0141
G1 X112 Y112.856 E7.02191
G1 X112 Y115.159 E7.06786
G1 X110 Y115.159 E7.10778
G1 X110 Y113.49 E7.14108
G1 X109.486 Y113.461 E7.15136
G1 X109.302 Y113.429 E7.15508
G1 X108.7 Y113.247 E7.16763
G1 X108.528 Y113.174 E7.17136
G1 X108 Y112.869 E7.18353
G1 X107.995 Y112.866 E7.18365
G1 X107.849 Y112.761 E7.18724
G1 X107.394 Y112.335 E7.19968
G1 X107.27 Y112.194 E7.20342
G1 X106.905 Y111.64 E7.21666
G1 X106.825 Y111.471 E7.22039
G1 X106.616 Y110.892 E7.23268
G1 X106.575 Y110.711 E7.23638
G1 X106.502 Y110.095 E7.24876
G1 X106.502 Y109.905 E7.25255
G1 X106.575 Y109.289 E7.26493
