;FLAVOR:Marlin
;TIME:982
;Filament used: 0.418719m
;Layer height: 0.2
;MINX:54.707
;MINY:155.364
;MINZ:0.2
;MAXX:67.645
;MAXY:166.568
;MAXZ:19
;TARGET_MACHINE.NAME:Creality Ender-3 Pro
;Generated with Cura_SteamEngine 5.10.0
START_PRINT BED_TEMP=65 EXTRUDER_TEMP=205
M82 ;absolute extrusion mode
G92 E0
G92 E0
G1 F1500 E-6.5
;LAYER_COUNT:95
;LAYER:0
M107
;MESH:WheelAdapter_v5.stl
G0 F6000 X62.317 Y163.14 Z0.2
;TYPE:WALL-INNER
G1 F1500 E0
G1 F1200 X61.801 Y163.343 E0.01844
G1 X61.268 Y163.415 E0.03633
G1 X60.694 Y163.373 E0.05547
G1 X60.161 Y163.202 E0.07409
G1 X59.674 Y162.908 E0.09301
G1 X59.259 Y162.497 E0.11244
G1 X58.973 Y162.051 E0.13006
G1 X58.779 Y161.52 E0.14886
G1 X58.728 Y160.964 E0.16743
G1 X58.78 Y160.409 E0.18597
G1 X58.971 Y159.889 E0.2044
G1 X59.268 Y159.414 E0.22303
G1 X59.676 Y159.019 E0.24192
G1 X60.149 Y158.729 E0.26037
G1 X60.665 Y158.561 E0.27842
G1 X61.256 Y158.512 E0.29815
G1 X61.795 Y158.584 E0.31623
G1 X62.316 Y158.787 E0.33483
G1 X62.7 Y159.05 E0.35031
G1 X62.896 Y159.229 E0.35914
G1 X63.08 Y159.56 E0.37173
G1 X63.128 Y159.872 E0.38223
G1 X63.129 Y162.06 E0.45501
G1 X63.078 Y162.374 E0.46559
G1 X62.896 Y162.702 E0.47806
G1 X62.692 Y162.887 E0.48722
G1 X62.317 Y163.14 E0.50227
G0 F6000 X62.134 Y162.782
G1 F1200 X61.697 Y162.955 E0.5179
G1 X61.224 Y163.012 E0.53375
G1 X60.773 Y162.978 E0.54879
G1 X60.326 Y162.835 E0.5644
G1 X59.922 Y162.59 E0.58011
G1 X59.592 Y162.266 E0.5955
G1 X59.335 Y161.877 E0.611
G1 X59.175 Y161.437 E0.62657
G1 X59.124 Y160.963 E0.64243
G1 X59.175 Y160.491 E0.65822
G1 X59.332 Y160.065 E0.67332
G1 X59.579 Y159.67 E0.68882
G1 X59.921 Y159.338 E0.70467
G1 X60.32 Y159.094 E0.72023
G1 X60.776 Y158.952 E0.73611
G1 X61.212 Y158.916 E0.75066
G1 X61.695 Y158.974 E0.76684
G1 X62.136 Y159.147 E0.7826
G1 X62.566 Y159.445 E0.8
G1 X62.699 Y159.684 E0.80909
G1 X62.728 Y159.872 E0.81542
G1 X62.729 Y162.06 E0.88819
G1 X62.698 Y162.249 E0.89456
G1 X62.563 Y162.491 E0.90378
G1 X62.134 Y162.782 E0.92102
G1 F1500 E-5.57898
G0 F6000 X62.246 Y163.072
G0 X62.402 Y163.3
G0 X62.402 Y165.568
G0 X63.95 Y165.768
G1 F1500 E0.92102
G1 F1200 X66.721 Y160.964 E1.10548
G1 X63.95 Y156.164 E1.28982
G1 X58.405 Y156.164 E1.47425
G1 X55.632 Y160.964 E1.65862
G1 X58.406 Y165.768 E1.84313
G1 X63.95 Y165.768 E2.02752
G0 F6000 X64.181 Y166.168
G1 F1200 X67.183 Y160.964 E2.22735
G1 X64.181 Y155.764 E2.42705
G1 X58.175 Y155.764 E2.62681
G1 X55.17 Y160.964 E2.82657
G1 X58.175 Y166.168 E3.02644
G1 X64.181 Y166.168 E3.2262
G0 F6000 X64.412 Y166.568
;TYPE:WALL-OUTER
G1 F1200 X67.645 Y160.964 E3.44138
G1 X64.412 Y155.364 E3.65645
G1 X57.944 Y155.364 E3.87157
G1 X54.708 Y160.964 E4.08669
G1 X57.944 Y166.568 E4.30192
G1 X64.412 Y166.568 E4.51705
G1 F1500 E-1.98295
G0 F6000 X64.242 Y166.272
G0 X62.132 Y165.568
G0 X61.849 Y163.519
G0 X61.957 Y162.419
G1 F1500 E4.51705
G1 F1200 X61.583 Y162.566 E4.53042
G1 X61.207 Y162.612 E4.54302
G1 X60.826 Y162.575 E4.55575
G1 X60.472 Y162.456 E4.56817
G1 X60.188 Y162.284 E4.57921
G1 X59.898 Y162.009 E4.59251
G1 X59.702 Y161.709 E4.60442
G1 X59.565 Y161.322 E4.61808
G1 X59.529 Y160.986 E4.62932
G1 X59.576 Y160.562 E4.64351
G1 X59.706 Y160.221 E4.65564
G1 X59.882 Y159.941 E4.66664
G1 X60.152 Y159.672 E4.67932
G1 X60.51 Y159.453 E4.69328
G1 X60.845 Y159.346 E4.70498
G1 X61.239 Y159.317 E4.71812
G1 X61.571 Y159.361 E4.72925
G1 X61.967 Y159.515 E4.74339
G1 X62.279 Y159.732 E4.75603
G1 X62.328 Y159.826 E4.75955
G1 X62.329 Y162.106 E4.83539
G1 X62.274 Y162.204 E4.83912
G1 X61.957 Y162.419 E4.85186
G1 F1500 E-1.64814
G0 F6000 X62.132 Y162.676
G0 X62.402 Y163.3
G0 X62.402 Y165.568
G0 X63.74 Y165.668
G0 X63.74 Y165.408
;TYPE:SKIN
G1 F1500 E4.85186
G1 F1200 X58.612 Y165.408 E5.02242
G1 X56.048 Y160.965 E5.19304
G1 X58.616 Y156.524 E5.36366
G1 X63.74 Y156.524 E5.53409
G1 X66.305 Y160.964 E5.70463
G1 X63.74 Y165.408 E5.8753
G1 F1500 E-0.6247
G0 F6000 X63.74 Y165.668
G0 X61.834 Y165.568
G0 X61.563 Y163.577
G0 X61.834 Y163.439
G0 X61.867 Y163.699
G1 F1500 E5.8753
G1 F1200 X62.467 Y163.466 E5.8967
G1 X62.889 Y163.186 E5.91355
G1 X63.17 Y162.933 E5.92612
G1 X63.42 Y162.491 E5.94301
G1 X63.486 Y162.089 E5.95656
G1 X63.489 Y159.876 E6.03017
G1 X63.425 Y159.44 E6.04482
G1 X63.177 Y158.999 E6.06165
G1 X62.923 Y158.768 E6.07307
G1 X62.511 Y158.482 E6.08975
G1 X62.045 Y158.293 E6.10648
G1 X61.742 Y158.214 E6.11689
G1 X61.286 Y158.153 E6.13219
G1 X60.611 Y158.204 E6.15471
G1 X60.154 Y158.345 E6.17062
G1 X59.877 Y158.469 E6.18071
G1 X59.569 Y158.661 E6.19278
G1 X59.357 Y158.825 E6.2017
G1 X59.101 Y159.072 E6.21353
G1 X58.912 Y159.302 E6.22343
G1 X58.658 Y159.705 E6.23927
G1 X58.484 Y160.162 E6.25554
G1 X58.408 Y160.482 E6.26648
G1 X58.368 Y160.982 E6.28316
G1 X58.408 Y161.446 E6.29865
G1 X58.477 Y161.743 E6.30879
G1 X58.654 Y162.221 E6.32575
G1 X58.978 Y162.725 E6.34567
G1 X59.334 Y163.082 E6.36244
G1 X59.565 Y163.263 E6.3722
G1 X59.885 Y163.455 E6.38461
G1 X60.141 Y163.571 E6.39396
G1 X60.475 Y163.679 E6.40564
G1 X60.747 Y163.736 E6.41488
G1 X61.303 Y163.775 E6.43342
G1 X61.867 Y163.699 E6.45235
G1 F1500 E-0.04765
G0 F6000 X61.834 Y163.439
G0 X60.79 Y163.562
G0 X60.79 Y165.568
G0 X58.859 Y165.668
G0 X58.859 Y165.208
G1 F1500 E6.45235
G1 F1200 X58.548 Y164.897 E6.46698
G0 F6000 X59.425 Y165.208
G1 F1200 X57.776 Y163.559 E6.54454
G0 F6000 X57.378 Y163.788
G0 X56.606 Y162.451
G0 X57.004 Y162.222
G1 F1200 X59.99 Y165.208 E6.68499
G0 F6000 X60.556 Y165.208
G1 F1200 X56.291 Y160.943 E6.8856
G0 F6000 X56.499 Y160.585
G1 F1200 X61.122 Y165.208 E7.10306
G0 F6000 X61.687 Y165.208
G1 F1200 X60.318 Y163.838 E7.16747
G0 F6000 X61.001 Y163.955
G1 F1200 X62.253 Y165.208 E7.22639
G0 F6000 X62.819 Y165.208
G1 F1200 X61.554 Y163.943 E7.28589
G0 F6000 X62.032 Y163.856
G1 F1200 X63.384 Y165.208 E7.34948
G0 F6000 X63.744 Y165.002
G1 F1200 X62.437 Y163.695 E7.41096
G0 F6000 X62.798 Y163.49
G1 F1200 X63.951 Y164.643 E7.46519
G0 F6000 X64.158 Y164.284
G1 F1200 X63.12 Y163.246 E7.51402
G0 F6000 X63.388 Y162.949
G1 F1200 X64.365 Y163.926 E7.55997
G0 F6000 X64.572 Y163.567
G1 F1200 X63.594 Y162.589 E7.60598
G0 F6000 X63.683 Y162.113
G1 F1200 X64.779 Y163.208 E7.6575
G0 F6000 X64.986 Y162.85
G1 F1200 X63.685 Y161.548 E7.71872
G0 F6000 X63.686 Y160.984
G1 F1200 X65.193 Y162.491 E7.78961
G0 F6000 X65.4 Y162.133
G1 F1200 X63.688 Y160.42 E7.87016
G0 F6000 X63.686 Y159.852
G1 F1200 X65.607 Y161.774 E7.96054
G0 F6000 X65.814 Y161.415
G1 F1200 X63.411 Y159.011 E8.07359
G0 F6000 X62.93 Y158.531
G1 F1200 X61.124 Y156.725 E8.15854
G0 F6000 X61.689 Y156.725
G1 F1200 X66.021 Y161.056 E8.36228
G0 F6000 X66.419 Y161.286
G0 X66.519 Y160.996
G0 X65.898 Y159.741
G0 X65.5 Y159.969
G1 F1200 X62.255 Y156.725 E8.51489
G0 F6000 X62.821 Y156.725
G1 F1200 X64.726 Y158.63 E8.6045
G0 F6000 X65.125 Y158.401
G0 X64.352 Y157.061
G0 X63.952 Y157.29
G1 F1200 X63.386 Y156.725 E8.6311
G1 F1500 E2.1311
G0 F6000 X63.386 Y156.264
G0 X61.761 Y156.364
G0 X61.496 Y158.362
G0 X61.761 Y158.487
G0 X61.875 Y158.042
G1 F1500 E8.6311
G1 F1200 X60.558 Y156.725 E8.69305
G0 F6000 X59.992 Y156.725
G1 F1200 X61.223 Y157.955 E8.75092
G0 F6000 X60.7 Y157.998
G1 F1200 X59.427 Y156.725 E8.8108
G0 F6000 X58.861 Y156.725
G1 F1200 X60.245 Y158.109 E8.8759
G0 F6000 X59.84 Y158.269
G1 F1200 X58.571 Y157 E8.93559
G0 F6000 X58.364 Y157.359
G1 F1200 X59.483 Y158.478 E8.98823
G0 F6000 X59.169 Y158.729
G1 F1200 X58.157 Y157.717 E9.03583
G0 F6000 X57.95 Y158.076
G1 F1200 X58.89 Y159.016 E9.08004
G0 F6000 X58.65 Y159.342
G1 F1200 X57.742 Y158.434 E9.12275
G0 F6000 X57.534 Y158.792
G1 F1200 X58.446 Y159.704 E9.16565
G0 F6000 X58.291 Y160.114
G1 F1200 X57.327 Y159.151 E9.21097
G0 F6000 X57.12 Y159.509
G1 F1200 X58.203 Y160.592 E9.26191
G0 F6000 X58.181 Y161.135
G1 F1200 X56.913 Y159.868 E9.32153
G0 F6000 X56.706 Y160.226
G1 F1200 X58.29 Y161.81 E9.39604
M104 S205
;MESH:NONMESH
G0 F300 X58.29 Y161.81 Z0.4
G0 F6000 X58.731 Y161.683
G0 X59.771 Y162.791
G0 X60.222 Y163.063
G0 X60.722 Y163.225
G0 X61.022 Y163.25
G0 X62.317 Y163.14
;TIME_ELAPSED:27.457546
;LAYER:1
M106 S85
;TYPE:WALL-INNER
;MESH:WheelAdapter_v5.stl
G1 F2100 X61.801 Y163.343 E9.41448
G1 X61.262 Y163.415 E9.43257
G1 X60.694 Y163.373 E9.45151
G1 X60.161 Y163.202 E9.47013
G1 X59.674 Y162.908 E9.48905
G1 X59.257 Y162.495 E9.50857
G1 X58.972 Y162.045 E9.52628
G1 X58.779 Y161.515 E9.54504
G1 X58.728 Y160.964 E9.56345
G1 X58.78 Y160.409 E9.58199
G1 X58.971 Y159.889 E9.60041
G1 X59.269 Y159.413 E9.61909
G1 X59.679 Y159.017 E9.63805
G1 X60.157 Y158.727 E9.65665
G1 X60.674 Y158.561 E9.67471
G1 X61.269 Y158.512 E9.69456
G1 X61.804 Y158.59 E9.71255
G1 X62.31 Y158.784 E9.73057
G1 X62.691 Y159.041 E9.74586
G1 X62.895 Y159.225 E9.75499
G1 X63.077 Y159.553 E9.76747
G1 X63.128 Y159.868 E9.77808
G1 X63.129 Y162.06 E9.85099
G1 X63.078 Y162.374 E9.86157
G1 X62.896 Y162.702 E9.87405
G1 X62.692 Y162.887 E9.8832
G1 X62.317 Y163.14 E9.89825
G0 F10500 X62.134 Y162.782
G1 F2100 X61.696 Y162.955 E9.91391
G1 X61.22 Y163.012 E9.92986
G1 X60.768 Y162.977 E9.94494
G1 X60.325 Y162.834 E9.96042
G1 X59.922 Y162.59 E9.97609
G1 X59.592 Y162.266 E9.99147
G1 X59.335 Y161.872 E10.00712
G1 X59.175 Y161.433 E10.02266
G1 X59.124 Y160.964 E10.03835
G1 X59.175 Y160.492 E10.05414
G1 X59.332 Y160.065 E10.06927
G1 X59.579 Y159.67 E10.08477
G1 X59.921 Y159.338 E10.10062
G1 X60.329 Y159.091 E10.11648
G1 X60.784 Y158.952 E10.13231
G1 X61.22 Y158.916 E10.14686
G1 X61.697 Y158.978 E10.16285
G1 X62.131 Y159.144 E10.17831
G1 X62.564 Y159.439 E10.19574
G1 X62.698 Y159.679 E10.20488
G1 X62.728 Y159.868 E10.21124
G1 X62.729 Y162.06 E10.28415
G1 X62.698 Y162.249 E10.29052
G1 X62.563 Y162.491 E10.29974
G1 X62.134 Y162.782 E10.31698
G1 F1500 E3.81698
G0 F10500 X62.246 Y163.072
G0 X62.402 Y163.3
G0 X62.402 Y165.568
G0 X63.95 Y165.768
G1 F1500 E10.31698
G1 F2100 X66.721 Y160.964 E10.50143
G1 X63.95 Y156.164 E10.68578
G1 X58.406 Y156.165 E10.87017
G1 X55.632 Y160.964 E11.05453
G1 X58.406 Y165.768 E11.23904
G1 X63.95 Y165.768 E11.42343
G0 F10500 X64.181 Y166.168
G1 F2100 X67.183 Y160.964 E11.62325
G1 X64.181 Y155.764 E11.82296
G1 X58.175 Y155.765 E12.02272
G1 X55.17 Y160.964 E12.22245
G1 X58.175 Y166.168 E12.42232
G1 X64.181 Y166.168 E12.62208
G0 F10500 X64.412 Y166.568
;TYPE:WALL-OUTER
G1 F2100 X67.645 Y160.964 E12.83726
G1 X64.412 Y155.364 E13.05233
G1 X57.944 Y155.365 E13.26745
G1 X54.708 Y160.964 E13.48254
G1 X57.944 Y166.568 E13.69778
G1 X64.412 Y166.568 E13.9129
G1 F1500 E7.4129
G0 F10500 X64.242 Y166.272
G0 X62.132 Y165.568
G0 X61.848 Y163.519
G0 X61.957 Y162.419
G1 F1500 E13.9129
G1 F2100 X61.583 Y162.566 E13.92627
G1 X61.203 Y162.612 E13.939
G1 X60.826 Y162.575 E13.9516
G1 X60.472 Y162.456 E13.96402
G1 X60.188 Y162.284 E13.97506
G1 X59.898 Y162.009 E13.98836
G1 X59.702 Y161.705 E14.00039
G1 X59.565 Y161.318 E14.01404
G1 X59.529 Y160.986 E14.02515
G1 X59.576 Y160.562 E14.03934
G1 X59.706 Y160.221 E14.05147
G1 X59.882 Y159.941 E14.06247
G1 X60.188 Y159.644 E14.07666
G1 X60.514 Y159.453 E14.08922
G1 X60.853 Y159.346 E14.10105
G1 X61.203 Y159.316 E14.11273
G1 X61.62 Y159.377 E14.12675
G1 X61.965 Y159.514 E14.1391
G1 X62.274 Y159.725 E14.15154
G1 X62.328 Y159.823 E14.15526
G1 X62.329 Y162.106 E14.23119
G1 X62.274 Y162.204 E14.23493
G1 X61.957 Y162.419 E14.24767
G1 F1500 E7.74767
G0 F10500 X62.132 Y162.676
G0 X62.402 Y163.3
G0 X62.402 Y165.568
G0 X63.74 Y165.668
G0 X63.74 Y165.408
;TYPE:SKIN
G1 F1500 E14.24767
G1 F2100 X58.612 Y165.408 E14.41823
G1 X56.048 Y160.965 E14.58885
G1 X58.616 Y156.524 E14.75947
G1 X63.74 Y156.524 E14.9299
G1 X66.305 Y160.964 E15.10044
G1 X63.74 Y165.408 E15.2711
G1 F1500 E8.7711
G0 F10500 X63.74 Y165.668
G0 X61.829 Y165.568
G0 X61.56 Y163.577
G0 X61.829 Y163.44
G0 X61.872 Y163.695
G1 F1500 E15.2711
G1 F2100 X62.466 Y163.467 E15.29227
G1 X62.889 Y163.186 E15.30916
G1 X63.17 Y162.933 E15.32173
G1 X63.42 Y162.491 E15.33862
G1 X63.486 Y162.089 E15.35217
G1 X63.489 Y159.868 E15.42604
G1 X63.421 Y159.432 E15.44072
G1 X63.176 Y158.998 E15.4573
G1 X62.912 Y158.756 E15.46921
G1 X62.455 Y158.452 E15.48746
G1 X62.031 Y158.292 E15.50254
G1 X61.765 Y158.219 E15.51171
G1 X61.258 Y158.148 E15.52874
G1 X60.618 Y158.204 E15.55011
G1 X60.162 Y158.345 E15.56598
G1 X59.89 Y158.465 E15.57587
G1 X59.587 Y158.649 E15.58766
G1 X59.344 Y158.836 E15.59786
G1 X59.1 Y159.072 E15.60915
G1 X58.912 Y159.302 E15.61903
G1 X58.658 Y159.705 E15.63487
G1 X58.484 Y160.162 E15.65114
G1 X58.408 Y160.482 E15.66208
G1 X58.368 Y160.978 E15.67863
G1 X58.408 Y161.442 E15.69412
G1 X58.477 Y161.739 E15.70426
G1 X58.654 Y162.221 E15.72134
G1 X58.974 Y162.717 E15.74097
G1 X59.342 Y163.086 E15.7583
G1 X59.564 Y163.262 E15.76772
G1 X59.885 Y163.455 E15.78018
G1 X60.141 Y163.571 E15.78953
G1 X60.475 Y163.679 E15.80121
G1 X60.743 Y163.736 E15.81032
G1 X61.257 Y163.776 E15.82747
G1 X61.872 Y163.695 E15.8481
G1 F1500 E9.3481
G0 F10500 X61.829 Y163.44
G0 X62.399 Y163.321
G0 X62.399 Y165.568
G0 X63.328 Y165.668
G0 X63.328 Y165.208
G1 F1500 E15.8481
G1 F2100 X64.027 Y164.51 E15.88095
G0 F10500 X64.426 Y164.74
G0 X63.854 Y165.602
G0 X62.763 Y165.668
G0 X62.763 Y165.208
G1 F2100 X64.799 Y163.172 E15.97672
G0 F10500 X65.198 Y163.402
G0 X64.954 Y163.665
G0 X63.129 Y162.647
G0 X63.472 Y162.802
G1 F2100 X65.794 Y160.48 E16.08594
G0 F10500 X65.587 Y160.122
G1 F2100 X63.684 Y162.024 E16.17543
G0 F10500 X63.686 Y161.457
G1 F2100 X65.38 Y159.763 E16.25511
G0 F10500 X65.173 Y159.404
G1 F2100 X63.687 Y160.89 E16.325
G0 F10500 X63.688 Y160.323
G1 F2100 X64.965 Y159.046 E16.38507
G0 F10500 X64.758 Y158.687
G1 F2100 X63.675 Y159.771 E16.43604
G0 F10500 X63.574 Y159.306
G1 F2100 X64.551 Y158.329 E16.48199
G0 F10500 X64.344 Y157.97
G1 F2100 X63.373 Y158.941 E16.52766
G0 F10500 X63.094 Y158.654
G1 F2100 X64.137 Y157.611 E16.57672
G0 F10500 X63.93 Y157.253
G1 F2100 X62.766 Y158.417 E16.63147
G0 F10500 X62.399 Y158.218
G1 F2100 X63.723 Y156.894 E16.69375
G0 F10500 X63.328 Y156.724
G1 F2100 X61.98 Y158.072 E16.75716
G0 F10500 X61.505 Y157.981
G1 F2100 X62.762 Y156.724 E16.81628
G0 F10500 X62.196 Y156.724
G1 F2100 X60.943 Y157.978 E16.87524
G0 F10500 X60.241 Y158.114
G1 F2100 X61.631 Y156.724 E16.94062
G0 F10500 X61.065 Y156.724
G1 F2100 X56.479 Y161.31 E17.15634
G0 F10500 X56.686 Y161.669
G1 F2100 X58.317 Y160.038 E17.23305
G0 F10500 X58.191 Y160.73
G1 F2100 X56.893 Y162.027 E17.29408
G0 F10500 X57.1 Y162.386
G1 F2100 X58.194 Y161.292 E17.34554
G0 F10500 X58.278 Y161.773
G1 F2100 X57.307 Y162.745 E17.39124
G0 F10500 X57.514 Y163.103
G1 F2100 X58.43 Y162.187 E17.43432
G0 F10500 X58.63 Y162.553
G1 F2100 X57.72 Y163.463 E17.47713
G0 F10500 X57.928 Y163.821
G1 F2100 X58.862 Y162.887 E17.52106
G0 F10500 X59.145 Y163.17
G1 F2100 X58.135 Y164.18 E17.56857
G0 F10500 X58.342 Y164.538
G1 F2100 X59.454 Y163.426 E17.62087
G0 F10500 X59.809 Y163.637
G1 F2100 X58.548 Y164.897 E17.68016
G0 F10500 X58.803 Y165.208
G1 F2100 X60.208 Y163.803 E17.74625
G0 F10500 X60.655 Y163.922
G1 F2100 X59.369 Y165.208 E17.80674
G0 F10500 X59.934 Y165.208
G1 F2100 X61.175 Y163.968 E17.86509
G0 F10500 X61.803 Y163.905
G1 F2100 X60.5 Y165.208 E17.92638
G0 F10500 X61.066 Y165.208
G1 F2100 X62.756 Y163.518 E18.00587
G1 F1500 E11.50587
G0 F10500 X62.501 Y163.136
G0 X61.848 Y163.519
G0 X61.848 Y165.568
G0 X62.197 Y165.668
G0 X62.197 Y165.208
G1 F1500 E18.00587
G1 F2100 X65.572 Y161.833 E18.16462
G0 F10500 X65.97 Y162.063
G0 X66.53 Y160.964
G0 X66.4 Y160.61
G0 X66.001 Y160.839
G1 F2100 X61.631 Y165.208 E18.37015
G0 F10500 X61.631 Y165.668
G0 X58.501 Y165.602
G0 X55.823 Y160.964
G0 X55.911 Y160.683
G0 X56.309 Y160.914
G1 F2100 X60.499 Y156.724 E18.56723
G0 F10500 X59.934 Y156.724
G1 F2100 X57.084 Y159.573 E18.70126
G0 F10500 X56.686 Y159.342
G0 X57.46 Y158.002
G0 X57.859 Y158.233
G1 F2100 X59.368 Y156.724 E18.77224
G0 F10500 X58.802 Y156.724
G1 F2100 X58.634 Y156.892 E18.78014
G1 F1500 E12.28014
;MESH:NONMESH
G0 F300 X58.634 Y156.892 Z0.6
G0 F10500 X58.236 Y156.66
G0 X56.52 Y159.788
G0 X58.589 Y160.505
G0 X59.111 Y161.983
G0 X59.393 Y162.425
G0 X59.771 Y162.791
G0 X60.222 Y163.063
G0 X60.722 Y163.225
G0 X61.019 Y163.25
G0 X62.317 Y163.14
;TIME_ELAPSED:47.092406
;LAYER:2
;note -- min layer time used
M106 S170
;TYPE:WALL-INNER
;MESH:WheelAdapter_v5.stl
G1 F1500 E18.78014
